;-- START GCODE --
;Sliced for Type A Machines Series 1
;Sliced at: Fri 02-12-2016 15:44:58
;Basic settings:
; Layer height: 0.4
; Walls: 1.2
; Fill: 8
; Print Speed: 45
; Support: 0
; Retraction Speed: 35
; Retraction Distance: 0.4
;Print time: 53 minutes
;Filament used: 9.931m 29.0g
;Settings based on: Type A Machines Everyday PLA
G21        ;metric values
G90        ;absolute positioning
G28     ;move to endstops
G1 Z15.0 F12000 ;move the platform down 15mm
G1 X150 Y5 F12000 ;center
M140 S50 ;Prep Heat Bed
M109 S215 ;Heat To temp
M190 S50 ;Heat Bed to temp
G1 X150 Y5 Z0.3 ;move the platform to purge extrusion
G92 E0 ;zero the extruded length
G1 F200 X250 E30 ;extrude 30mm of feed stock
G92 E0 ;zero the extruded length again
G1 X150 Y150  Z25 F12000 ;recenter and begin
G1 F12000

;Layer count: 63
;LAYER:0
M107
G0 F12000 X122.563 Y133.989 Z0.400
;TYPE:SKIRT
G1 F1800 X148.623 Y118.943 E3.00255
G1 X151.443 Y117.316 E3.32741
G1 X153.557 Y117.316 E3.53834
G1 X179.624 Y132.364 E6.54160
G1 X182.437 Y133.990 E6.86580
G1 X183.500 Y135.817 E7.07671
G1 X183.500 Y169.183 E10.40599
G1 X182.437 Y171.011 E10.61698
G1 X156.377 Y186.057 E13.61954
G1 X153.557 Y187.684 E13.94439
G1 X151.443 Y187.684 E14.15533
G1 X125.376 Y172.636 E17.15858
G1 X122.563 Y171.010 E17.48278
G1 X121.500 Y169.183 E17.69369
G1 X121.500 Y135.817 E21.02297
G1 X122.563 Y133.989 E21.23396
G1 F2100 E20.83396
G1 Z0.800
G0 F12000 X125.700 Y137.028
;TYPE:WALL-INNER
G1 Z0.400
G1 F2100 E21.23396
G1 F1800 X152.500 Y121.555 E24.32177
G1 X179.300 Y137.028 E27.40957
G1 X179.300 Y167.972 E30.49717
G1 X152.500 Y183.445 E33.58498
G1 X125.700 Y167.972 E36.67278
G1 X125.700 Y137.028 E39.76038
G0 F12000 X125.193 Y136.628
;TYPE:WALL-OUTER
G1 F1800 X152.408 Y120.916 E42.89597
G1 X152.592 Y120.916 E42.91433
G1 X179.807 Y136.628 E46.04992
G1 X179.900 Y136.788 E46.06838
G1 X179.900 Y168.212 E49.20388
G1 X179.807 Y168.372 E49.22235
G1 X152.592 Y184.084 E52.35794
G1 X152.408 Y184.084 E52.37630
G1 X125.193 Y168.372 E55.51188
G1 X125.100 Y168.212 E55.53035
G1 X125.100 Y136.788 E58.66585
G1 X125.193 Y136.628 E58.68431
G0 F12000 X126.000 Y137.097
;TYPE:SKIN
G1 F1800 X126.000 Y167.902 E61.75805
G0 F12000 X126.600 Y168.249
G1 F1800 X126.600 Y136.750 E64.90103
G0 F12000 X127.200 Y136.404
G1 F1800 X127.200 Y168.595 E68.11306
G0 F12000 X127.800 Y168.942
G1 F1800 X127.800 Y136.057 E71.39434
G0 F12000 X128.400 Y135.711
G1 F1800 X128.400 Y169.288 E74.74467
G0 F12000 X129.000 Y169.634
G1 F1800 X129.000 Y135.365 E78.16404
G0 F12000 X129.600 Y135.018
G1 F1800 X129.600 Y169.981 E81.65267
G0 F12000 X130.200 Y170.327
G1 F1800 X130.200 Y134.672 E85.21034
G0 F12000 X130.800 Y134.325
G1 F1800 X130.800 Y170.674 E88.83725
G0 F12000 X131.400 Y171.020
G1 F1800 X131.400 Y133.979 E92.53322
G0 F12000 X132.000 Y133.633
G1 F1800 X132.000 Y171.366 E96.29823
G0 F12000 X132.600 Y171.713
G1 F1800 X132.600 Y133.286 E100.13250
G0 F12000 X133.200 Y132.940
G1 F1800 X133.200 Y172.059 E104.03581
G0 F12000 X133.800 Y172.406
G1 F1800 X133.800 Y132.593 E108.00836
G0 F12000 X134.400 Y132.247
G1 F1800 X134.400 Y172.752 E112.04997
G0 F12000 X135.000 Y173.098
G1 F1800 X135.000 Y131.901 E116.16062
G0 F12000 X135.600 Y131.554
G1 F1800 X135.600 Y173.445 E120.34052
G0 F12000 X136.200 Y173.791
G1 F1800 X136.200 Y131.208 E124.58947
G0 F12000 X136.800 Y130.861
G1 F1800 X136.800 Y174.138 E128.90767
G0 F12000 X137.400 Y174.484
G1 F1800 X137.400 Y130.515 E133.29491
G0 F12000 X138.000 Y130.169
G1 F1800 X138.000 Y174.830 E137.75121
G0 F12000 X138.600 Y175.177
G1 F1800 X138.600 Y129.822 E142.27675
G0 F12000 X139.200 Y129.476
G1 F1800 X139.200 Y175.523 E146.87133
G0 F12000 X139.800 Y175.870
G1 F1800 X139.800 Y129.129 E151.53517
G0 F12000 X140.400 Y128.783
G1 F1800 X140.400 Y176.216 E156.26805
G0 F12000 X141.000 Y176.562
G1 F1800 X141.000 Y128.437 E161.06999
G0 F12000 X141.600 Y128.090
G1 F1800 X141.600 Y176.909 E165.94117
G0 F12000 X142.200 Y177.255
G1 F1800 X142.200 Y127.744 E170.88139
G0 F12000 X142.800 Y127.398
G1 F1800 X142.800 Y177.601 E175.89067
G0 F12000 X143.400 Y177.948
G1 F1800 X143.400 Y127.051 E180.96919
G0 F12000 X144.000 Y126.705
G1 F1800 X144.000 Y178.294 E186.11676
G0 F12000 X144.600 Y178.641
G1 F1800 X144.600 Y126.358 E191.33358
G0 F12000 X145.200 Y126.012
G1 F1800 X145.200 Y178.987 E196.61945
G0 F12000 X145.800 Y179.333
G1 F1800 X145.800 Y125.666 E201.97436
G0 F12000 X146.400 Y125.319
G1 F1800 X146.400 Y179.680 E207.39853
G1 F2100 E206.99853
G1 Z0.800
G0 F12000 X158.400 Y179.796
G1 Z0.400
G1 F2100 E207.39853
G1 F1800 X158.400 Y125.205 E212.84564
G0 F12000 X159.000 Y125.551
G1 F1800 X159.000 Y179.450 E218.22370
G0 F12000 X159.600 Y179.104
G1 F1800 X159.600 Y125.897 E223.53272
G1 F2100 E223.13272
G1 Z0.800
G0 F12000 X157.800 Y124.858
G1 Z0.400
G1 F2100 E223.53272
G1 F1800 X157.800 Y180.143 E229.04908
G0 F12000 X157.200 Y180.489
G1 F1800 X157.200 Y124.512 E234.63449
G0 F12000 X156.600 Y124.166
G1 F1800 X156.600 Y180.835 E240.28894
G0 F12000 X156.000 Y181.182
G1 F1800 X156.000 Y123.819 E246.01265
G0 F12000 X155.400 Y123.473
G1 F1800 X155.400 Y181.528 E251.80540
G0 F12000 X154.800 Y181.875
G1 F1800 X154.800 Y123.126 E257.66740
G0 F12000 X154.200 Y122.780
G1 F1800 X154.200 Y182.221 E263.59844
G0 F12000 X153.600 Y182.567
G1 F1800 X153.600 Y122.434 E269.59854
G0 F12000 X153.000 Y122.087
G1 F1800 X153.000 Y182.914 E275.66788
G0 F12000 X152.400 Y183.144
G1 F1800 X152.400 Y121.855 E281.78332
G0 F12000 X151.800 Y122.202
G1 F1800 X151.800 Y182.797 E287.82952
G0 F12000 X151.200 Y182.451
G1 F1800 X151.200 Y122.548 E293.80666
G0 F12000 X150.600 Y122.894
G1 F1800 X150.600 Y182.105 E299.71476
G0 F12000 X150.000 Y181.758
G1 F1800 X150.000 Y123.241 E305.55361
G0 F12000 X149.400 Y123.587
G1 F1800 X149.400 Y181.412 E311.32341
G0 F12000 X148.800 Y181.065
G1 F1800 X148.800 Y123.934 E317.02396
G0 F12000 X148.200 Y124.280
G1 F1800 X148.200 Y180.719 E322.65547
G0 F12000 X147.600 Y180.373
G1 F1800 X147.600 Y124.626 E328.21793
G0 F12000 X147.000 Y124.973
G1 F1800 X147.000 Y180.026 E333.71114
G1 F2100 E333.31114
G1 Z0.800
G0 F12000 X160.200 Y178.757
G1 Z0.400
G1 F2100 E333.71114
G1 F1800 X160.200 Y126.244 E338.95091
G0 F12000 X160.800 Y126.590
G1 F1800 X160.800 Y178.411 E344.12163
G0 F12000 X161.400 Y178.064
G1 F1800 X161.400 Y126.937 E349.22310
G0 F12000 X162.000 Y127.283
G1 F1800 X162.000 Y177.718 E354.25553
G0 F12000 X162.600 Y177.372
G1 F1800 X162.600 Y127.629 E359.21890
G0 F12000 X163.200 Y127.976
G1 F1800 X163.200 Y177.025 E364.11303
G0 F12000 X163.800 Y176.679
G1 F1800 X163.800 Y128.322 E368.93811
G0 F12000 X164.400 Y128.669
G1 F1800 X164.400 Y176.332 E373.69395
G0 F12000 X165.000 Y175.986
G1 F1800 X165.000 Y129.015 E378.38073
G0 F12000 X165.600 Y129.361
G1 F1800 X165.600 Y175.640 E382.99847
G0 F12000 X166.200 Y175.293
G1 F1800 X166.200 Y129.708 E387.54696
G0 F12000 X166.800 Y130.054
G1 F1800 X166.800 Y174.947 E392.02640
G0 F12000 X167.400 Y174.600
G1 F1800 X167.400 Y130.401 E396.43660
G0 F12000 X168.000 Y130.747
G1 F1800 X168.000 Y174.254 E400.77774
G0 F12000 X168.600 Y173.908
G1 F1800 X168.600 Y131.093 E405.04984
G0 F12000 X169.200 Y131.440
G1 F1800 X169.200 Y173.561 E409.25269
G0 F12000 X169.800 Y173.215
G1 F1800 X169.800 Y131.786 E413.38649
G0 F12000 X170.400 Y132.133
G1 F1800 X170.400 Y172.868 E417.45105
G0 F12000 X171.000 Y172.522
G1 F1800 X171.000 Y132.479 E421.44655
G0 F12000 X171.600 Y132.825
G1 F1800 X171.600 Y172.176 E425.37301
G0 F12000 X172.200 Y171.829
G1 F1800 X172.200 Y133.172 E429.23022
G0 F12000 X172.800 Y133.518
G1 F1800 X172.800 Y171.483 E433.01839
G0 F12000 X173.400 Y171.136
G1 F1800 X173.400 Y133.865 E436.73730
G0 F12000 X174.000 Y134.211
G1 F1800 X174.000 Y170.790 E440.38717
G0 F12000 X174.600 Y170.444
G1 F1800 X174.600 Y134.557 E443.96799
G0 F12000 X175.200 Y134.904
G1 F1800 X175.200 Y170.097 E447.47956
G0 F12000 X175.800 Y169.751
G1 F1800 X175.800 Y135.250 E450.92208
G0 F12000 X176.400 Y135.597
G1 F1800 X176.400 Y169.404 E454.29536
G0 F12000 X177.000 Y169.058
G1 F1800 X177.000 Y135.943 E457.59959
G0 F12000 X177.600 Y136.289
G1 F1800 X177.600 Y168.712 E460.83477
G0 F12000 X178.200 Y168.365
G1 F1800 X178.200 Y136.636 E464.00070
G0 F12000 X178.800 Y136.982
G1 F1800 X178.800 Y168.019 E467.09759
;LAYER:1
M106 S20
G0 F12000 X179.421 Y168.365 Z0.800
;TYPE:WALL-INNER
G1 F1980 X152.779 Y183.746 E470.16715
G1 X152.221 Y183.746 E470.22282
G1 X125.579 Y168.365 E473.29238
G1 X125.300 Y167.882 E473.34804
G1 X125.300 Y137.118 E476.41768
G1 X125.579 Y136.635 E476.47334
G1 X152.221 Y121.254 E479.54290
G1 X152.779 Y121.254 E479.59858
G1 X179.421 Y136.635 E482.66814
G1 X179.700 Y137.118 E482.72379
G1 X179.700 Y167.882 E485.79344
G1 X179.421 Y168.365 E485.84909
G0 F12000 X179.860 Y168.803
;TYPE:WALL-OUTER
G1 F1980 X152.938 Y184.346 E488.95093
G1 X152.062 Y184.346 E489.03834
G1 X125.140 Y168.803 E492.14018
G1 X124.700 Y168.043 E492.22780
G1 X124.700 Y136.957 E495.32957
G1 X125.140 Y136.197 E495.41720
G1 X152.062 Y120.654 E498.51904
G1 X152.938 Y120.654 E498.60644
G1 X179.860 Y136.197 E501.70828
G1 X180.300 Y136.957 E501.79591
G1 X180.300 Y168.043 E504.89768
G1 X179.860 Y168.803 E504.98531
G0 F12000 X179.387 Y168.000
;TYPE:SKIN
G1 F1980 X125.610 Y168.000 E510.35120
G0 F12000 X125.509 Y167.400
G1 F1980 X179.489 Y167.400 E515.73734
G0 F12000 X179.489 Y166.800
G1 F1980 X125.509 Y166.800 E521.12349
G0 F12000 X125.509 Y166.200
G1 F1980 X179.489 Y166.200 E526.50963
G0 F12000 X179.489 Y165.600
G1 F1980 X125.509 Y165.600 E531.89578
G0 F12000 X125.509 Y165.000
G1 F1980 X179.489 Y165.000 E537.28193
G0 F12000 X179.489 Y164.400
G1 F1980 X125.509 Y164.400 E542.66807
G0 F12000 X125.509 Y163.800
G1 F1980 X179.489 Y163.800 E548.05422
G0 F12000 X179.489 Y163.200
G1 F1980 X125.509 Y163.200 E553.44037
G0 F12000 X125.509 Y162.600
G1 F1980 X179.489 Y162.600 E558.82651
G0 F12000 X179.489 Y162.000
G1 F1980 X125.509 Y162.000 E564.21266
G0 F12000 X125.509 Y161.400
G1 F1980 X179.489 Y161.400 E569.59880
G0 F12000 X179.489 Y160.800
G1 F1980 X125.509 Y160.800 E574.98495
G0 F12000 X125.509 Y160.200
G1 F1980 X179.489 Y160.200 E580.37110
G1 F2100 E579.97110
G1 Z1.200
G0 F12000 X178.590 Y168.600
G1 Z0.800
G1 F2100 E580.37110
G1 F1980 X126.407 Y168.600 E585.57794
G0 F12000 X127.446 Y169.200
G1 F1980 X177.551 Y169.200 E590.57744
G0 F12000 X176.511 Y169.800
G1 F1980 X128.486 Y169.800 E595.36939
G0 F12000 X129.525 Y170.400
G1 F1980 X175.472 Y170.400 E599.95400
G0 F12000 X174.433 Y171.000
G1 F1980 X130.564 Y171.000 E604.33127
G0 F12000 X131.603 Y171.600
G1 F1980 X173.394 Y171.600 E608.50119
G0 F12000 X172.354 Y172.200
G1 F1980 X132.643 Y172.200 E612.46357
G0 F12000 X133.682 Y172.800
G1 F1980 X171.315 Y172.800 E616.21860
G0 F12000 X170.276 Y173.400
G1 F1980 X134.721 Y173.400 E619.76630
G0 F12000 X135.761 Y174.000
G1 F1980 X169.236 Y174.000 E623.10645
G0 F12000 X168.197 Y174.600
G1 F1980 X136.800 Y174.600 E626.23925
G0 F12000 X137.839 Y175.200
G1 F1980 X167.158 Y175.200 E629.16471
G0 F12000 X166.119 Y175.800
G1 F1980 X138.878 Y175.800 E631.88283
G0 F12000 X139.918 Y176.400
G1 F1980 X165.079 Y176.400 E634.39341
G0 F12000 X164.040 Y177.000
G1 F1980 X140.957 Y177.000 E636.69664
G0 F12000 X141.996 Y177.600
G1 F1980 X163.001 Y177.600 E638.79252
G0 F12000 X161.961 Y178.200
G1 F1980 X143.036 Y178.200 E640.68087
G0 F12000 X144.075 Y178.800
G1 F1980 X160.922 Y178.800 E642.36187
G0 F12000 X159.883 Y179.400
G1 F1980 X145.114 Y179.400 E643.83553
G0 F12000 X146.153 Y180.000
G1 F1980 X158.844 Y180.000 E645.10184
G0 F12000 X157.804 Y180.600
G1 F1980 X147.193 Y180.600 E646.16061
G0 F12000 X148.232 Y181.200
G1 F1980 X156.765 Y181.200 E647.01204
G0 F12000 X155.726 Y181.800
G1 F1980 X149.271 Y181.800 E647.65612
G0 F12000 X150.311 Y182.400
G1 F1980 X154.686 Y182.400 E648.09266
G0 F12000 X153.647 Y183.000
G1 F1980 X151.350 Y183.000 E648.32185
G1 F2100 E647.92185
G1 Z1.200
G0 F12000 X125.509 Y159.600
G1 Z0.800
G1 F2100 E648.32185
G1 F1980 X179.489 Y159.600 E653.70800
G0 F12000 X179.489 Y159.000
G1 F1980 X125.509 Y159.000 E659.09415
G0 F12000 X125.509 Y158.400
G1 F1980 X179.489 Y158.400 E664.48029
G0 F12000 X179.489 Y157.800
G1 F1980 X125.509 Y157.800 E669.86644
G0 F12000 X125.509 Y157.200
G1 F1980 X179.489 Y157.200 E675.25258
G0 F12000 X179.489 Y156.600
G1 F1980 X125.509 Y156.600 E680.63873
G0 F12000 X125.509 Y156.000
G1 F1980 X179.489 Y156.000 E686.02488
G0 F12000 X179.489 Y155.400
G1 F1980 X125.509 Y155.400 E691.41102
G0 F12000 X125.509 Y154.800
G1 F1980 X179.489 Y154.800 E696.79717
G0 F12000 X179.489 Y154.200
G1 F1980 X125.509 Y154.200 E702.18332
G0 F12000 X125.509 Y153.600
G1 F1980 X179.489 Y153.600 E707.56946
G0 F12000 X179.489 Y153.000
G1 F1980 X125.509 Y153.000 E712.95561
G0 F12000 X125.509 Y152.400
G1 F1980 X179.489 Y152.400 E718.34175
G0 F12000 X179.489 Y151.800
G1 F1980 X125.509 Y151.800 E723.72790
G0 F12000 X125.509 Y151.200
G1 F1980 X179.489 Y151.200 E729.11405
G0 F12000 X179.489 Y150.600
G1 F1980 X125.509 Y150.600 E734.50019
G0 F12000 X125.509 Y150.000
G1 F1980 X179.489 Y150.000 E739.88634
G0 F12000 X179.489 Y149.400
G1 F1980 X125.509 Y149.400 E745.27249
G0 F12000 X125.509 Y148.800
G1 F1980 X179.489 Y148.800 E750.65863
G0 F12000 X179.489 Y148.200
G1 F1980 X125.509 Y148.200 E756.04478
G0 F12000 X125.509 Y147.600
G1 F1980 X179.489 Y147.600 E761.43092
G0 F12000 X179.489 Y147.000
G1 F1980 X125.509 Y147.000 E766.81707
G0 F12000 X125.509 Y146.400
G1 F1980 X179.489 Y146.400 E772.20322
G0 F12000 X179.489 Y145.800
G1 F1980 X125.509 Y145.800 E777.58936
G0 F12000 X125.509 Y145.200
G1 F1980 X179.489 Y145.200 E782.97551
G0 F12000 X179.489 Y144.600
G1 F1980 X125.509 Y144.600 E788.36166
G0 F12000 X125.509 Y144.000
G1 F1980 X179.489 Y144.000 E793.74780
G0 F12000 X179.489 Y143.400
G1 F1980 X125.509 Y143.400 E799.13395
G0 F12000 X125.509 Y142.800
G1 F1980 X179.489 Y142.800 E804.52009
G0 F12000 X179.489 Y142.200
G1 F1980 X125.509 Y142.200 E809.90624
G0 F12000 X125.509 Y141.600
G1 F1980 X179.489 Y141.600 E815.29239
G0 F12000 X179.489 Y141.000
G1 F1980 X125.509 Y141.000 E820.67853
G0 F12000 X125.509 Y140.400
G1 F1980 X179.489 Y140.400 E826.06468
G0 F12000 X179.489 Y139.800
G1 F1980 X125.509 Y139.800 E831.45083
G0 F12000 X125.509 Y139.200
G1 F1980 X179.489 Y139.200 E836.83697
G0 F12000 X179.489 Y138.600
G1 F1980 X125.509 Y138.600 E842.22312
G0 F12000 X125.509 Y138.000
G1 F1980 X179.489 Y138.000 E847.60926
G0 F12000 X179.489 Y137.400
G1 F1980 X125.509 Y137.400 E852.99541
G0 F12000 X125.726 Y136.800
G1 F1980 X179.273 Y136.800 E858.33835
G0 F12000 X178.248 Y136.200
G1 F1980 X126.751 Y136.200 E863.47674
G0 F12000 X127.790 Y135.600
G1 F1980 X177.209 Y135.600 E868.40779
G0 F12000 X176.169 Y135.000
G1 F1980 X128.830 Y135.000 E873.13130
G0 F12000 X129.869 Y134.400
G1 F1980 X175.130 Y134.400 E877.64746
G0 F12000 X174.091 Y133.800
G1 F1980 X130.908 Y133.800 E881.95627
G0 F12000 X131.947 Y133.200
G1 F1980 X173.052 Y133.200 E886.05775
G0 F12000 X172.012 Y132.600
G1 F1980 X132.987 Y132.600 E889.95168
G0 F12000 X134.026 Y132.000
G1 F1980 X170.973 Y132.000 E893.63826
G0 F12000 X169.934 Y131.400
G1 F1980 X135.065 Y131.400 E897.11751
G0 F12000 X136.105 Y130.800
G1 F1980 X168.894 Y130.800 E900.38921
G0 F12000 X167.855 Y130.200
G1 F1980 X137.144 Y130.200 E903.45356
G0 F12000 X138.183 Y129.600
G1 F1980 X166.816 Y129.600 E906.31058
G0 F12000 X165.777 Y129.000
G1 F1980 X139.222 Y129.000 E908.96024
G0 F12000 X140.262 Y128.400
G1 F1980 X164.737 Y128.400 E911.40237
G0 F12000 X163.698 Y127.800
G1 F1980 X141.301 Y127.800 E913.63715
G0 F12000 X142.340 Y127.200
G1 F1980 X162.659 Y127.200 E915.66459
G0 F12000 X161.619 Y126.600
G1 F1980 X143.380 Y126.600 E917.48448
G0 F12000 X144.419 Y126.000
G1 F1980 X160.580 Y126.000 E919.09704
G0 F12000 X159.541 Y125.400
G1 F1980 X145.458 Y125.400 E920.50224
G0 F12000 X146.497 Y124.800
G1 F1980 X158.502 Y124.800 E921.70011
G0 F12000 X157.462 Y124.200
G1 F1980 X147.537 Y124.200 E922.69043
G0 F12000 X148.576 Y123.600
G1 F1980 X156.423 Y123.600 E923.47340
G0 F12000 X155.384 Y123.000
G1 F1980 X149.615 Y123.000 E924.04904
G0 F12000 X150.654 Y122.400
G1 F1980 X154.345 Y122.400 E924.41733
G0 F12000 X153.305 Y121.800
G1 F1980 X151.694 Y121.800 E924.57807
;LAYER:2
M106 S40
G0 F12000 X151.874 Y120.992 Z1.200
;TYPE:WALL-INNER
G1 F2220 X153.126 Y120.992 E924.70300
G1 X179.474 Y136.204 E927.73872
G1 X180.100 Y137.287 E927.86354
G1 X180.100 Y167.713 E930.89946
G1 X179.474 Y168.796 E931.02427
G1 X153.126 Y184.008 E934.05999
G1 X151.874 Y184.008 E934.18492
G1 X125.526 Y168.796 E937.22064
G1 X124.900 Y167.713 E937.34546
G1 X124.900 Y137.287 E940.38138
G1 X125.526 Y136.204 E940.50619
G1 X151.874 Y120.992 E943.54192
G0 F12000 X151.715 Y120.392
;TYPE:WALL-OUTER
G1 F2220 X153.285 Y120.392 E943.69857
G1 X179.913 Y135.766 E946.76657
G1 X180.700 Y137.126 E946.92336
G1 X180.700 Y167.874 E949.99140
G1 X179.913 Y169.234 E950.14819
G1 X153.285 Y184.608 E953.21619
G1 X151.715 Y184.608 E953.37284
G1 X125.087 Y169.234 E956.44084
G1 X124.300 Y167.874 E956.59763
G1 X124.300 Y137.126 E959.66568
G1 X125.087 Y135.766 E959.82246
G1 X151.715 Y120.392 E962.89046
G0 F12000 X151.800 Y121.277
;TYPE:SKIN
G1 F2220 X151.800 Y183.722 E969.12125
G0 F12000 X152.400 Y183.798
G1 F2220 X152.400 Y121.202 E975.36710
G0 F12000 X153.000 Y121.202
G1 F2220 X153.000 Y183.798 E981.61296
G0 F12000 X153.600 Y183.492
G1 F2220 X153.600 Y121.509 E987.79765
G0 F12000 X154.200 Y121.855
G1 F2220 X154.200 Y183.146 E993.91329
G0 F12000 X154.800 Y182.799
G1 F2220 X154.800 Y122.202 E999.95968
G0 F12000 X155.400 Y122.548
G1 F2220 X155.400 Y182.453 E1005.93702
G0 F12000 X156.000 Y182.106
G1 F2220 X156.000 Y122.895 E1011.84512
G0 F12000 X156.600 Y123.241
G1 F2220 X156.600 Y181.760 E1017.68417
G0 F12000 X157.200 Y181.413
G1 F2220 X157.200 Y123.588 E1023.45397
G0 F12000 X157.800 Y123.934
G1 F2220 X157.800 Y181.067 E1029.15473
G0 F12000 X158.400 Y180.721
G1 F2220 X158.400 Y124.280 E1034.78643
G0 F12000 X159.000 Y124.627
G1 F2220 X159.000 Y180.374 E1040.34889
G0 F12000 X159.600 Y180.028
G1 F2220 X159.600 Y124.973 E1045.84230
G1 F2100 E1045.44230
G1 Z1.600
G0 F12000 X151.200 Y121.624
G1 Z1.200
G1 F2100 E1045.84230
G1 F2220 X151.200 Y183.375 E1052.00384
G0 F12000 X150.600 Y183.029
G1 F2220 X150.600 Y121.970 E1058.09633
G0 F12000 X150.000 Y122.316
G1 F2220 X150.000 Y182.683 E1064.11978
G0 F12000 X149.400 Y182.336
G1 F2220 X149.400 Y122.663 E1070.07397
G0 F12000 X148.800 Y123.009
G1 F2220 X148.800 Y181.990 E1075.95912
G0 F12000 X148.200 Y181.643
G1 F2220 X148.200 Y123.356 E1081.77502
G0 F12000 X147.600 Y123.702
G1 F2220 X147.600 Y181.297 E1087.52187
G0 F12000 X147.000 Y180.951
G1 F2220 X147.000 Y124.048 E1093.19968
G0 F12000 X146.400 Y124.395
G1 F2220 X146.400 Y180.604 E1098.80824
G0 F12000 X145.800 Y180.258
G1 F2220 X145.800 Y124.741 E1104.34774
G0 F12000 X145.200 Y125.088
G1 F2220 X145.200 Y179.911 E1109.81801
G0 F12000 X144.600 Y179.565
G1 F2220 X144.600 Y125.434 E1115.21922
G0 F12000 X144.000 Y125.780
G1 F2220 X144.000 Y179.219 E1120.55138
G0 F12000 X143.400 Y178.872
G1 F2220 X143.400 Y126.127 E1125.81430
G0 F12000 X142.800 Y126.473
G1 F2220 X142.800 Y178.526 E1131.00817
G0 F12000 X142.200 Y178.179
G1 F2220 X142.200 Y126.820 E1136.13279
G0 F12000 X141.600 Y127.166
G1 F2220 X141.600 Y177.833 E1141.18837
G0 F12000 X141.000 Y177.486
G1 F2220 X141.000 Y127.513 E1146.17469
G0 F12000 X140.400 Y127.859
G1 F2220 X140.400 Y177.140 E1151.09197
G0 F12000 X139.800 Y176.794
G1 F2220 X139.800 Y128.205 E1155.94020
G0 F12000 X139.200 Y128.552
G1 F2220 X139.200 Y176.447 E1160.71918
G0 F12000 X138.600 Y176.101
G1 F2220 X138.600 Y128.898 E1165.42912
G0 F12000 X138.000 Y129.245
G1 F2220 X138.000 Y175.754 E1170.06980
G0 F12000 X137.400 Y175.408
G1 F2220 X137.400 Y129.591 E1174.64144
G0 F12000 X136.800 Y129.937
G1 F2220 X136.800 Y175.062 E1179.14403
G0 F12000 X136.200 Y174.715
G1 F2220 X136.200 Y130.284 E1183.57738
G0 F12000 X135.600 Y130.630
G1 F2220 X135.600 Y174.369 E1187.94167
G0 F12000 X135.000 Y174.022
G1 F2220 X135.000 Y130.977 E1192.23672
G0 F12000 X134.400 Y131.323
G1 F2220 X134.400 Y173.676 E1196.46272
G0 F12000 X133.800 Y173.330
G1 F2220 X133.800 Y131.669 E1200.61967
G0 F12000 X133.200 Y132.016
G1 F2220 X133.200 Y172.983 E1204.70737
G0 F12000 X132.600 Y172.637
G1 F2220 X132.600 Y132.362 E1208.72603
G0 F12000 X132.000 Y132.709
G1 F2220 X132.000 Y172.290 E1212.67544
G0 F12000 X131.400 Y171.944
G1 F2220 X131.400 Y133.055 E1216.55580
G0 F12000 X130.800 Y133.401
G1 F2220 X130.800 Y171.598 E1220.36711
G0 F12000 X130.200 Y171.251
G1 F2220 X130.200 Y133.748 E1224.10918
G0 F12000 X129.600 Y134.094
G1 F2220 X129.600 Y170.905 E1227.78219
G0 F12000 X129.000 Y170.558
G1 F2220 X129.000 Y134.441 E1231.38596
G0 F12000 X128.400 Y134.787
G1 F2220 X128.400 Y170.212 E1234.92068
G0 F12000 X127.800 Y169.865
G1 F2220 X127.800 Y135.134 E1238.38616
G0 F12000 X127.200 Y135.480
G1 F2220 X127.200 Y169.519 E1241.78258
G0 F12000 X126.600 Y169.173
G1 F2220 X126.600 Y135.826 E1245.10996
G0 F12000 X126.000 Y136.173
G1 F2220 X126.000 Y168.826 E1248.36809
G0 F12000 X125.400 Y168.157
G1 F2220 X125.400 Y136.842 E1251.49271
G1 F2100 E1251.09271
G1 Z1.600
G0 F12000 X160.200 Y125.320
G1 Z1.200
G1 F2100 E1251.49271
G1 F2220 X160.200 Y179.681 E1256.91687
G0 F12000 X160.800 Y179.335
G1 F2220 X160.800 Y125.666 E1262.27199
G0 F12000 X161.400 Y126.012
G1 F2220 X161.400 Y178.989 E1267.55805
G0 F12000 X162.000 Y178.642
G1 F2220 X162.000 Y126.359 E1272.77487
G0 F12000 X162.600 Y126.705
G1 F2220 X162.600 Y178.296 E1277.92264
G0 F12000 X163.200 Y177.949
G1 F2220 X163.200 Y127.052 E1283.00117
G0 F12000 X163.800 Y127.398
G1 F2220 X163.800 Y177.603 E1288.01064
G0 F12000 X164.400 Y177.257
G1 F2220 X164.400 Y127.744 E1292.95107
G0 F12000 X165.000 Y128.091
G1 F2220 X165.000 Y176.910 E1297.82225
G0 F12000 X165.600 Y176.564
G1 F2220 X165.600 Y128.437 E1302.62438
G0 F12000 X166.200 Y128.784
G1 F2220 X166.200 Y176.217 E1307.35726
G0 F12000 X166.800 Y175.871
G1 F2220 X166.800 Y129.130 E1312.02110
G0 F12000 X167.400 Y129.476
G1 F2220 X167.400 Y175.525 E1316.61589
G0 F12000 X168.000 Y175.178
G1 F2220 X168.000 Y129.823 E1321.14143
G0 F12000 X168.600 Y130.169
G1 F2220 X168.600 Y174.832 E1325.59792
G0 F12000 X169.200 Y174.485
G1 F2220 X169.200 Y130.516 E1329.98517
G0 F12000 X169.800 Y130.862
G1 F2220 X169.800 Y174.139 E1334.30336
G0 F12000 X170.400 Y173.792
G1 F2220 X170.400 Y131.209 E1338.55231
G0 F12000 X171.000 Y131.555
G1 F2220 X171.000 Y173.446 E1342.73221
G0 F12000 X171.600 Y173.100
G1 F2220 X171.600 Y131.901 E1346.84307
G0 F12000 X172.200 Y132.248
G1 F2220 X172.200 Y172.753 E1350.88467
G0 F12000 X172.800 Y172.407
G1 F2220 X172.800 Y132.594 E1354.85723
G0 F12000 X173.400 Y132.941
G1 F2220 X173.400 Y172.060 E1358.76054
G0 F12000 X174.000 Y171.714
G1 F2220 X174.000 Y133.287 E1362.59480
G0 F12000 X174.600 Y133.633
G1 F2220 X174.600 Y171.368 E1366.36001
G0 F12000 X175.200 Y171.021
G1 F2220 X175.200 Y133.980 E1370.05598
G0 F12000 X175.800 Y134.326
G1 F2220 X175.800 Y170.675 E1373.68290
G0 F12000 X176.400 Y170.328
G1 F2220 X176.400 Y134.673 E1377.24057
G0 F12000 X177.000 Y135.019
G1 F2220 X177.000 Y169.982 E1380.72919
G0 F12000 X177.600 Y169.636
G1 F2220 X177.600 Y135.365 E1384.14876
G0 F12000 X178.200 Y135.712
G1 F2220 X178.200 Y169.289 E1387.49909
G0 F12000 X178.800 Y168.943
G1 F2220 X178.800 Y136.058 E1390.78037
G0 F12000 X179.400 Y136.497
G1 F2220 X179.400 Y168.504 E1393.97404
;LAYER:3
M106 S63
G0 F12000 X179.529 Y169.226 Z1.600
;TYPE:WALL-INNER
G1 F2400 X153.472 Y184.270 E1396.97624
G1 X151.528 Y184.270 E1397.17021
G1 X125.471 Y169.226 E1400.17240
G1 X124.500 Y167.545 E1400.36611
G1 X124.500 Y137.455 E1403.36850
G1 X125.471 Y135.774 E1403.56220
G1 X151.528 Y120.730 E1406.56440
G1 X153.472 Y120.730 E1406.75837
G1 X179.529 Y135.774 E1409.76056
G1 X180.500 Y137.455 E1409.95427
G1 X180.500 Y167.545 E1412.95666
G1 X179.529 Y169.226 E1413.15036
G0 F12000 X179.967 Y169.665
;TYPE:WALL-OUTER
G1 F2400 X153.631 Y184.870 E1416.18470
G1 X151.369 Y184.870 E1416.41040
G1 X125.033 Y169.665 E1419.44474
G1 X123.900 Y167.705 E1419.67063
G1 X123.900 Y137.295 E1422.70495
G1 X125.033 Y135.335 E1422.93085
G1 X151.369 Y120.130 E1425.96519
G1 X153.631 Y120.130 E1426.19089
G1 X179.967 Y135.335 E1429.22523
G1 X181.100 Y137.295 E1429.45112
G1 X181.100 Y167.705 E1432.48544
G1 X179.967 Y169.665 E1432.71134
G0 F12000 X179.204 Y168.822
;TYPE:FILL
G1 F2400 X125.009 Y137.532 E1438.95552
G1 F2100 E1438.55552
G1 Z2.000
G0 F12000 X133.679 Y131.625
G1 Z1.600
G1 F2100 E1438.95552
G1 F2400 X133.679 Y173.374 E1443.12125
G0 F12000 X134.026 Y173.576
G1 F2400 X179.989 Y147.040 E1448.41691
G0 F12000 X179.990 Y146.639
G1 F2400 X143.832 Y125.763 E1452.58291
G0 F12000 X143.481 Y125.966
G1 F2400 X143.481 Y179.033 E1457.87796
G0 F12000 X143.829 Y179.235
G1 F2400 X179.989 Y158.358 E1462.04419
G0 F12000 X179.990 Y157.957
G1 F2400 X134.029 Y131.421 E1467.33967
G1 F2100 E1466.93967
G1 Z2.000
G0 F12000 X125.009 Y144.827
G1 Z1.600
G1 F2100 E1467.33967
G1 F2400 X159.598 Y124.857 E1471.32490
G1 F2100 E1470.92490
G1 Z2.000
G0 F12000 X153.283 Y121.212
G1 Z1.600
G1 F2100 E1471.32490
G1 F2400 X153.283 Y183.789 E1477.56886
G1 F2100 E1477.16886
G1 Z2.000
G0 F12000 X159.600 Y180.140
G1 Z1.600
G1 F2100 E1477.56886
G1 F2400 X125.009 Y160.169 E1481.55431
G1 F2100 E1481.15431
G1 Z2.000
G0 F12000 X125.010 Y167.463
G1 Z1.600
G1 F2100 E1481.55431
G1 F2400 X179.204 Y136.174 E1487.79835
G1 F2100 E1487.39835
G1 Z2.000
G0 F12000 X172.887 Y132.530
G1 Z1.600
G1 F2100 E1487.79835
G1 F2400 X172.887 Y172.471 E1491.78368
G1 F2100 E1491.38368
G1 Z2.000
G0 F12000 X169.402 Y174.481
G1 Z1.600
G1 F2100 E1491.78368
G1 F2400 X125.009 Y148.851 E1496.89847
G1 F2100 E1496.49847
G1 Z2.000
G0 F12000 X125.009 Y156.145
G1 Z1.600
G1 F2100 E1496.89847
G1 F2400 X169.401 Y130.516 E1502.01312
G1 F2100 E1501.61312
G1 Z2.000
G0 F12000 X163.085 Y126.871
G1 Z1.600
G1 F2100 E1502.01312
G1 F2400 X163.085 Y178.130 E1507.12777
G0 F12000 X163.562 Y178.200
;TYPE:SKIN
G1 F2400 X161.402 Y178.200 E1507.34329
G0 F12000 X160.363 Y178.800
G1 F2400 X162.522 Y178.800 E1507.55872
G0 F12000 X161.483 Y179.400
G1 F2400 X159.324 Y179.400 E1507.77415
G1 F2100 E1507.37415
G1 Z2.000
G0 F12000 X145.675 Y179.400
G1 Z1.600
G1 F2100 E1507.77415
G1 F2400 X143.514 Y179.400 E1507.98977
G0 F12000 X142.475 Y178.800
G1 F2400 X144.636 Y178.800 E1508.20540
G0 F12000 X143.597 Y178.200
G1 F2400 X141.435 Y178.200 E1508.42112
G0 F12000 X140.396 Y177.600
G1 F2400 X142.558 Y177.600 E1508.63685
G0 F12000 X141.518 Y177.000
G1 F2400 X139.357 Y177.000 E1508.85247
G0 F12000 X138.318 Y176.400
G1 F2400 X140.479 Y176.400 E1509.06810
G0 F12000 X139.440 Y175.800
G1 F2400 X137.278 Y175.800 E1509.28382
G0 F12000 X136.239 Y175.200
G1 F2400 X138.401 Y175.200 E1509.49955
G0 F12000 X137.361 Y174.600
G1 F2400 X135.200 Y174.600 E1509.71517
G0 F12000 X134.161 Y174.000
G1 F2400 X136.322 Y174.000 E1509.93080
G0 F12000 X135.283 Y173.400
G1 F2400 X133.122 Y173.400 E1510.14642
G0 F12000 X132.082 Y172.800
G1 F2400 X134.244 Y172.800 E1510.36215
G0 F12000 X133.204 Y172.200
G1 F2400 X131.043 Y172.200 E1510.57778
G0 F12000 X130.004 Y171.600
G1 F2400 X132.165 Y171.600 E1510.79340
G0 F12000 X131.126 Y171.000
G1 F2400 X128.965 Y171.000 E1511.00903
G0 F12000 X127.925 Y170.400
G1 F2400 X130.087 Y170.400 E1511.22475
G0 F12000 X129.047 Y169.800
G1 F2400 X126.886 Y169.800 E1511.44038
G0 F12000 X125.847 Y169.200
G1 F2400 X128.008 Y169.200 E1511.65600
G0 F12000 X126.969 Y168.600
G1 F2400 X125.351 Y168.600 E1511.81745
G0 F12000 X125.005 Y168.000
G1 F2400 X125.859 Y167.700 E1511.90972
G1 X124.709 Y167.100 E1512.01736
G1 X125.789 Y166.500 E1512.12502
G1 X124.709 Y165.900 E1512.23268
G1 X125.789 Y165.300 E1512.34034
G1 X124.709 Y164.700 E1512.44801
G1 X125.789 Y164.100 E1512.55567
G1 X124.709 Y163.500 E1512.66333
G1 X125.789 Y162.900 E1512.77099
G1 X124.709 Y162.300 E1512.87865
G1 X125.789 Y161.700 E1512.98631
G1 X124.709 Y161.100 E1513.09397
G1 X125.789 Y160.500 E1513.20164
G1 X124.709 Y159.900 E1513.30930
G1 X125.789 Y159.300 E1513.41696
G1 X124.709 Y158.700 E1513.52462
G1 X125.789 Y158.100 E1513.63228
G1 X124.709 Y157.500 E1513.73994
G1 X125.789 Y156.900 E1513.84760
G1 X124.709 Y156.300 E1513.95526
G1 X125.789 Y155.700 E1514.06293
G1 X124.709 Y155.100 E1514.17059
G1 X125.789 Y154.500 E1514.27825
G1 X124.709 Y153.900 E1514.38591
G1 X125.789 Y153.300 E1514.49357
G1 X124.709 Y152.700 E1514.60123
G1 X125.789 Y152.100 E1514.70889
G1 X124.709 Y151.500 E1514.81655
G1 X125.789 Y150.900 E1514.92422
G1 X124.709 Y150.300 E1515.03188
G1 X125.789 Y149.700 E1515.13954
G1 X124.709 Y149.100 E1515.24720
G1 X125.789 Y148.500 E1515.35486
G1 X124.709 Y147.900 E1515.46252
G1 X125.789 Y147.300 E1515.57018
G1 X124.709 Y146.700 E1515.67784
G1 X125.789 Y146.100 E1515.78551
G1 X124.709 Y145.500 E1515.89317
G1 X125.789 Y144.900 E1516.00083
G1 X124.709 Y144.300 E1516.10849
G1 X125.789 Y143.700 E1516.21615
G1 X124.709 Y143.100 E1516.32381
G1 X125.789 Y142.500 E1516.43147
G1 X124.709 Y141.900 E1516.53913
G1 X125.789 Y141.300 E1516.64680
G1 X124.709 Y140.700 E1516.75446
G1 X125.789 Y140.100 E1516.86212
G1 X124.709 Y139.500 E1516.96978
G1 X125.789 Y138.900 E1517.07744
G1 X124.709 Y138.300 E1517.18510
G1 X125.789 Y137.700 E1517.29276
G1 X124.947 Y137.100 E1517.39404
G1 X126.272 Y136.800 E1517.52959
G0 F12000 X125.467 Y136.200
G1 F2400 X127.311 Y136.200 E1517.71359
G0 F12000 X128.350 Y135.600
G1 F2400 X126.191 Y135.600 E1517.92901
G0 F12000 X127.230 Y135.000
G1 F2400 X129.389 Y135.000 E1518.14444
G0 F12000 X130.429 Y134.400
G1 F2400 X128.269 Y134.400 E1518.35996
G0 F12000 X129.309 Y133.800
G1 F2400 X131.468 Y133.800 E1518.57539
G0 F12000 X132.507 Y133.200
G1 F2400 X130.348 Y133.200 E1518.79082
G0 F12000 X131.387 Y132.600
G1 F2400 X133.546 Y132.600 E1519.00624
G0 F12000 X134.586 Y132.000
G1 F2400 X132.426 Y132.000 E1519.22177
G0 F12000 X133.466 Y131.400
G1 F2400 X135.625 Y131.400 E1519.43719
G0 F12000 X136.664 Y130.800
G1 F2400 X134.505 Y130.800 E1519.65262
G0 F12000 X135.544 Y130.200
G1 F2400 X137.703 Y130.200 E1519.86804
G0 F12000 X138.743 Y129.600
G1 F2400 X136.583 Y129.600 E1520.08357
G0 F12000 X137.622 Y129.000
G1 F2400 X139.782 Y129.000 E1520.29910
G0 F12000 X140.821 Y128.400
G1 F2400 X138.662 Y128.400 E1520.51452
G0 F12000 X139.701 Y127.800
G1 F2400 X141.860 Y127.800 E1520.72995
G0 F12000 X142.899 Y127.200
G1 F2400 X140.740 Y127.200 E1520.94537
G0 F12000 X141.779 Y126.600
G1 F2400 X143.939 Y126.600 E1521.16090
G0 F12000 X144.978 Y126.000
G1 F2400 X142.819 Y126.000 E1521.37633
G0 F12000 X143.858 Y125.400
G1 F2400 X146.017 Y125.400 E1521.59175
G0 F12000 X147.056 Y124.800
G1 F2400 X144.897 Y124.800 E1521.80718
G0 F12000 X145.936 Y124.200
G1 F2400 X148.096 Y124.200 E1522.02270
G0 F12000 X149.135 Y123.600
G1 F2400 X146.976 Y123.600 E1522.23813
G0 F12000 X148.015 Y123.000
G1 F2400 X150.174 Y123.000 E1522.45355
G0 F12000 X151.213 Y122.400
G1 F2400 X149.054 Y122.400 E1522.66898
G0 F12000 X150.093 Y121.800
G1 F2400 X152.253 Y121.800 E1522.88451
G0 F12000 X152.744 Y121.800
G1 F2400 X154.906 Y121.800 E1523.10023
G0 F12000 X155.945 Y122.400
G1 F2400 X153.784 Y122.400 E1523.31586
G0 F12000 X154.823 Y123.000
G1 F2400 X156.984 Y123.000 E1523.53148
G0 F12000 X158.023 Y123.600
G1 F2400 X155.862 Y123.600 E1523.74711
G0 F12000 X156.901 Y124.200
G1 F2400 X159.063 Y124.200 E1523.96283
G0 F12000 X160.102 Y124.800
G1 F2400 X157.941 Y124.800 E1524.17846
G0 F12000 X158.980 Y125.400
G1 F2400 X161.141 Y125.400 E1524.39408
G0 F12000 X162.180 Y126.000
G1 F2400 X160.019 Y126.000 E1524.60971
G0 F12000 X161.058 Y126.600
G1 F2400 X163.220 Y126.600 E1524.82543
G0 F12000 X164.259 Y127.200
G1 F2400 X162.098 Y127.200 E1525.04106
G0 F12000 X163.137 Y127.800
G1 F2400 X165.298 Y127.800 E1525.25669
G0 F12000 X166.337 Y128.400
G1 F2400 X164.176 Y128.400 E1525.47231
G0 F12000 X165.215 Y129.000
G1 F2400 X167.377 Y129.000 E1525.68804
G0 F12000 X168.416 Y129.600
G1 F2400 X166.254 Y129.600 E1525.90376
G0 F12000 X167.294 Y130.200
G1 F2400 X169.455 Y130.200 E1526.11939
G0 F12000 X170.494 Y130.800
G1 F2400 X168.333 Y130.800 E1526.33501
G0 F12000 X169.372 Y131.400
G1 F2400 X171.533 Y131.400 E1526.55064
G0 F12000 X172.573 Y132.000
G1 F2400 X170.411 Y132.000 E1526.76636
G0 F12000 X171.451 Y132.600
G1 F2400 X173.612 Y132.600 E1526.98199
G0 F12000 X174.651 Y133.200
G1 F2400 X172.490 Y133.200 E1527.19761
G0 F12000 X173.529 Y133.800
G1 F2400 X175.690 Y133.800 E1527.41324
G0 F12000 X176.730 Y134.400
G1 F2400 X174.568 Y134.400 E1527.62896
G0 F12000 X175.608 Y135.000
G1 F2400 X177.769 Y135.000 E1527.84459
G0 F12000 X178.808 Y135.600
G1 F2400 X176.647 Y135.600 E1528.06022
G0 F12000 X177.686 Y136.200
G1 F2400 X179.532 Y136.200 E1528.24441
G0 F12000 X179.879 Y136.800
G1 F2400 X178.967 Y137.100 E1528.35953
G1 X180.257 Y137.700 E1528.46079
G1 X179.209 Y138.300 E1528.56843
G1 X180.289 Y138.900 E1528.67609
G1 X179.209 Y139.500 E1528.78375
G1 X180.289 Y140.100 E1528.89142
G1 X179.209 Y140.700 E1528.99908
G1 X180.289 Y141.300 E1529.10674
G1 X179.209 Y141.900 E1529.21440
G1 X180.289 Y142.500 E1529.32206
G1 X179.209 Y143.100 E1529.42972
G1 X180.289 Y143.700 E1529.53738
G1 X179.209 Y144.300 E1529.64504
G1 X180.289 Y144.900 E1529.75271
G1 X179.209 Y145.500 E1529.86037
G1 X180.289 Y146.100 E1529.96803
G1 X179.209 Y146.700 E1530.07569
G1 X180.289 Y147.300 E1530.18335
G1 X179.209 Y147.900 E1530.29101
G1 X180.289 Y148.500 E1530.39867
G1 X179.209 Y149.100 E1530.50633
G1 X180.289 Y149.700 E1530.61400
G1 X179.209 Y150.300 E1530.72166
G1 X180.289 Y150.900 E1530.82932
G1 X179.209 Y151.500 E1530.93698
G1 X180.289 Y152.100 E1531.04464
G1 X179.209 Y152.700 E1531.15230
G1 X180.289 Y153.300 E1531.25996
G1 X179.209 Y153.900 E1531.36762
G1 X180.289 Y154.500 E1531.47529
G1 X179.209 Y155.100 E1531.58295
G1 X180.289 Y155.700 E1531.69061
G1 X179.209 Y156.300 E1531.79827
G1 X180.289 Y156.900 E1531.90593
G1 X179.209 Y157.500 E1532.01359
G1 X180.289 Y158.100 E1532.12125
G1 X179.209 Y158.700 E1532.22891
G1 X180.289 Y159.300 E1532.33658
G1 X179.209 Y159.900 E1532.44424
G1 X180.289 Y160.500 E1532.55190
G1 X179.209 Y161.100 E1532.65956
G1 X180.289 Y161.700 E1532.76722
G1 X179.209 Y162.300 E1532.87488
G1 X180.289 Y162.900 E1532.98254
G1 X179.209 Y163.500 E1533.09020
G1 X180.289 Y164.100 E1533.19787
G1 X179.209 Y164.700 E1533.30553
G1 X180.289 Y165.300 E1533.41319
G1 X179.209 Y165.900 E1533.52085
G1 X180.289 Y166.500 E1533.62851
G1 X179.209 Y167.100 E1533.73617
G1 X180.140 Y167.700 E1533.84393
G1 X179.069 Y168.000 E1533.95490
G0 F12000 X179.646 Y168.600
G1 F2400 X178.030 Y168.600 E1534.11615
G0 F12000 X176.991 Y169.200
G1 F2400 X179.150 Y169.200 E1534.33157
G0 F12000 X178.111 Y169.800
G1 F2400 X175.952 Y169.800 E1534.54700
G0 F12000 X174.912 Y170.400
G1 F2400 X177.072 Y170.400 E1534.76253
G0 F12000 X176.032 Y171.000
G1 F2400 X173.873 Y171.000 E1534.97795
G0 F12000 X172.834 Y171.600
G1 F2400 X174.993 Y171.600 E1535.19338
G0 F12000 X173.954 Y172.200
G1 F2400 X171.795 Y172.200 E1535.40880
G0 F12000 X170.755 Y172.800
G1 F2400 X172.915 Y172.800 E1535.62433
G0 F12000 X171.875 Y173.400
G1 F2400 X169.716 Y173.400 E1535.83976
G0 F12000 X168.677 Y174.000
G1 F2400 X170.836 Y174.000 E1536.05518
G0 F12000 X169.797 Y174.600
G1 F2400 X167.638 Y174.600 E1536.27061
G0 F12000 X166.598 Y175.200
G1 F2400 X168.758 Y175.200 E1536.48613
G0 F12000 X167.719 Y175.800
G1 F2400 X165.559 Y175.800 E1536.70166
G0 F12000 X164.520 Y176.400
G1 F2400 X166.679 Y176.400 E1536.91708
G0 F12000 X165.640 Y177.000
G1 F2400 X163.481 Y177.000 E1537.13251
G0 F12000 X162.441 Y177.600
G1 F2400 X164.601 Y177.600 E1537.34804
G1 F2100 E1536.94804
G1 Z2.000
G0 F12000 X160.444 Y180.000
G1 Z1.600
G1 F2100 E1537.34804
G1 F2400 X158.285 Y180.000 E1537.56346
G0 F12000 X157.245 Y180.600
G1 F2400 X159.405 Y180.600 E1537.77899
G0 F12000 X158.365 Y181.200
G1 F2400 X156.206 Y181.200 E1537.99441
G0 F12000 X155.167 Y181.800
G1 F2400 X157.326 Y181.800 E1538.20984
G0 F12000 X156.287 Y182.400
G1 F2400 X154.128 Y182.400 E1538.42527
G0 F12000 X153.088 Y183.000
G1 F2400 X155.248 Y183.000 E1538.64079
G0 F12000 X154.209 Y183.600
G1 F2400 X150.788 Y183.600 E1538.98214
G0 F12000 X149.749 Y183.000
G1 F2400 X151.911 Y183.000 E1539.19786
G0 F12000 X150.871 Y182.400
G1 F2400 X148.710 Y182.400 E1539.41349
G0 F12000 X147.671 Y181.800
G1 F2400 X149.832 Y181.800 E1539.62912
G0 F12000 X148.793 Y181.200
G1 F2400 X146.632 Y181.200 E1539.84474
G0 F12000 X145.592 Y180.600
G1 F2400 X147.754 Y180.600 E1540.06047
G0 F12000 X146.714 Y180.000
G1 F2400 X144.553 Y180.000 E1540.27609
G1 F2100 E1539.87609
G1 Z2.000
G0 F12000 X151.132 Y121.200
G1 Z1.600
G1 F2100 E1540.27609
G1 F2400 X153.867 Y121.200 E1540.54899
;LAYER:4
M106 S84
G0 F12000 X153.818 Y120.468 Z2.000
;TYPE:WALL-INNER
G1 F2700 X179.582 Y135.344 E1543.51749
G1 X180.900 Y137.625 E1543.78035
G1 X180.900 Y167.375 E1546.74882
G1 X179.582 Y169.656 E1547.01168
G1 X153.818 Y184.532 E1549.98017
G1 X151.182 Y184.532 E1550.24319
G1 X125.418 Y169.656 E1553.21169
G1 X124.100 Y167.375 E1553.47455
G1 X124.100 Y137.625 E1556.44302
G1 X125.418 Y135.344 E1556.70588
G1 X151.182 Y120.468 E1559.67437
G1 X153.818 Y120.468 E1559.93739
G0 F12000 X153.977 Y119.868
;TYPE:WALL-OUTER
G1 F2700 X180.020 Y134.905 E1562.93803
G1 X181.500 Y137.465 E1563.23308
G1 X181.500 Y167.535 E1566.23348
G1 X180.020 Y170.095 E1566.52853
G1 X153.977 Y185.132 E1569.52917
G1 X151.023 Y185.132 E1569.82392
G1 X124.980 Y170.095 E1572.82456
G1 X123.500 Y167.535 E1573.11961
G1 X123.500 Y137.465 E1576.12001
G1 X124.980 Y134.905 E1576.41506
G1 X151.023 Y119.868 E1579.41570
G1 X153.977 Y119.868 E1579.71045
G1 F2100 E1579.31045
G1 Z2.400
G0 F12000 X152.599 Y120.678
;TYPE:FILL
G1 Z2.000
G1 F2100 E1579.71045
G1 F2700 X152.599 Y184.322 E1586.06087
G1 F2100 E1585.66087
G1 Z2.400
G0 F12000 X160.685 Y179.976
G1 Z2.000
G1 F2100 E1586.06087
G1 F2700 X124.608 Y159.147 E1590.21753
G1 F2100 E1589.81753
G1 Z2.400
G0 F12000 X124.609 Y157.167
G1 Z2.000
G1 F2100 E1590.21753
G1 F2700 X170.487 Y130.680 E1595.50340
G1 F2100 E1595.10340
G1 Z2.400
G0 F12000 X172.203 Y131.672
G1 Z2.000
G1 F2100 E1595.50340
G1 F2700 X172.203 Y173.329 E1599.65996
G1 F2100 E1599.25996
G1 Z2.400
G0 F12000 X170.487 Y174.316
G1 Z2.000
G1 F2100 E1599.65996
G1 F2700 X124.609 Y147.828 E1604.94587
G1 F2100 E1604.54587
G1 Z2.400
G0 F12000 X124.609 Y145.849
G1 Z2.000
G1 F2100 E1604.94587
G1 F2700 X160.684 Y125.021 E1609.10231
G1 F2100 E1608.70231
G1 Z2.400
G0 F12000 X162.401 Y126.014
G1 Z2.000
G1 F2100 E1609.10231
G1 F2700 X162.401 Y178.987 E1614.38798
G1 F2100 E1613.98798
G1 Z2.400
G0 F12000 X144.113 Y179.862
G1 Z2.000
G1 F2100 E1614.38798
G1 F2700 X180.388 Y158.918 E1618.56749
G1 F2100 E1618.16749
G1 Z2.400
G0 F12000 X180.390 Y157.397
G1 Z2.000
G1 F2100 E1618.56749
G1 F2700 X134.314 Y130.795 E1623.87620
G1 F2100 E1623.47620
G1 Z2.400
G0 F12000 X132.995 Y131.557
G1 Z2.000
G1 F2100 E1623.87620
G1 F2700 X132.995 Y173.442 E1628.05551
G1 F2100 E1627.65551
G1 Z2.400
G0 F12000 X134.311 Y174.202
G1 Z2.000
G1 F2100 E1628.05551
G1 F2700 X180.388 Y147.600 E1633.36431
G1 F2100 E1632.96431
G1 Z2.400
G0 F12000 X180.390 Y146.078
G1 Z2.000
G1 F2100 E1633.36431
G1 F2700 X144.117 Y125.136 E1637.54354
G1 F2100 E1637.14354
G1 Z2.400
G0 F12000 X142.797 Y125.898
G1 Z2.000
G1 F2100 E1637.54354
G1 F2700 X142.797 Y179.101 E1642.85216
G1 F2100 E1642.45216
G1 Z2.400
G0 F12000 X124.890 Y168.324
G1 Z2.000
G1 F2100 E1642.85216
G1 F2700 X180.007 Y136.502 E1649.20256
G1 F2100 E1648.80256
G1 Z2.400
G0 F12000 X180.008 Y168.495
G1 Z2.000
G1 F2100 E1649.20256
G1 F2700 X125.048 Y136.764 E1655.53485
G0 F12000 X124.800 Y136.834
;TYPE:SKIN
G1 F2700 X124.800 Y168.165 E1658.66107
G0 F12000 X125.400 Y167.876
G1 F2700 X125.400 Y169.204 E1658.79358
G0 F12000 X126.000 Y169.749
G1 F2700 X126.000 Y168.504 E1658.91780
G0 F12000 X126.600 Y168.851
G1 F2700 X126.600 Y170.095 E1659.04193
G0 F12000 X127.200 Y170.441
G1 F2700 X127.200 Y169.197 E1659.16606
G0 F12000 X127.800 Y169.544
G1 F2700 X127.800 Y170.788 E1659.29018
G0 F12000 X128.400 Y171.134
G1 F2700 X128.400 Y169.890 E1659.41431
G0 F12000 X129.000 Y170.236
G1 F2700 X129.000 Y171.481 E1659.53854
G0 F12000 X129.600 Y171.827
G1 F2700 X129.600 Y170.583 E1659.66266
G0 F12000 X130.200 Y170.929
G1 F2700 X130.200 Y172.174 E1659.78689
G0 F12000 X130.800 Y172.520
G1 F2700 X130.800 Y171.276 E1659.91102
G0 F12000 X131.400 Y171.622
G1 F2700 X131.400 Y172.867 E1660.03524
G0 F12000 X132.000 Y173.213
G1 F2700 X132.000 Y171.968 E1660.15947
G0 F12000 X132.600 Y172.315
G1 F2700 X132.600 Y173.559 E1660.28360
G0 F12000 X133.200 Y173.906
G1 F2700 X133.200 Y172.661 E1660.40782
G0 F12000 X133.800 Y173.008
G1 F2700 X133.800 Y174.252 E1660.53195
G0 F12000 X134.400 Y174.599
G1 F2700 X134.400 Y173.354 E1660.65618
G0 F12000 X135.000 Y173.700
G1 F2700 X135.000 Y174.945 E1660.78040
G0 F12000 X135.600 Y175.292
G1 F2700 X135.600 Y174.047 E1660.90463
G0 F12000 X136.200 Y174.393
G1 F2700 X136.200 Y175.638 E1661.02886
G0 F12000 X136.800 Y175.984
G1 F2700 X136.800 Y174.740 E1661.15298
G0 F12000 X137.400 Y175.086
G1 F2700 X137.400 Y176.331 E1661.27721
G0 F12000 X138.000 Y176.677
G1 F2700 X138.000 Y175.432 E1661.40144
G0 F12000 X138.600 Y175.779
G1 F2700 X138.600 Y177.024 E1661.52566
G0 F12000 X139.200 Y177.370
G1 F2700 X139.200 Y176.125 E1661.64989
G0 F12000 X139.800 Y176.472
G1 F2700 X139.800 Y177.717 E1661.77412
G0 F12000 X140.400 Y178.063
G1 F2700 X140.400 Y176.818 E1661.89834
G0 F12000 X141.000 Y177.164
G1 F2700 X141.000 Y178.410 E1662.02267
G0 F12000 X141.600 Y178.756
G1 F2700 X141.600 Y177.511 E1662.14690
G0 F12000 X142.200 Y177.857
G1 F2700 X142.200 Y179.102 E1662.27112
G0 F12000 X142.800 Y179.449
G1 F2700 X142.800 Y178.204 E1662.39535
G0 F12000 X143.400 Y178.550
G1 F2700 X143.400 Y179.795 E1662.51958
G0 F12000 X144.000 Y180.142
G1 F2700 X144.000 Y178.896 E1662.64390
G0 F12000 X144.600 Y179.243
G1 F2700 X144.600 Y180.488 E1662.76813
G0 F12000 X145.200 Y180.835
G1 F2700 X145.200 Y179.589 E1662.89246
G0 F12000 X145.800 Y179.936
G1 F2700 X145.800 Y181.181 E1663.01668
G0 F12000 X146.400 Y181.527
G1 F2700 X146.400 Y180.282 E1663.14091
G0 F12000 X147.000 Y180.628
G1 F2700 X147.000 Y181.874 E1663.26523
G0 F12000 X147.600 Y182.220
G1 F2700 X147.600 Y180.975 E1663.38946
G0 F12000 X148.200 Y181.321
G1 F2700 X148.200 Y182.567 E1663.51379
G0 F12000 X148.800 Y182.913
G1 F2700 X148.800 Y181.668 E1663.63801
G0 F12000 X149.400 Y182.014
G1 F2700 X149.400 Y183.260 E1663.76234
G0 F12000 X150.000 Y183.606
G1 F2700 X150.000 Y182.360 E1663.88667
G0 F12000 X150.600 Y182.707
G1 F2700 X150.600 Y183.953 E1664.01099
G0 F12000 X151.200 Y184.299
G1 F2700 X151.200 Y183.053 E1664.13532
G0 F12000 X151.800 Y183.400
G1 F2700 X152.100 Y184.322 E1664.22723
G1 X152.700 Y183.585 E1664.29361
G1 X153.300 Y184.322 E1664.37421
G1 X153.600 Y183.168 E1664.49318
G0 F12000 X154.200 Y182.821
G1 F2700 X154.200 Y184.069 E1664.61771
G0 F12000 X154.800 Y183.723
G1 F2700 X154.800 Y182.475 E1664.74223
G0 F12000 X155.400 Y182.128
G1 F2700 X155.400 Y183.376 E1664.86676
G0 F12000 X156.000 Y183.030
G1 F2700 X156.000 Y181.782 E1664.99129
G0 F12000 X156.600 Y181.436
G1 F2700 X156.600 Y182.683 E1665.11571
G0 F12000 X157.200 Y182.337
G1 F2700 X157.200 Y181.089 E1665.24024
G0 F12000 X157.800 Y180.743
G1 F2700 X157.800 Y181.990 E1665.36466
G0 F12000 X158.400 Y181.644
G1 F2700 X158.400 Y180.396 E1665.48919
G0 F12000 X159.000 Y180.050
G1 F2700 X159.000 Y181.298 E1665.61372
G0 F12000 X159.600 Y180.951
G1 F2700 X159.600 Y179.704 E1665.73814
G0 F12000 X160.200 Y179.357
G1 F2700 X160.200 Y180.605 E1665.86267
G0 F12000 X160.800 Y180.258
G1 F2700 X160.800 Y179.011 E1665.98710
G0 F12000 X161.400 Y178.664
G1 F2700 X161.400 Y179.912 E1666.11162
G0 F12000 X162.000 Y179.565
G1 F2700 X162.000 Y178.318 E1666.23605
G0 F12000 X162.600 Y177.972
G1 F2700 X162.600 Y179.219 E1666.36047
G0 F12000 X163.200 Y178.872
G1 F2700 X163.200 Y177.625 E1666.48490
G0 F12000 X163.800 Y177.279
G1 F2700 X163.800 Y178.526 E1666.60933
G0 F12000 X164.400 Y178.180
G1 F2700 X164.400 Y176.932 E1666.73385
G0 F12000 X165.000 Y176.586
G1 F2700 X165.000 Y177.833 E1666.85828
G0 F12000 X165.600 Y177.487
G1 F2700 X165.600 Y176.240 E1666.98270
G0 F12000 X166.200 Y175.893
G1 F2700 X166.200 Y177.140 E1667.10713
G0 F12000 X166.800 Y176.794
G1 F2700 X166.800 Y175.547 E1667.23156
G0 F12000 X167.400 Y175.200
G1 F2700 X167.400 Y176.447 E1667.35598
G0 F12000 X168.000 Y176.101
G1 F2700 X168.000 Y174.854 E1667.48041
G0 F12000 X168.600 Y174.508
G1 F2700 X168.600 Y175.755 E1667.60483
G0 F12000 X169.200 Y175.408
G1 F2700 X169.200 Y174.161 E1667.72926
G0 F12000 X169.800 Y173.815
G1 F2700 X169.800 Y175.062 E1667.85369
G0 F12000 X170.400 Y174.715
G1 F2700 X170.400 Y173.468 E1667.97811
G0 F12000 X171.000 Y173.122
G1 F2700 X171.000 Y174.369 E1668.10254
G0 F12000 X171.600 Y174.022
G1 F2700 X171.600 Y172.776 E1668.22687
G0 F12000 X172.200 Y172.429
G1 F2700 X172.200 Y173.676 E1668.35129
G0 F12000 X172.800 Y173.329
G1 F2700 X172.800 Y172.083 E1668.47562
G0 F12000 X173.400 Y171.737
G1 F2700 X173.400 Y172.983 E1668.59994
G0 F12000 X174.000 Y172.637
G1 F2700 X174.000 Y171.390 E1668.72437
G0 F12000 X174.600 Y171.044
G1 F2700 X174.600 Y172.290 E1668.84870
G0 F12000 X175.200 Y171.944
G1 F2700 X175.200 Y170.697 E1668.97312
G0 F12000 X175.800 Y170.351
G1 F2700 X175.800 Y171.597 E1669.09745
G0 F12000 X176.400 Y171.251
G1 F2700 X176.400 Y170.005 E1669.22178
G0 F12000 X177.000 Y169.658
G1 F2700 X177.000 Y170.904 E1669.34610
G0 F12000 X177.600 Y170.558
G1 F2700 X177.600 Y169.312 E1669.47043
G0 F12000 X178.200 Y168.965
G1 F2700 X178.200 Y170.212 E1669.59486
G0 F12000 X178.800 Y169.865
G1 F2700 X178.800 Y168.619 E1669.71918
G0 F12000 X179.400 Y168.221
G1 F2700 X179.400 Y169.519 E1669.84870
G0 F12000 X180.000 Y168.513
G1 F2700 X180.000 Y136.488 E1673.04416
G0 F12000 X180.600 Y137.527
G1 F2700 X180.600 Y167.474 E1676.03229
G1 F2100 E1675.63229
G1 Z2.400
G0 F12000 X179.400 Y136.778
G1 Z2.000
G1 F2100 E1676.03229
G1 F2700 X179.400 Y135.482 E1676.16160
G0 F12000 X178.800 Y135.136
G1 F2700 X178.800 Y136.380 E1676.28573
G0 F12000 X178.200 Y136.034
G1 F2700 X178.200 Y134.789 E1676.40996
G0 F12000 X177.600 Y134.443
G1 F2700 X177.600 Y135.687 E1676.53408
G0 F12000 X177.000 Y135.341
G1 F2700 X177.000 Y134.097 E1676.65821
G0 F12000 X176.400 Y133.750
G1 F2700 X176.400 Y134.994 E1676.78234
G0 F12000 X175.800 Y134.648
G1 F2700 X175.800 Y133.404 E1676.90646
G0 F12000 X175.200 Y133.057
G1 F2700 X175.200 Y134.302 E1677.03069
G0 F12000 X174.600 Y133.955
G1 F2700 X174.600 Y132.711 E1677.15482
G0 F12000 X174.000 Y132.364
G1 F2700 X174.000 Y133.609 E1677.27904
G0 F12000 X173.400 Y133.262
G1 F2700 X173.400 Y132.018 E1677.40317
G0 F12000 X172.800 Y131.672
G1 F2700 X172.800 Y132.916 E1677.52730
G0 F12000 X172.200 Y132.570
G1 F2700 X172.200 Y131.325 E1677.65152
G0 F12000 X171.600 Y130.979
G1 F2700 X171.600 Y132.223 E1677.77565
G0 F12000 X171.000 Y131.877
G1 F2700 X171.000 Y130.632 E1677.89988
G0 F12000 X170.400 Y130.286
G1 F2700 X170.400 Y131.531 E1678.02410
G0 F12000 X169.800 Y131.184
G1 F2700 X169.800 Y129.939 E1678.14833
G0 F12000 X169.200 Y129.593
G1 F2700 X169.200 Y130.838 E1678.27256
G0 F12000 X168.600 Y130.491
G1 F2700 X168.600 Y129.246 E1678.39678
G0 F12000 X168.000 Y128.900
G1 F2700 X168.000 Y130.145 E1678.52101
G0 F12000 X167.400 Y129.799
G1 F2700 X167.400 Y128.554 E1678.64524
G0 F12000 X166.800 Y128.207
G1 F2700 X166.800 Y129.452 E1678.76946
G0 F12000 X166.200 Y129.106
G1 F2700 X166.200 Y127.861 E1678.89369
G0 F12000 X165.600 Y127.514
G1 F2700 X165.600 Y128.759 E1679.01792
G0 F12000 X165.000 Y128.413
G1 F2700 X165.000 Y127.168 E1679.14214
G0 F12000 X164.400 Y126.821
G1 F2700 X164.400 Y128.067 E1679.26647
G0 F12000 X163.800 Y127.720
G1 F2700 X163.800 Y126.475 E1679.39070
G0 F12000 X163.200 Y126.129
G1 F2700 X163.200 Y127.374 E1679.51492
G0 F12000 X162.600 Y127.027
G1 F2700 X162.600 Y125.782 E1679.63915
G0 F12000 X162.000 Y125.436
G1 F2700 X162.000 Y126.681 E1679.76338
G0 F12000 X161.400 Y126.335
G1 F2700 X161.400 Y125.089 E1679.88770
G0 F12000 X160.800 Y124.743
G1 F2700 X160.800 Y125.988 E1680.01193
G0 F12000 X160.200 Y125.642
G1 F2700 X160.200 Y124.396 E1680.13626
G0 F12000 X159.600 Y124.050
G1 F2700 X159.600 Y125.295 E1680.26048
G0 F12000 X159.000 Y124.949
G1 F2700 X159.000 Y123.703 E1680.38481
G0 F12000 X158.400 Y123.357
G1 F2700 X158.400 Y124.603 E1680.50914
G0 F12000 X157.800 Y124.256
G1 F2700 X157.800 Y123.011 E1680.63336
G0 F12000 X157.200 Y122.664
G1 F2700 X157.200 Y123.910 E1680.75769
G0 F12000 X156.600 Y123.563
G1 F2700 X156.600 Y122.318 E1680.88191
G0 F12000 X156.000 Y121.971
G1 F2700 X156.000 Y123.217 E1681.00624
G0 F12000 X155.400 Y122.871
G1 F2700 X155.400 Y121.625 E1681.13057
G0 F12000 X154.800 Y121.278
G1 F2700 X154.800 Y122.524 E1681.25489
G0 F12000 X154.200 Y122.178
G1 F2700 X154.200 Y120.932 E1681.37922
G0 F12000 X153.600 Y120.678
G1 F2700 X153.300 Y121.658 E1681.49427
G1 X152.700 Y120.678 E1681.57472
G1 X152.100 Y121.472 E1681.64108
G1 X151.800 Y120.678 E1681.72578
G0 F12000 X151.200 Y120.700
G1 F2700 X151.200 Y121.948 E1681.85030
G0 F12000 X150.600 Y122.294
G1 F2700 X150.600 Y121.046 E1681.97483
G0 F12000 X150.000 Y121.393
G1 F2700 X150.000 Y122.641 E1682.09935
G0 F12000 X149.400 Y122.987
G1 F2700 X149.400 Y121.739 E1682.22388
G0 F12000 X148.800 Y122.086
G1 F2700 X148.800 Y123.333 E1682.34831
G0 F12000 X148.200 Y123.680
G1 F2700 X148.200 Y122.432 E1682.47283
G0 F12000 X147.600 Y122.779
G1 F2700 X147.600 Y124.026 E1682.59726
G0 F12000 X147.000 Y124.373
G1 F2700 X147.000 Y123.125 E1682.72178
G0 F12000 X146.400 Y123.472
G1 F2700 X146.400 Y124.719 E1682.84621
G0 F12000 X145.800 Y125.065
G1 F2700 X145.800 Y123.818 E1682.97064
G0 F12000 X145.200 Y124.164
G1 F2700 X145.200 Y125.412 E1683.09516
G0 F12000 X144.600 Y125.758
G1 F2700 X144.600 Y124.511 E1683.21959
G0 F12000 X144.000 Y124.857
G1 F2700 X144.000 Y126.105 E1683.34412
G0 F12000 X143.400 Y126.451
G1 F2700 X143.400 Y125.204 E1683.46854
G0 F12000 X142.800 Y125.550
G1 F2700 X142.800 Y126.797 E1683.59297
G0 F12000 X142.200 Y127.144
G1 F2700 X142.200 Y125.897 E1683.71739
G0 F12000 X141.600 Y126.243
G1 F2700 X141.600 Y127.490 E1683.84182
G0 F12000 X141.000 Y127.837
G1 F2700 X141.000 Y126.589 E1683.96635
G0 F12000 X140.400 Y126.936
G1 F2700 X140.400 Y128.183 E1684.09077
G0 F12000 X139.800 Y128.529
G1 F2700 X139.800 Y127.282 E1684.21520
G0 F12000 X139.200 Y127.629
G1 F2700 X139.200 Y128.876 E1684.33962
G0 F12000 X138.600 Y129.222
G1 F2700 X138.600 Y127.975 E1684.46405
G0 F12000 X138.000 Y128.322
G1 F2700 X138.000 Y129.569 E1684.58848
G0 F12000 X137.400 Y129.915
G1 F2700 X137.400 Y128.668 E1684.71290
G0 F12000 X136.800 Y129.015
G1 F2700 X136.800 Y130.261 E1684.83723
G0 F12000 X136.200 Y130.608
G1 F2700 X136.200 Y129.361 E1684.96166
G0 F12000 X135.600 Y129.707
G1 F2700 X135.600 Y130.954 E1685.08608
G0 F12000 X135.000 Y131.301
G1 F2700 X135.000 Y130.054 E1685.21051
G0 F12000 X134.400 Y130.400
G1 F2700 X134.400 Y131.647 E1685.33493
G0 F12000 X133.800 Y131.993
G1 F2700 X133.800 Y130.747 E1685.45926
G0 F12000 X133.200 Y131.093
G1 F2700 X133.200 Y132.340 E1685.58369
G0 F12000 X132.600 Y132.686
G1 F2700 X132.600 Y131.440 E1685.70801
G0 F12000 X132.000 Y131.786
G1 F2700 X132.000 Y133.033 E1685.83244
G0 F12000 X131.400 Y133.379
G1 F2700 X131.400 Y132.132 E1685.95687
G0 F12000 X130.800 Y132.479
G1 F2700 X130.800 Y133.725 E1686.08119
G0 F12000 X130.200 Y134.072
G1 F2700 X130.200 Y132.825 E1686.20562
G0 F12000 X129.600 Y133.172
G1 F2700 X129.600 Y134.418 E1686.32994
G0 F12000 X129.000 Y134.765
G1 F2700 X129.000 Y133.518 E1686.45437
G0 F12000 X128.400 Y133.865
G1 F2700 X128.400 Y135.111 E1686.57870
G0 F12000 X127.800 Y135.457
G1 F2700 X127.800 Y134.211 E1686.70302
G0 F12000 X127.200 Y134.558
G1 F2700 X127.200 Y135.804 E1686.82735
G0 F12000 X126.600 Y136.150
G1 F2700 X126.600 Y134.904 E1686.95168
G0 F12000 X126.000 Y135.250
G1 F2700 X126.000 Y136.497 E1687.07610
G0 F12000 X125.400 Y137.125
G1 F2700 X125.400 Y135.795 E1687.20881
;LAYER:5
M106 S104
G0 F12000 X125.365 Y134.913 Z2.400
;TYPE:WALL-INNER
G1 F2700 X150.835 Y120.206 E1690.14347
G1 X154.163 Y120.206 E1690.47554
G1 X179.635 Y134.914 E1693.41042
G1 X181.300 Y137.794 E1693.74235
G1 X181.300 Y167.206 E1696.67709
G1 X179.635 Y170.087 E1697.00912
G1 X154.165 Y184.794 E1699.94377
G1 X150.837 Y184.794 E1700.27584
G1 X125.365 Y170.086 E1703.21072
G1 X123.700 Y167.206 E1703.54266
G1 X123.700 Y137.794 E1706.47740
G1 X125.365 Y134.913 E1706.80942
G0 F12000 X124.927 Y134.474
;TYPE:WALL-OUTER
G1 F2700 X150.676 Y119.606 E1709.77622
G1 X154.324 Y119.606 E1710.14022
G1 X180.073 Y134.474 E1713.10702
G1 X181.900 Y137.634 E1713.47123
G1 X181.900 Y167.366 E1716.43790
G1 X180.073 Y170.526 E1716.80212
G1 X154.324 Y185.394 E1719.76891
G1 X150.676 Y185.394 E1720.13291
G1 X124.927 Y170.526 E1723.09971
G1 X123.100 Y167.366 E1723.46393
G1 X123.100 Y137.634 E1726.43060
G1 X124.927 Y134.474 E1726.79481
G1 F2100 E1726.39481
G1 Z2.800
G0 F12000 X125.162 Y136.043
;TYPE:FILL
G1 Z2.400
G1 F2100 E1726.79481
G1 F2700 X180.575 Y168.036 E1733.17931
G1 F2100 E1732.77931
G1 Z2.800
G0 F12000 X180.788 Y159.475
G1 Z2.400
G1 F2100 E1733.17931
G1 F2700 X144.395 Y180.486 E1737.37236
G1 F2100 E1736.97236
G1 Z2.800
G0 F12000 X151.916 Y184.584
G1 Z2.400
G1 F2100 E1737.37236
G1 F2700 X151.916 Y120.416 E1743.77507
G1 F2100 E1743.37507
G1 Z2.800
G0 F12000 X144.398 Y124.512
G1 Z2.400
G1 F2100 E1743.77507
G1 F2700 X180.789 Y145.523 E1747.96795
G1 F2100 E1747.56795
G1 Z2.800
G0 F12000 X180.788 Y148.156
G1 Z2.400
G1 F2100 E1747.96795
G1 F2700 X134.593 Y174.827 E1753.29039
G1 F2100 E1752.89039
G1 Z2.800
G0 F12000 X132.312 Y173.509
G1 Z2.400
G1 F2100 E1753.29039
G1 F2700 X132.312 Y131.490 E1757.48306
G1 F2100 E1757.08306
G1 Z2.800
G0 F12000 X134.596 Y130.171
G1 Z2.400
G1 F2100 E1757.48306
G1 F2700 X180.790 Y156.841 E1762.80537
G1 F2100 E1762.40537
G1 Z2.800
G0 F12000 X171.568 Y174.154
G1 Z2.400
G1 F2100 E1762.80537
G1 F2700 X124.209 Y146.812 E1768.26187
G0 F12000 X124.209 Y146.867
G1 F2700 X161.765 Y125.184 E1772.58894
G0 F12000 X161.718 Y125.158
G1 F2700 X161.718 Y179.843 E1778.04543
G0 F12000 X161.766 Y179.813
G1 F2700 X124.209 Y158.130 E1782.37259
G0 F12000 X124.209 Y158.185
G1 F2700 X171.567 Y130.843 E1787.82900
G0 F12000 X171.520 Y130.817
G1 F2700 X171.520 Y174.184 E1792.15618
G1 F2100 E1791.75618
G1 Z2.800
G0 F12000 X142.114 Y179.168
G1 Z2.400
G1 F2100 E1792.15618
G1 F2700 X142.114 Y125.831 E1797.47817
G1 F2100 E1797.07817
G1 Z2.800
G0 F12000 X180.575 Y136.961
G1 Z2.400
G1 F2100 E1797.47817
G1 F2700 X125.005 Y169.045 E1803.88078
G0 F12000 X125.095 Y169.200
;TYPE:SKIN
G1 F2700 X126.407 Y169.200 E1804.01169
G0 F12000 X125.517 Y168.600
G1 F2700 X124.574 Y168.300 E1804.08838
G1 X125.079 Y167.700 E1804.16507
G1 X123.981 Y167.100 E1804.25829
G1 X124.989 Y166.500 E1804.36597
G1 X123.909 Y165.900 E1804.47363
G1 X124.989 Y165.300 E1804.58129
G1 X123.909 Y164.700 E1804.68896
G1 X124.989 Y164.100 E1804.79662
G1 X123.909 Y163.500 E1804.90428
G1 X124.989 Y162.900 E1805.01194
G1 X123.909 Y162.300 E1805.11960
G1 X124.989 Y161.700 E1805.22726
G1 X123.909 Y161.100 E1805.33492
G1 X124.989 Y160.500 E1805.44258
G1 X123.909 Y160.200 E1805.55443
G1 F2100 E1805.15443
G1 Z2.800
G0 F12000 X125.442 Y169.800
G1 Z2.400
G1 F2100 E1805.55443
G1 F2700 X127.446 Y169.800 E1805.75439
G0 F12000 X128.486 Y170.400
G1 F2700 X126.330 Y170.400 E1805.96951
G0 F12000 X127.369 Y171.000
G1 F2700 X129.525 Y171.000 E1806.18464
G0 F12000 X130.564 Y171.600
G1 F2700 X128.408 Y171.600 E1806.39977
G0 F12000 X129.447 Y172.200
G1 F2700 X131.603 Y172.200 E1806.61489
G0 F12000 X132.643 Y172.800
G1 F2700 X130.486 Y172.800 E1806.83012
G0 F12000 X131.525 Y173.400
G1 F2700 X133.682 Y173.400 E1807.04535
G0 F12000 X134.721 Y174.000
G1 F2700 X132.564 Y174.000 E1807.26057
G0 F12000 X133.603 Y174.600
G1 F2700 X135.760 Y174.600 E1807.47580
G0 F12000 X136.799 Y175.200
G1 F2700 X134.643 Y175.200 E1807.69093
G0 F12000 X135.682 Y175.800
G1 F2700 X137.839 Y175.800 E1807.90615
G0 F12000 X138.878 Y176.400
G1 F2700 X136.721 Y176.400 E1808.12138
G0 F12000 X137.760 Y177.000
G1 F2700 X139.917 Y177.000 E1808.33660
G0 F12000 X140.956 Y177.600
G1 F2700 X138.799 Y177.600 E1808.55183
G0 F12000 X139.838 Y178.200
G1 F2700 X141.996 Y178.200 E1808.76716
G0 F12000 X143.035 Y178.800
G1 F2700 X140.877 Y178.800 E1808.98248
G0 F12000 X141.916 Y179.400
G1 F2700 X144.074 Y179.400 E1809.19781
G0 F12000 X145.113 Y180.000
G1 F2700 X142.955 Y180.000 E1809.41314
G0 F12000 X143.995 Y180.600
G1 F2700 X146.152 Y180.600 E1809.62836
G0 F12000 X147.192 Y181.200
G1 F2700 X145.034 Y181.200 E1809.84369
G0 F12000 X146.073 Y181.800
G1 F2700 X148.231 Y181.800 E1810.05901
G0 F12000 X149.270 Y182.400
G1 F2700 X147.112 Y182.400 E1810.27434
G0 F12000 X148.151 Y183.000
G1 F2700 X150.309 Y183.000 E1810.48967
G0 F12000 X151.348 Y183.600
G1 F2700 X149.190 Y183.600 E1810.70499
G0 F12000 X150.229 Y184.200
G1 F2700 X154.770 Y184.200 E1811.15809
G0 F12000 X155.809 Y183.600
G1 F2700 X153.651 Y183.600 E1811.37342
G0 F12000 X154.690 Y183.000
G1 F2700 X156.848 Y183.000 E1811.58875
G0 F12000 X157.887 Y182.400
G1 F2700 X155.729 Y182.400 E1811.80407
G0 F12000 X156.768 Y181.800
G1 F2700 X158.926 Y181.800 E1812.01940
G0 F12000 X159.965 Y181.200
G1 F2700 X157.807 Y181.200 E1812.23473
G0 F12000 X158.847 Y180.600
G1 F2700 X161.004 Y180.600 E1812.44995
G0 F12000 X162.043 Y180.000
G1 F2700 X159.886 Y180.000 E1812.66518
G0 F12000 X160.925 Y179.400
G1 F2700 X163.083 Y179.400 E1812.88050
G0 F12000 X164.122 Y178.800
G1 F2700 X161.964 Y178.800 E1813.09583
G0 F12000 X163.003 Y178.200
G1 F2700 X165.161 Y178.200 E1813.31116
G0 F12000 X166.200 Y177.600
G1 F2700 X164.043 Y177.600 E1813.52638
G0 F12000 X165.082 Y177.000
G1 F2700 X167.239 Y177.000 E1813.74161
G0 F12000 X168.278 Y176.400
G1 F2700 X166.121 Y176.400 E1813.95684
G0 F12000 X167.160 Y175.800
G1 F2700 X169.317 Y175.800 E1814.17206
G0 F12000 X170.356 Y175.200
G1 F2700 X168.200 Y175.200 E1814.38719
G0 F12000 X169.239 Y174.600
G1 F2700 X171.395 Y174.600 E1814.60231
G0 F12000 X172.434 Y174.000
G1 F2700 X170.278 Y174.000 E1814.81744
G0 F12000 X171.317 Y173.400
G1 F2700 X173.474 Y173.400 E1815.03267
G0 F12000 X174.513 Y172.800
G1 F2700 X172.356 Y172.800 E1815.24789
G0 F12000 X173.396 Y172.200
G1 F2700 X175.552 Y172.200 E1815.46302
G0 F12000 X176.591 Y171.600
G1 F2700 X174.435 Y171.600 E1815.67815
G0 F12000 X175.474 Y171.000
G1 F2700 X177.630 Y171.000 E1815.89327
G0 F12000 X178.669 Y170.400
G1 F2700 X176.513 Y170.400 E1816.10840
G0 F12000 X177.553 Y169.800
G1 F2700 X179.556 Y169.800 E1816.30826
G0 F12000 X179.903 Y169.200
G1 F2700 X178.592 Y169.200 E1816.43907
G0 F12000 X179.482 Y168.600
G1 F2700 X180.422 Y168.300 E1816.51554
G1 X179.919 Y167.700 E1816.59210
G1 X181.016 Y167.100 E1816.68525
G1 X180.009 Y166.500 E1816.79286
G1 X181.089 Y165.900 E1816.90052
G1 X180.009 Y165.300 E1817.00818
G1 X181.089 Y164.700 E1817.11584
G1 X180.009 Y164.100 E1817.22351
G1 X181.089 Y163.500 E1817.33117
G1 X180.009 Y162.900 E1817.43883
G1 X181.089 Y162.300 E1817.54649
G1 X180.009 Y161.700 E1817.65415
G1 X181.089 Y161.100 E1817.76181
G1 X180.009 Y160.500 E1817.86947
G1 X181.089 Y159.900 E1817.97713
G1 X180.009 Y159.300 E1818.08480
G1 X181.089 Y158.700 E1818.19246
G1 X180.009 Y158.100 E1818.30012
G1 X181.089 Y157.500 E1818.40778
G1 X180.009 Y156.900 E1818.51544
G1 X181.089 Y156.300 E1818.62310
G1 X180.009 Y155.700 E1818.73076
G1 X181.089 Y155.100 E1818.83842
G1 X180.009 Y154.500 E1818.94609
G1 X181.089 Y153.900 E1819.05375
G1 X180.009 Y153.300 E1819.16141
G1 X181.089 Y152.700 E1819.26907
G1 X180.009 Y152.100 E1819.37673
G1 X181.089 Y151.500 E1819.48439
G1 X180.009 Y150.900 E1819.59205
G1 X181.089 Y150.300 E1819.69971
G1 X180.009 Y149.700 E1819.80738
G1 X181.089 Y149.100 E1819.91504
G1 X180.009 Y148.500 E1820.02270
G1 X181.089 Y147.900 E1820.13036
G1 X180.009 Y147.300 E1820.23802
G1 X181.089 Y146.700 E1820.34568
G1 X180.009 Y146.100 E1820.45334
G1 X181.089 Y145.500 E1820.56100
G1 X180.009 Y144.900 E1820.66867
G1 X181.089 Y144.300 E1820.77633
G1 X180.009 Y143.700 E1820.88399
G1 X181.089 Y143.100 E1820.99165
G1 X180.009 Y142.500 E1821.09931
G1 X181.089 Y141.900 E1821.20697
G1 X180.009 Y141.300 E1821.31463
G1 X181.089 Y140.700 E1821.42229
G1 X180.009 Y140.100 E1821.52996
G1 X181.089 Y139.500 E1821.63762
G1 X180.009 Y138.900 E1821.74528
G1 X181.089 Y138.300 E1821.85294
G1 X180.009 Y137.700 E1821.96060
G1 X180.655 Y137.100 E1822.04241
G1 X179.925 Y136.500 E1822.11910
G1 X179.287 Y136.200 E1822.18945
G0 F12000 X179.789 Y135.600
G1 F2700 X178.248 Y135.600 E1822.34321
G0 F12000 X177.209 Y135.000
G1 F2700 X179.364 Y135.000 E1822.55824
G0 F12000 X178.325 Y134.400
G1 F2700 X176.169 Y134.400 E1822.77336
G0 F12000 X175.130 Y133.800
G1 F2700 X177.286 Y133.800 E1822.98849
G0 F12000 X176.247 Y133.200
G1 F2700 X174.091 Y133.200 E1823.20362
G0 F12000 X173.052 Y132.600
G1 F2700 X175.208 Y132.600 E1823.41874
G0 F12000 X174.169 Y132.000
G1 F2700 X172.012 Y132.000 E1823.63397
G0 F12000 X170.973 Y131.400
G1 F2700 X173.130 Y131.400 E1823.84919
G0 F12000 X172.091 Y130.800
G1 F2700 X169.934 Y130.800 E1824.06442
G0 F12000 X168.895 Y130.200
G1 F2700 X171.052 Y130.200 E1824.27965
G0 F12000 X170.013 Y129.600
G1 F2700 X167.856 Y129.600 E1824.49487
G0 F12000 X166.816 Y129.000
G1 F2700 X168.973 Y129.000 E1824.71010
G0 F12000 X167.934 Y128.400
G1 F2700 X165.777 Y128.400 E1824.92533
G0 F12000 X164.738 Y127.800
G1 F2700 X166.895 Y127.800 E1825.14055
G0 F12000 X165.856 Y127.200
G1 F2700 X163.699 Y127.200 E1825.35578
G0 F12000 X162.660 Y126.600
G1 F2700 X164.817 Y126.600 E1825.57101
G0 F12000 X163.778 Y126.000
G1 F2700 X161.620 Y126.000 E1825.78633
G0 F12000 X160.581 Y125.400
G1 F2700 X162.739 Y125.400 E1826.00166
G0 F12000 X161.700 Y124.800
G1 F2700 X159.542 Y124.800 E1826.21698
G0 F12000 X158.503 Y124.200
G1 F2700 X160.661 Y124.200 E1826.43231
G0 F12000 X159.621 Y123.600
G1 F2700 X157.463 Y123.600 E1826.64764
G0 F12000 X156.424 Y123.000
G1 F2700 X158.582 Y123.000 E1826.86296
G0 F12000 X157.543 Y122.400
G1 F2700 X155.385 Y122.400 E1827.07829
G0 F12000 X154.346 Y121.800
G1 F2700 X156.504 Y121.800 E1827.29361
G0 F12000 X155.465 Y121.200
G1 F2700 X153.307 Y121.200 E1827.50894
G0 F12000 X154.426 Y120.600
G1 F2700 X150.571 Y120.600 E1827.89359
G0 F12000 X149.532 Y121.200
G1 F2700 X151.690 Y121.200 E1828.10892
G0 F12000 X150.651 Y121.800
G1 F2700 X148.493 Y121.800 E1828.32425
G0 F12000 X147.454 Y122.400
G1 F2700 X149.612 Y122.400 E1828.53957
G0 F12000 X148.573 Y123.000
G1 F2700 X146.415 Y123.000 E1828.75490
G0 F12000 X145.376 Y123.600
G1 F2700 X147.534 Y123.600 E1828.97022
G0 F12000 X146.494 Y124.200
G1 F2700 X144.337 Y124.200 E1829.18545
G0 F12000 X143.297 Y124.800
G1 F2700 X145.455 Y124.800 E1829.40078
G0 F12000 X144.416 Y125.400
G1 F2700 X142.258 Y125.400 E1829.61610
G0 F12000 X141.219 Y126.000
G1 F2700 X143.377 Y126.000 E1829.83143
G0 F12000 X142.337 Y126.600
G1 F2700 X140.180 Y126.600 E1830.04666
G0 F12000 X139.141 Y127.200
G1 F2700 X141.298 Y127.200 E1830.26188
G0 F12000 X140.259 Y127.800
G1 F2700 X138.102 Y127.800 E1830.47711
G0 F12000 X137.063 Y128.400
G1 F2700 X139.220 Y128.400 E1830.69233
G0 F12000 X138.181 Y129.000
G1 F2700 X136.024 Y129.000 E1830.90756
G0 F12000 X134.985 Y129.600
G1 F2700 X137.141 Y129.600 E1831.12269
G0 F12000 X136.102 Y130.200
G1 F2700 X133.946 Y130.200 E1831.33781
G0 F12000 X132.906 Y130.800
G1 F2700 X135.063 Y130.800 E1831.55304
G0 F12000 X134.024 Y131.400
G1 F2700 X131.867 Y131.400 E1831.76827
G0 F12000 X130.828 Y132.000
G1 F2700 X132.985 Y132.000 E1831.98349
G0 F12000 X131.945 Y132.600
G1 F2700 X129.789 Y132.600 E1832.19862
G0 F12000 X128.750 Y133.200
G1 F2700 X130.906 Y133.200 E1832.41375
G0 F12000 X129.867 Y133.800
G1 F2700 X127.711 Y133.800 E1832.62887
G0 F12000 X126.672 Y134.400
G1 F2700 X128.828 Y134.400 E1832.84400
G0 F12000 X127.788 Y135.000
G1 F2700 X125.633 Y135.000 E1833.05903
G0 F12000 X125.210 Y135.600
G1 F2700 X126.749 Y135.600 E1833.21259
G0 F12000 X125.710 Y136.200
G1 F2700 X124.689 Y136.500 E1833.29700
G1 X125.136 Y137.100 E1833.37353
G1 X124.039 Y137.700 E1833.45524
G1 X124.989 Y138.300 E1833.56306
G1 X123.909 Y138.900 E1833.67072
G1 X124.989 Y139.500 E1833.77838
G1 X123.909 Y140.100 E1833.88604
G1 X124.989 Y140.700 E1833.99371
G1 X123.909 Y141.300 E1834.10137
G1 X124.989 Y141.900 E1834.20903
G1 X123.909 Y142.500 E1834.31669
G1 X124.989 Y143.100 E1834.42435
G1 X123.909 Y143.700 E1834.53201
G1 X124.989 Y144.300 E1834.63967
G1 X123.909 Y144.900 E1834.74733
G1 X124.989 Y145.500 E1834.85500
G1 X123.909 Y146.100 E1834.96266
G1 X124.989 Y146.700 E1835.07032
G1 X123.909 Y147.300 E1835.17798
G1 X124.989 Y147.900 E1835.28564
G1 X123.909 Y148.500 E1835.39330
G1 X124.989 Y149.100 E1835.50096
G1 X123.909 Y149.700 E1835.60862
G1 X124.989 Y150.300 E1835.71629
G1 X123.909 Y150.900 E1835.82395
G1 X124.989 Y151.500 E1835.93161
G1 X123.909 Y152.100 E1836.03927
G1 X124.989 Y152.700 E1836.14693
G1 X123.909 Y153.300 E1836.25459
G1 X124.989 Y153.900 E1836.36225
G1 X123.909 Y154.500 E1836.46992
G1 X124.989 Y155.100 E1836.57758
G1 X123.909 Y155.700 E1836.68524
G1 X124.989 Y156.300 E1836.79290
G1 X123.909 Y156.900 E1836.90056
G1 X124.989 Y157.500 E1837.00822
G1 X123.909 Y158.100 E1837.11588
G1 X124.989 Y158.700 E1837.22354
G1 X123.909 Y159.300 E1837.33121
G1 X124.989 Y159.600 E1837.44305
;LAYER:6
M106 S127
G1 F2100 E1837.04305
G1 Z2.800
G0 F12000 X123.400 Y167.079 Z2.800
;TYPE:WALL-INNER
G1 Z2.800
G1 F2100 E1837.44305
G1 F2700 X123.400 Y137.921 E1840.35245
G1 X125.324 Y134.589 E1840.73636
G1 X150.577 Y120.009 E1843.64593
G1 X154.425 Y120.009 E1844.02989
G1 X179.675 Y134.588 E1846.93915
G1 X181.600 Y137.921 E1847.32320
G1 X181.600 Y167.079 E1850.23260
G1 X179.676 Y170.411 E1850.61651
G1 X154.423 Y184.991 E1853.52608
G1 X150.575 Y184.991 E1853.91004
G1 X125.325 Y170.412 E1856.81930
G1 X123.400 Y167.079 E1857.20335
G0 F12000 X122.800 Y167.240
;TYPE:WALL-OUTER
G1 F2700 X122.800 Y137.761 E1860.14477
G1 X124.886 Y134.150 E1860.56088
G1 X150.416 Y119.409 E1863.50242
G1 X154.584 Y119.409 E1863.91830
G1 X180.114 Y134.150 E1866.85984
G1 X182.200 Y137.760 E1867.27586
G1 X182.200 Y167.239 E1870.21729
G1 X180.114 Y170.850 E1870.63340
G1 X154.584 Y185.591 E1873.57494
G1 X150.416 Y185.591 E1873.99082
G1 X124.886 Y170.850 E1876.93236
G1 X122.800 Y167.240 E1877.34838
G1 F2100 E1876.94838
G1 Z3.200
G0 F12000 X124.730 Y168.960
;TYPE:FILL
G1 Z2.800
G1 F2100 E1877.34838
G1 F2700 X152.130 Y184.780 E1880.50534
G0 F12000 X151.233 Y184.781
G1 F2700 X151.233 Y120.219 E1886.94736
G0 F12000 X152.126 Y120.218
G1 F2700 X125.043 Y135.855 E1890.06780
G0 F12000 X125.333 Y135.353
G1 F2700 X181.087 Y167.543 E1896.49160
G0 F12000 X180.639 Y168.323
G1 F2700 X180.639 Y136.679 E1899.64905
G0 F12000 X181.086 Y137.453
G1 F2700 X125.175 Y169.734 E1906.09096
G1 F2100 E1905.69096
G1 Z3.200
G0 F12000 X131.629 Y173.577
G1 Z2.800
G1 F2100 E1906.09096
G1 F2700 X131.629 Y131.423 E1910.29710
G1 F2100 E1909.89710
G1 Z3.200
G0 F12000 X134.879 Y129.546
G1 Z2.800
G1 F2100 E1910.29710
G1 F2700 X181.190 Y156.284 E1915.63291
G1 F2100 E1915.23291
G1 Z3.200
G0 F12000 X181.189 Y148.713
G1 Z2.800
G1 F2100 E1915.63291
G1 F2700 X134.876 Y175.452 E1920.96894
G1 F2100 E1920.56894
G1 Z3.200
G0 F12000 X141.431 Y179.236
G1 Z2.800
G1 F2100 E1920.96894
G1 F2700 X141.431 Y125.763 E1926.30450
G1 F2100 E1925.90450
G1 Z3.200
G0 F12000 X144.680 Y123.887
G1 Z2.800
G1 F2100 E1926.30450
G1 F2700 X181.190 Y144.966 E1930.51105
G1 F2100 E1930.11105
G1 Z3.200
G0 F12000 X181.188 Y160.031
G1 Z2.800
G1 F2100 E1930.51105
G1 F2700 X144.677 Y181.111 E1934.71774
G1 F2100 E1934.31774
G1 Z3.200
G0 F12000 X161.035 Y180.700
G1 Z2.800
G1 F2100 E1934.71774
G1 F2700 X161.035 Y124.301 E1940.34525
G1 F2100 E1939.94525
G1 Z3.200
G0 F12000 X162.848 Y125.347
G1 Z2.800
G1 F2100 E1940.34525
G1 F2700 X123.809 Y147.886 E1944.84318
G1 F2100 E1944.44318
G1 Z3.200
G0 F12000 X123.809 Y145.792
G1 Z2.800
G1 F2100 E1944.84318
G1 F2700 X172.651 Y173.991 E1950.47059
G1 F2100 E1950.07059
G1 Z3.200
G0 F12000 X170.837 Y175.040
G1 Z2.800
G1 F2100 E1950.47059
G1 F2700 X170.837 Y129.960 E1954.96869
G1 F2100 E1954.56869
G1 Z3.200
G0 F12000 X172.649 Y131.006
G1 Z2.800
G1 F2100 E1954.96869
G1 F2700 X123.809 Y159.204 E1960.59587
G1 F2100 E1960.19587
G1 Z3.200
G0 F12000 X123.809 Y157.110
G1 Z2.800
G1 F2100 E1960.59587
G1 F2700 X162.849 Y179.650 E1965.09394
G0 F12000 X163.200 Y179.681
;TYPE:SKIN
G1 F2700 X163.500 Y178.376 E1965.20684
G1 X164.100 Y179.161 E1965.31972
G1 X164.700 Y177.683 E1965.43246
G1 X165.300 Y178.468 E1965.54534
G1 X165.900 Y176.990 E1965.65808
G1 X166.500 Y177.776 E1965.77106
G1 X167.100 Y176.297 E1965.88386
G1 X167.700 Y177.083 E1965.99684
G1 X168.300 Y175.604 E1966.10964
G1 X168.900 Y176.390 E1966.22262
G1 X169.500 Y174.912 E1966.33536
G1 X170.100 Y175.697 E1966.44824
G1 X170.700 Y174.219 E1966.56098
G1 X171.300 Y175.004 E1966.67386
G1 X171.900 Y173.526 E1966.78660
G1 X172.500 Y174.311 E1966.89949
G1 X173.100 Y172.833 E1967.01223
G1 X173.700 Y173.619 E1967.12520
G1 X174.300 Y172.140 E1967.23801
G1 X174.900 Y172.926 E1967.35098
G1 X175.500 Y171.447 E1967.46379
G1 X176.100 Y172.233 E1967.57676
G1 X176.700 Y170.755 E1967.68950
G1 X177.300 Y171.540 E1967.80238
G1 X177.900 Y170.062 E1967.91512
G1 X178.500 Y170.847 E1968.02801
G1 X179.100 Y169.369 E1968.14075
G1 X179.400 Y170.328 E1968.24101
G1 F2100 E1967.84101
G1 Z3.200
G0 F12000 X162.600 Y178.896
G1 Z2.800
G1 F2100 E1968.24101
G1 F2700 X162.300 Y180.201 E1968.35391
G1 X161.700 Y179.415 E1968.46688
G1 X161.100 Y180.893 E1968.57963
G1 X160.500 Y180.108 E1968.69251
G1 X159.900 Y181.586 E1968.80525
G1 X159.300 Y180.801 E1968.91813
G1 X158.700 Y182.279 E1969.03087
G1 X158.100 Y181.493 E1969.14385
G1 X157.500 Y182.972 E1969.25665
G1 X156.900 Y182.186 E1969.36963
G1 X156.300 Y183.665 E1969.48243
G1 X155.700 Y182.879 E1969.59540
G1 X155.100 Y184.358 E1969.70821
G1 X154.500 Y183.572 E1969.82118
G1 X153.900 Y184.781 E1969.92443
G1 X153.300 Y184.136 E1969.99314
G1 X152.700 Y184.781 E1970.05306
G1 X152.100 Y184.180 E1970.11294
G1 X151.500 Y184.781 E1970.17282
G1 X150.900 Y183.804 E1970.25290
G1 X150.300 Y184.589 E1970.36562
G1 X149.700 Y183.111 E1970.47836
G1 X149.100 Y183.896 E1970.59108
G1 X148.500 Y182.418 E1970.70382
G1 X147.900 Y183.203 E1970.81654
G1 X147.300 Y181.725 E1970.92928
G1 X146.700 Y182.510 E1971.04200
G1 X146.100 Y181.033 E1971.15467
G1 X145.500 Y181.817 E1971.26746
G1 X144.900 Y180.340 E1971.38014
G1 X144.300 Y181.124 E1971.49293
G1 X143.700 Y179.647 E1971.60561
G1 X143.100 Y180.431 E1971.71840
G1 X142.500 Y178.954 E1971.83108
G1 X141.900 Y179.739 E1971.94379
G1 X141.300 Y178.261 E1972.05653
G1 X140.700 Y179.046 E1972.16925
G1 X140.100 Y177.568 E1972.28199
G1 X139.500 Y178.353 E1972.39471
G1 X138.900 Y176.876 E1972.50739
G1 X138.300 Y177.660 E1972.62001
G1 X137.700 Y176.183 E1972.73269
G1 X137.100 Y176.967 E1972.84548
G1 X136.500 Y175.490 E1972.95816
G1 X135.900 Y176.274 E1973.07095
G1 X135.300 Y174.797 E1973.18362
G1 X134.700 Y175.581 E1973.29642
G1 X134.100 Y174.104 E1973.40909
G1 X133.500 Y174.889 E1973.52181
G1 X132.900 Y173.411 E1973.63455
G1 X132.300 Y174.196 E1973.74727
G1 X131.700 Y172.719 E1973.85995
G1 X131.100 Y173.503 E1973.97257
G1 X130.500 Y172.026 E1974.08525
G1 X129.900 Y172.810 E1974.19788
G1 X129.300 Y171.333 E1974.31055
G1 X128.700 Y172.117 E1974.42318
G1 X128.100 Y170.640 E1974.53585
G1 X127.500 Y171.424 E1974.64865
G1 X126.900 Y169.947 E1974.76132
G1 X126.300 Y170.731 E1974.87411
G1 X125.700 Y169.175 E1974.98671
G1 X125.100 Y169.601 E1975.10627
G1 X124.800 Y167.885 E1975.28009
G0 F12000 X124.200 Y168.043
G1 F2700 X124.200 Y136.956 E1978.38196
G0 F12000 X124.800 Y137.116
G1 F2700 X125.100 Y135.997 E1978.50161
G1 X125.700 Y134.659 E1978.62134
G1 X126.300 Y135.400 E1978.73424
G1 X126.900 Y133.921 E1978.84704
G1 X127.500 Y134.707 E1978.96002
G1 X128.100 Y133.228 E1979.07282
G1 X128.700 Y134.014 E1979.18596
G1 X129.300 Y132.536 E1979.29870
G1 X129.900 Y133.321 E1979.41158
G1 X130.500 Y131.843 E1979.52432
G1 X131.100 Y132.628 E1979.63721
G1 X131.700 Y131.150 E1979.74995
G1 X132.300 Y131.936 E1979.86292
G1 X132.900 Y130.457 E1979.97573
G1 X133.500 Y131.243 E1980.08870
G1 X134.100 Y129.764 E1980.20151
G1 X134.700 Y130.550 E1980.31448
G1 X135.300 Y129.071 E1980.42729
G1 X135.900 Y129.857 E1980.54042
G1 X136.500 Y128.379 E1980.65317
G1 X137.100 Y129.164 E1980.76605
G1 X137.700 Y127.686 E1980.87879
G1 X138.300 Y128.471 E1980.99167
G1 X138.900 Y126.993 E1981.10441
G1 X139.500 Y127.779 E1981.21739
G1 X140.100 Y126.300 E1981.33019
G1 X140.700 Y127.086 E1981.44317
G1 X141.300 Y125.607 E1981.55597
G1 X141.900 Y126.393 E1981.66895
G1 X142.500 Y124.915 E1981.78169
G1 X143.100 Y125.700 E1981.89457
G1 X143.700 Y124.222 E1982.00731
G1 X144.300 Y125.007 E1982.12019
G1 X144.900 Y123.529 E1982.23293
G1 X145.500 Y124.314 E1982.34582
G1 X146.100 Y122.836 E1982.45856
G1 X146.700 Y123.622 E1982.57153
G1 X147.300 Y122.143 E1982.68434
G1 X147.900 Y122.929 E1982.79731
G1 X148.500 Y121.450 E1982.91012
G1 X149.100 Y122.236 E1983.02309
G1 X149.700 Y120.758 E1983.13583
G1 X150.300 Y121.543 E1983.24871
G1 X150.900 Y120.228 E1983.36169
G1 X151.500 Y120.922 E1983.44194
G1 X152.100 Y120.219 E1983.50188
G1 X152.700 Y120.820 E1983.56176
G1 X153.300 Y120.219 E1983.62164
G1 X153.900 Y121.080 E1983.69023
G1 X154.500 Y120.344 E1983.79351
G1 X155.100 Y121.773 E1983.90640
G1 X155.700 Y120.988 E1984.01928
G1 X156.300 Y122.466 E1984.13202
G1 X156.900 Y121.681 E1984.24474
G1 X157.500 Y123.159 E1984.35748
G1 X158.100 Y122.374 E1984.47020
G1 X158.700 Y123.852 E1984.58294
G1 X159.300 Y123.067 E1984.69566
G1 X159.900 Y124.544 E1984.80833
G1 X160.500 Y123.760 E1984.92113
G1 X161.100 Y125.237 E1985.03380
G1 X161.700 Y124.453 E1985.14659
G1 X162.300 Y125.930 E1985.25927
G1 X162.900 Y125.146 E1985.37190
G1 X163.500 Y126.623 E1985.48457
G1 X164.100 Y125.838 E1985.59729
G1 X164.700 Y127.316 E1985.71003
G1 X165.300 Y126.531 E1985.82275
G1 X165.900 Y128.009 E1985.93549
G1 X166.500 Y127.224 E1986.04821
G1 X167.100 Y128.701 E1986.16088
G1 X167.700 Y127.917 E1986.27367
G1 X168.300 Y129.394 E1986.38635
G1 X168.900 Y128.610 E1986.49914
G1 X169.500 Y130.087 E1986.61182
G1 X170.100 Y129.303 E1986.72445
G1 X170.700 Y130.780 E1986.83712
G1 X171.300 Y129.996 E1986.94975
G1 X171.900 Y131.473 E1987.06242
G1 X172.500 Y130.688 E1987.17514
G1 X173.100 Y132.166 E1987.28788
G1 X173.700 Y131.381 E1987.40060
G1 X174.300 Y132.858 E1987.51328
G1 X174.900 Y132.074 E1987.62607
G1 X175.500 Y133.551 E1987.73874
G1 X176.100 Y132.767 E1987.85154
G1 X176.700 Y134.244 E1987.96421
G1 X177.300 Y133.460 E1988.07684
G1 X177.900 Y134.937 E1988.18951
G1 X178.500 Y134.153 E1988.30214
G1 X179.100 Y135.630 E1988.41482
G1 X179.700 Y135.122 E1988.52752
G1 X180.000 Y136.769 E1988.69456
G0 F12000 X180.600 Y136.611
G1 F2700 X180.600 Y168.391 E1991.86558
G0 F12000 X180.000 Y168.230
G1 F2700 X180.000 Y169.430 E1991.98532
G1 F2100 E1991.58532
G1 Z3.200
G0 F12000 X181.200 Y167.352
G1 Z2.800
G1 F2100 E1991.98532
G1 F2700 X181.200 Y137.650 E1994.94899
;LAYER:7
M106 S147
G0 F12000 X181.600 Y137.923 Z3.200
;TYPE:WALL-INNER
G1 F2700 X181.600 Y167.080 E1997.85829
G1 X179.676 Y170.411 E1998.24212
G1 X154.425 Y184.991 E2001.15152
G1 X150.575 Y184.991 E2001.53567
G1 X125.325 Y170.411 E2004.44498
G1 X123.400 Y167.077 E2004.82912
G1 X123.400 Y137.920 E2007.73842
G1 X125.324 Y134.589 E2008.12225
G1 X150.575 Y120.009 E2011.03164
G1 X154.425 Y120.009 E2011.41580
G1 X179.675 Y134.589 E2014.32511
G1 X181.600 Y137.923 E2014.70925
G0 F12000 X182.200 Y137.761
;TYPE:WALL-OUTER
G1 F2700 X182.200 Y167.239 E2017.65057
G1 X180.115 Y170.850 E2018.06663
G1 X154.584 Y185.591 E2021.00826
G1 X150.416 Y185.591 E2021.42414
G1 X124.886 Y170.850 E2024.36568
G1 X122.800 Y167.239 E2024.78179
G1 X122.800 Y137.761 E2027.72311
G1 X124.885 Y134.150 E2028.13917
G1 X150.416 Y119.409 E2031.08079
G1 X154.584 Y119.409 E2031.49668
G1 X180.114 Y134.150 E2034.43822
G1 X182.200 Y137.761 E2034.85432
G0 F12000 X181.329 Y137.875
;TYPE:FILL
G1 F2700 X125.419 Y170.154 E2041.29605
G1 F2100 E2040.89605
G1 Z3.600
G0 F12000 X124.245 Y168.120
G1 Z3.200
G1 F2100 E2041.29605
G1 F2700 X153.101 Y184.780 E2044.62073
G1 F2100 E2044.22073
G1 Z3.600
G0 F12000 X150.750 Y184.781
G1 Z3.200
G1 F2100 E2044.62073
G1 F2700 X150.750 Y120.219 E2051.06275
G1 F2100 E2050.66275
G1 Z3.600
G0 F12000 X153.099 Y120.218
G1 Z3.200
G1 F2100 E2051.06275
G1 F2700 X124.243 Y136.878 E2054.38744
G1 F2100 E2053.98744
G1 Z3.600
G0 F12000 X125.419 Y134.843
G1 Z3.200
G1 F2100 E2054.38744
G1 F2700 X181.330 Y167.123 E2060.82930
G1 F2100 E2060.42930
G1 Z3.600
G0 F12000 X180.156 Y169.160
G1 Z3.200
G1 F2100 E2060.82930
G1 F2700 X180.156 Y135.843 E2064.15368
G1 F2100 E2063.75368
G1 Z3.600
G0 F12000 X173.336 Y131.171
G1 Z3.200
G1 F2100 E2064.15368
G1 F2700 X123.610 Y159.880 E2069.88292
G1 F2100 E2069.48292
G1 Z3.600
G0 F12000 X123.609 Y156.434
G1 Z3.200
G1 F2100 E2069.88292
G1 F2700 X163.536 Y179.486 E2074.48318
G1 F2100 E2074.08318
G1 Z3.600
G0 F12000 X170.354 Y175.551
G1 Z3.200
G1 F2100 E2074.48318
G1 F2700 X170.354 Y129.450 E2079.08315
G1 F2100 E2078.68315
G1 Z3.600
G0 F12000 X163.535 Y125.511
G1 Z3.200
G1 F2100 E2079.08315
G1 F2700 X123.609 Y148.562 E2083.68327
G1 F2100 E2083.28327
G1 Z3.600
G0 F12000 X123.609 Y145.116
G1 Z3.200
G1 F2100 E2083.68327
G1 F2700 X173.337 Y173.827 E2089.41278
G1 F2100 E2089.01278
G1 Z3.600
G0 F12000 X160.552 Y181.211
G1 Z3.200
G1 F2100 E2089.41278
G1 F2700 X160.552 Y123.790 E2095.14227
G1 F2100 E2094.74227
G1 Z3.600
G0 F12000 X144.964 Y123.490
G1 Z3.200
G1 F2100 E2095.14227
G1 F2700 X181.390 Y144.521 E2099.33917
G1 F2100 E2098.93917
G1 Z3.600
G0 F12000 X181.389 Y149.159
G1 Z3.200
G1 F2100 E2099.33917
G1 F2700 X135.161 Y175.848 E2104.66536
G1 F2100 E2104.26536
G1 Z3.600
G0 F12000 X131.146 Y173.529
G1 Z3.200
G1 F2100 E2104.66536
G1 F2700 X131.146 Y131.470 E2108.86203
G1 F2100 E2108.46203
G1 Z3.600
G0 F12000 X135.163 Y129.150
G1 Z3.200
G1 F2100 E2108.86203
G1 F2700 X181.389 Y155.839 E2114.18804
G1 F2100 E2113.78804
G1 Z3.600
G0 F12000 X181.389 Y160.477
G1 Z3.200
G1 F2100 E2114.18804
G1 F2700 X144.962 Y181.508 E2118.38503
G1 F2100 E2117.98503
G1 Z3.600
G0 F12000 X140.948 Y179.189
G1 Z3.200
G1 F2100 E2118.38503
G1 F2700 X140.948 Y125.810 E2123.71121
G0 F12000 X140.618 Y126.000
;TYPE:SKIN
G1 F2700 X141.717 Y125.700 E2123.82696
G1 X142.756 Y125.100 E2123.94269
G1 X143.795 Y124.500 E2124.05841
G1 X144.834 Y123.900 E2124.17414
G1 X145.873 Y123.300 E2124.28986
G1 X146.913 Y122.700 E2124.40567
G1 X147.952 Y122.100 E2124.52140
G1 X148.991 Y121.500 E2124.63713
G1 X150.030 Y120.900 E2124.75285
G1 X151.130 Y120.600 E2124.86662
G1 F2100 E2124.46662
G1 Z3.600
G0 F12000 X153.867 Y120.600
G1 Z3.200
G1 F2100 E2124.86662
G1 F2700 X154.967 Y120.900 E2124.98247
G1 X156.006 Y121.500 E2125.09840
G1 X157.045 Y122.100 E2125.21432
G1 X158.085 Y122.700 E2125.33033
G1 X159.124 Y123.300 E2125.44606
G1 X160.163 Y123.900 E2125.56198
G1 X161.202 Y124.500 E2125.67791
G1 X162.241 Y125.100 E2125.79384
G1 X163.280 Y125.700 E2125.90976
G1 X164.319 Y126.300 E2126.02569
G1 X165.358 Y126.900 E2126.14161
G1 X166.398 Y127.500 E2126.25762
G1 X167.437 Y128.100 E2126.37335
G1 X168.476 Y128.700 E2126.48907
G1 X169.515 Y129.300 E2126.60480
G1 X170.554 Y129.900 E2126.72053
G1 X171.593 Y130.500 E2126.83645
G1 X172.632 Y131.100 E2126.95238
G1 X173.671 Y131.700 E2127.06830
G1 X174.711 Y132.300 E2127.18431
G1 X175.750 Y132.900 E2127.30004
G1 X176.789 Y133.500 E2127.41576
G1 X177.828 Y134.100 E2127.53149
G1 X178.867 Y134.700 E2127.64722
G1 X179.647 Y135.300 E2127.73330
G1 X179.994 Y135.900 E2127.77226
G1 X180.340 Y136.500 E2127.81119
G1 X180.687 Y137.100 E2127.85015
G1 X180.932 Y137.700 E2127.88906
G1 X181.389 Y138.300 E2127.94688
G1 X180.809 Y138.900 E2128.00475
G1 X181.389 Y139.500 E2128.06262
G1 X180.809 Y140.100 E2128.12049
G1 X181.389 Y140.700 E2128.17836
G1 X180.809 Y141.300 E2128.23623
G1 X181.389 Y141.900 E2128.29410
G1 X180.809 Y142.500 E2128.35197
G1 X181.389 Y143.100 E2128.40984
G1 X180.809 Y143.700 E2128.46771
G1 X181.389 Y144.300 E2128.52559
G1 X180.809 Y144.900 E2128.58346
G1 X181.389 Y145.500 E2128.64133
G1 X180.809 Y146.100 E2128.69920
G1 X181.389 Y146.700 E2128.75707
G1 X180.809 Y147.300 E2128.81494
G1 X181.389 Y147.900 E2128.87281
G1 X180.809 Y148.500 E2128.93068
G1 X181.389 Y149.100 E2128.98855
G1 X180.809 Y149.700 E2129.04642
G1 X181.389 Y150.300 E2129.10429
G1 X180.809 Y150.900 E2129.16216
G1 X181.389 Y151.500 E2129.22004
G1 X180.809 Y152.100 E2129.27791
G1 X181.389 Y152.700 E2129.33578
G1 X180.809 Y153.300 E2129.39365
G1 X181.389 Y153.900 E2129.45152
G1 X180.809 Y154.500 E2129.50939
G1 X181.389 Y155.100 E2129.56726
G1 X180.809 Y155.700 E2129.62513
G1 X181.389 Y156.300 E2129.68300
G1 X180.809 Y156.900 E2129.74087
G1 X181.389 Y157.500 E2129.79874
G1 X180.809 Y158.100 E2129.85661
G1 X181.389 Y158.700 E2129.91448
G1 X180.809 Y159.300 E2129.97236
G1 X181.389 Y159.900 E2130.03023
G1 X180.809 Y160.500 E2130.08810
G1 X181.389 Y161.100 E2130.14597
G1 X180.809 Y161.700 E2130.20384
G1 X181.389 Y162.300 E2130.26171
G1 X180.809 Y162.900 E2130.31958
G1 X181.389 Y163.500 E2130.37745
G1 X180.809 Y164.100 E2130.43532
G1 X181.389 Y164.700 E2130.49319
G1 X180.809 Y165.300 E2130.55106
G1 X181.389 Y165.900 E2130.60893
G1 X180.809 Y166.500 E2130.66681
G1 X181.279 Y167.100 E2130.72460
G1 X180.802 Y167.700 E2130.76335
G1 X180.455 Y168.300 E2130.80220
G1 X180.108 Y168.900 E2130.84104
G1 X179.762 Y169.500 E2130.87997
G1 X179.210 Y170.100 E2130.94316
G1 X178.171 Y170.700 E2131.05888
G1 X177.132 Y171.300 E2131.17461
G1 X176.093 Y171.900 E2131.29033
G1 X175.054 Y172.500 E2131.40606
G1 X174.014 Y173.100 E2131.52187
G1 X172.975 Y173.700 E2131.63760
G1 X171.936 Y174.300 E2131.75332
G1 X170.897 Y174.900 E2131.86905
G1 X169.858 Y175.500 E2131.98477
G1 X168.819 Y176.100 E2132.10050
G1 X167.780 Y176.700 E2132.21623
G1 X166.740 Y177.300 E2132.33204
G1 X165.701 Y177.900 E2132.44776
G1 X164.662 Y178.500 E2132.56349
G1 X163.623 Y179.100 E2132.67921
G1 X162.584 Y179.700 E2132.79494
G1 X161.545 Y180.300 E2132.91067
G1 X160.506 Y180.900 E2133.02639
G1 X159.467 Y181.500 E2133.14212
G1 X158.427 Y182.100 E2133.25793
G1 X157.388 Y182.700 E2133.37365
G1 X156.349 Y183.300 E2133.48938
G1 X155.310 Y183.900 E2133.60511
G1 X154.211 Y184.200 E2133.71878
G1 F2100 E2133.31878
G1 Z3.600
G0 F12000 X150.788 Y184.200
G1 Z3.200
G1 F2100 E2133.71878
G1 F2700 X149.687 Y183.900 E2133.83473
G1 X148.648 Y183.300 E2133.95065
G1 X147.609 Y182.700 E2134.06658
G1 X146.570 Y182.100 E2134.18250
G1 X145.531 Y181.500 E2134.29843
G1 X144.492 Y180.900 E2134.41416
G1 X143.452 Y180.300 E2134.53016
G1 X142.413 Y179.700 E2134.64609
G1 X141.374 Y179.100 E2134.76202
G1 X140.335 Y178.500 E2134.87794
G1 X139.296 Y177.900 E2134.99387
G1 X138.257 Y177.300 E2135.10979
G1 X137.218 Y176.700 E2135.22572
G1 X136.179 Y176.100 E2135.34144
G1 X135.140 Y175.500 E2135.45717
G1 X134.101 Y174.900 E2135.57290
G1 X133.062 Y174.300 E2135.68862
G1 X132.022 Y173.700 E2135.80463
G1 X130.983 Y173.100 E2135.92056
G1 X129.944 Y172.500 E2136.03648
G1 X128.905 Y171.900 E2136.15221
G1 X127.866 Y171.300 E2136.26793
G1 X126.827 Y170.700 E2136.38366
G1 X125.788 Y170.100 E2136.49939
G1 X125.236 Y169.500 E2136.56270
G1 X124.890 Y168.900 E2136.60175
G1 X124.543 Y168.300 E2136.64071
G1 X124.196 Y167.700 E2136.67956
G1 X123.718 Y167.100 E2136.71847
G1 X124.189 Y166.500 E2136.77631
G1 X123.609 Y165.900 E2136.83418
G1 X124.189 Y165.300 E2136.89205
G1 X123.609 Y164.700 E2136.94992
G1 X124.189 Y164.100 E2137.00779
G1 X123.609 Y163.500 E2137.06566
G1 X124.189 Y162.900 E2137.12353
G1 X123.609 Y162.300 E2137.18140
G1 X124.189 Y161.700 E2137.23928
G1 X123.609 Y161.100 E2137.29715
G1 X124.189 Y160.500 E2137.35502
G1 X123.609 Y159.900 E2137.41289
G1 X124.189 Y159.300 E2137.47076
G1 X123.609 Y158.700 E2137.52863
G1 X124.189 Y158.100 E2137.58650
G1 X123.609 Y157.500 E2137.64437
G1 X124.189 Y156.900 E2137.70224
G1 X123.609 Y156.300 E2137.76011
G1 X124.189 Y155.700 E2137.81798
G1 X123.609 Y155.100 E2137.87585
G1 X124.189 Y154.500 E2137.93373
G1 X123.609 Y153.900 E2137.99160
G1 X124.189 Y153.300 E2138.04947
G1 X123.609 Y152.700 E2138.10734
G1 X124.189 Y152.100 E2138.16521
G1 X123.609 Y151.500 E2138.22308
G1 X124.189 Y150.900 E2138.28095
G1 X123.609 Y150.300 E2138.33882
G1 X124.189 Y149.700 E2138.39669
G1 X123.609 Y149.100 E2138.45456
G1 X124.189 Y148.500 E2138.51243
G1 X123.609 Y147.900 E2138.57030
G1 X124.189 Y147.300 E2138.62817
G1 X123.609 Y146.700 E2138.68605
G1 X124.189 Y146.100 E2138.74392
G1 X123.609 Y145.500 E2138.80179
G1 X124.189 Y144.900 E2138.85966
G1 X123.609 Y144.300 E2138.91753
G1 X124.189 Y143.700 E2138.97540
G1 X123.609 Y143.100 E2139.03327
G1 X124.189 Y142.500 E2139.09114
G1 X123.609 Y141.900 E2139.14901
G1 X124.189 Y141.300 E2139.20688
G1 X123.609 Y140.700 E2139.26475
G1 X124.189 Y140.100 E2139.32262
G1 X123.609 Y139.500 E2139.38050
G1 X124.189 Y138.900 E2139.43837
G1 X123.609 Y138.300 E2139.49624
G1 X124.260 Y137.700 E2139.55410
G1 X124.115 Y137.100 E2139.59300
G1 X124.657 Y136.500 E2139.63186
G1 X125.003 Y135.900 E2139.67080
G1 X125.350 Y135.300 E2139.70964
G1 X126.130 Y134.700 E2139.79572
G1 X127.169 Y134.100 E2139.91145
G1 X128.208 Y133.500 E2140.02717
G1 X129.247 Y132.900 E2140.14290
G1 X130.286 Y132.300 E2140.25862
G1 X131.326 Y131.700 E2140.37443
G1 X132.365 Y131.100 E2140.49016
G1 X133.404 Y130.500 E2140.60589
G1 X134.443 Y129.900 E2140.72161
G1 X135.482 Y129.300 E2140.83734
G1 X136.521 Y128.700 E2140.95306
G1 X137.560 Y128.100 E2141.06879
G1 X138.599 Y127.500 E2141.18452
G1 X139.639 Y126.900 E2141.30033
G1 X140.739 Y126.600 E2141.41409
;LAYER:8
M106 S168
G1 F2100 E2141.01409
G1 Z3.600
G0 F12000 X150.576 Y120.009 Z3.600
;TYPE:WALL-INNER
G1 Z3.600
G1 F2100 E2141.41409
G1 F2700 X154.424 Y120.009 E2141.79805
G1 X179.676 Y134.589 E2144.70753
G1 X181.600 Y137.921 E2145.09145
G1 X181.600 Y167.079 E2148.00084
G1 X179.676 Y170.411 E2148.38476
G1 X154.424 Y184.991 E2151.29424
G1 X150.576 Y184.991 E2151.67820
G1 X125.324 Y170.411 E2154.58768
G1 X123.400 Y167.079 E2154.97160
G1 X123.400 Y137.921 E2157.88099
G1 X125.324 Y134.589 E2158.26491
G1 X150.576 Y120.009 E2161.17439
G0 F12000 X150.416 Y119.409
;TYPE:WALL-OUTER
G1 F2700 X154.584 Y119.409 E2161.59028
G1 X180.114 Y134.150 E2164.53182
G1 X182.200 Y137.761 E2164.94792
G1 X182.200 Y167.239 E2167.88925
G1 X180.114 Y170.850 E2168.30536
G1 X154.584 Y185.591 E2171.24690
G1 X150.416 Y185.591 E2171.66278
G1 X124.886 Y170.850 E2174.60432
G1 X122.800 Y167.239 E2175.02042
G1 X122.800 Y137.761 E2177.96175
G1 X124.886 Y134.150 E2178.37786
G1 X150.416 Y119.409 E2181.31940
G0 F12000 X150.467 Y120.314
;TYPE:FILL
G1 F2700 X150.467 Y184.685 E2187.74236
G1 F2100 E2187.34236
G1 Z4.000
G0 F12000 X153.665 Y184.780
G1 Z3.600
G1 F2100 E2187.74236
G1 F2700 X123.961 Y167.630 E2191.16477
G1 F2100 E2190.76477
G1 Z4.000
G0 F12000 X125.641 Y170.351
G1 Z3.600
G1 F2100 E2191.16477
G1 F2700 X181.388 Y138.166 E2197.58772
G1 F2100 E2197.18772
G1 Z4.000
G0 F12000 X179.873 Y135.351
G1 Z3.600
G1 F2100 E2197.58772
G1 F2700 X179.873 Y169.650 E2201.01009
G1 F2100 E2200.61009
G1 Z4.000
G0 F12000 X173.619 Y173.664
G1 Z3.600
G1 F2100 E2201.01009
G1 F2700 X123.609 Y144.790 E2206.77210
G1 F2100 E2206.37210
G1 Z4.000
G0 F12000 X123.609 Y148.888
G1 Z3.600
G1 F2100 E2206.77210
G1 F2700 X163.816 Y125.674 E2211.40463
G1 F2100 E2211.00463
G1 Z4.000
G0 F12000 X160.269 Y123.627
G1 Z3.600
G1 F2100 E2211.40463
G1 F2700 X160.269 Y181.374 E2217.16665
G1 F2100 E2216.76665
G1 Z4.000
G0 F12000 X163.817 Y179.323
G1 Z3.600
G1 F2100 E2217.16665
G1 F2700 X123.609 Y156.109 E2221.79927
G1 F2100 E2221.39927
G1 Z4.000
G0 F12000 X123.609 Y160.206
G1 Z3.600
G1 F2100 E2221.79927
G1 F2700 X173.618 Y131.334 E2227.56110
G1 F2100 E2227.16110
G1 Z4.000
G0 F12000 X170.071 Y129.287
G1 Z3.600
G1 F2100 E2227.56110
G1 F2700 X170.071 Y175.714 E2232.19360
G1 F2100 E2231.79360
G1 Z4.000
G0 F12000 X181.390 Y166.832
G1 Z3.600
G1 F2100 E2232.19360
G1 F2700 X125.643 Y134.647 E2238.61655
G1 F2100 E2238.21655
G1 Z4.000
G0 F12000 X123.962 Y137.366
G1 Z3.600
G1 F2100 E2238.61655
G1 F2700 X153.663 Y120.218 E2242.03860
G1 F2100 E2241.63860
G1 Z4.000
G0 F12000 X145.247 Y123.328
G1 Z3.600
G1 F2100 E2242.03860
G1 F2700 X181.390 Y144.195 E2246.20286
G1 F2100 E2245.80286
G1 Z4.000
G0 F12000 X181.388 Y149.484
G1 Z3.600
G1 F2100 E2246.20286
G1 F2700 X135.443 Y176.011 E2251.49651
G1 F2100 E2251.09651
G1 Z4.000
G0 F12000 X130.863 Y173.366
G1 Z3.600
G1 F2100 E2251.49651
G1 F2700 X130.863 Y131.633 E2255.66065
G1 F2100 E2255.26065
G1 Z4.000
G0 F12000 X135.445 Y128.987
G1 Z3.600
G1 F2100 E2255.66065
G1 F2700 X181.390 Y155.514 E2260.95430
G1 F2100 E2260.55430
G1 Z4.000
G0 F12000 X181.389 Y160.803
G1 Z3.600
G1 F2100 E2260.95430
G1 F2700 X145.244 Y181.671 E2265.11879
G1 F2100 E2264.71879
G1 Z4.000
G0 F12000 X140.665 Y179.025
G1 Z3.600
G1 F2100 E2265.11879
G1 F2700 X140.665 Y125.974 E2270.41224
;LAYER:9
M106 S191
G1 F2100 E2270.01224
G1 Z4.000
G0 F12000 X150.575 Y120.009 Z4.000
;TYPE:WALL-INNER
G1 Z4.000
G1 F2100 E2270.41224
G1 F2700 X154.425 Y120.009 E2270.79639
G1 X179.675 Y134.589 E2273.70570
G1 X181.600 Y137.922 E2274.08975
G1 X181.600 Y167.080 E2276.99915
G1 X179.677 Y170.411 E2277.38293
G1 X154.425 Y184.991 E2280.29241
G1 X150.575 Y184.991 E2280.67657
G1 X125.325 Y170.411 E2283.58588
G1 X123.400 Y167.078 E2283.96993
G1 X123.400 Y137.920 E2286.87933
G1 X125.323 Y134.589 E2287.26310
G1 X150.575 Y120.009 E2290.17259
G0 F12000 X150.416 Y119.409
;TYPE:WALL-OUTER
G1 F2700 X154.584 Y119.409 E2290.58847
G1 X180.114 Y134.150 E2293.53001
G1 X182.154 Y137.682 E2293.93700
G1 X182.200 Y137.761 E2293.94612
G1 X182.200 Y167.239 E2296.88745
G1 X180.162 Y170.770 E2297.29424
G1 X180.116 Y170.850 E2297.30345
G1 X154.584 Y185.591 E2300.24516
G1 X150.416 Y185.591 E2300.66105
G1 X124.886 Y170.850 E2303.60259
G1 X122.846 Y167.318 E2304.00957
G1 X122.800 Y167.239 E2304.01869
G1 X122.800 Y137.761 E2306.96002
G1 X124.838 Y134.230 E2307.36682
G1 X124.884 Y134.150 E2307.37603
G1 X150.416 Y119.409 E2310.31774
G0 F12000 X150.183 Y120.478
;TYPE:FILL
G1 F2700 X150.183 Y184.521 E2316.70798
G1 F2100 E2316.30798
G1 Z4.400
G0 F12000 X154.235 Y184.780
G1 Z4.000
G1 F2100 E2316.70798
G1 F2700 X123.676 Y167.137 E2320.22886
G1 F2100 E2319.82886
G1 Z4.400
G0 F12000 X125.927 Y170.516
G1 Z4.000
G1 F2100 E2320.22886
G1 F2700 X181.388 Y138.495 E2326.61891
G1 F2100 E2326.21891
G1 Z4.400
G0 F12000 X179.589 Y134.861
G1 Z4.000
G1 F2100 E2326.61891
G1 F2700 X179.589 Y170.143 E2330.13937
G1 F2100 E2329.73937
G1 Z4.400
G0 F12000 X173.903 Y173.499
G1 Z4.000
G1 F2100 E2330.13937
G1 F2700 X123.608 Y144.461 E2335.93419
G1 F2100 E2335.53419
G1 Z4.400
G0 F12000 X123.609 Y149.217
G1 Z4.000
G1 F2100 E2335.93419
G1 F2700 X164.102 Y125.839 E2340.59962
G1 F2100 E2340.19962
G1 Z4.400
G0 F12000 X169.787 Y129.123
G1 Z4.000
G1 F2100 E2340.59962
G1 F2700 X169.787 Y175.879 E2345.26495
G1 F2100 E2344.86495
G1 Z4.400
G0 F12000 X164.102 Y179.159
G1 Z4.000
G1 F2100 E2345.26495
G1 F2700 X123.609 Y155.780 E2349.93043
G1 F2100 E2349.53043
G1 Z4.400
G0 F12000 X123.609 Y160.535
G1 Z4.000
G1 F2100 E2349.93043
G1 F2700 X173.903 Y131.498 E2355.72511
G1 F2100 E2355.32511
G1 Z4.400
G0 F12000 X181.389 Y143.866
G1 Z4.000
G1 F2100 E2355.72511
G1 F2700 X145.531 Y123.163 E2359.85657
G1 F2100 E2359.45657
G1 Z4.400
G0 F12000 X140.381 Y126.137
G1 Z4.000
G1 F2100 E2359.85657
G1 F2700 X140.381 Y178.861 E2365.11739
G1 F2100 E2364.71739
G1 Z4.400
G0 F12000 X135.728 Y176.176
G1 Z4.000
G1 F2100 E2365.11739
G1 F2700 X181.388 Y149.814 E2370.37818
G1 F2100 E2369.97818
G1 Z4.400
G0 F12000 X181.390 Y155.184
G1 Z4.000
G1 F2100 E2370.37818
G1 F2700 X135.729 Y128.822 E2375.63906
G1 F2100 E2375.23906
G1 Z4.400
G0 F12000 X130.579 Y131.797
G1 Z4.000
G1 F2100 E2375.63906
G1 F2700 X130.579 Y173.201 E2379.77037
G1 F2100 E2379.37037
G1 Z4.400
G0 F12000 X145.529 Y181.835
G1 Z4.000
G1 F2100 E2379.77037
G1 F2700 X181.388 Y161.132 E2383.90191
G1 F2100 E2383.50191
G1 Z4.400
G0 F12000 X181.390 Y166.503
G1 Z4.000
G1 F2100 E2383.90191
G1 F2700 X125.928 Y134.482 E2390.29204
G1 F2100 E2389.89204
G1 Z4.400
G0 F12000 X123.676 Y137.860
G1 Z4.000
G1 F2100 E2390.29204
G1 F2700 X154.233 Y120.218 E2393.81271
G1 F2100 E2393.41271
G1 Z4.400
G0 F12000 X159.985 Y123.463
G1 Z4.000
G1 F2100 E2393.81271
G1 F2700 X159.985 Y181.538 E2399.60746
;LAYER:10
M106 S211
G1 F2100 E2399.20746
G1 Z4.400
G0 F12000 X155.462 Y184.392 Z4.400
;TYPE:WALL-INNER
G1 Z4.400
G1 F2100 E2399.60746
G1 F2700 X155.023 Y184.645 E2399.65801
G1 X154.423 Y184.991 E2399.72712
G1 X150.577 Y184.991 E2400.11088
G1 X126.363 Y171.010 E2402.90078
G1 X125.924 Y170.757 E2402.95134
G1 X125.324 Y170.410 E2403.02050
G1 X123.400 Y167.078 E2403.40441
G1 X123.400 Y137.920 E2406.31381
G1 X125.323 Y134.590 E2406.69750
G1 X149.538 Y120.608 E2409.48754
G1 X149.977 Y120.355 E2409.53810
G1 X150.577 Y120.009 E2409.60721
G1 X154.423 Y120.009 E2409.99097
G1 X178.637 Y133.990 E2412.78087
G1 X179.076 Y134.243 E2412.83143
G1 X179.676 Y134.590 E2412.90059
G1 X181.600 Y137.922 E2413.28450
G1 X181.600 Y167.080 E2416.19390
G1 X179.677 Y170.410 E2416.57759
G1 X155.462 Y184.392 E2419.36763
G0 F12000 X154.584 Y185.591
;TYPE:WALL-OUTER
G1 F2700 X150.416 Y185.591 E2419.78352
G1 X124.886 Y170.850 E2422.72505
G1 X122.800 Y167.239 E2423.14116
G1 X122.800 Y137.761 E2426.08249
G1 X124.886 Y134.150 E2426.49859
G1 X150.416 Y119.409 E2429.44013
G1 X154.584 Y119.409 E2429.85602
G1 X180.114 Y134.150 E2432.79756
G1 X182.200 Y137.761 E2433.21366
G1 X182.200 Y167.239 E2436.15499
G1 X180.114 Y170.850 E2436.57110
G1 X154.584 Y185.591 E2439.51263
G0 F12000 X154.582 Y184.655
;TYPE:FILL
G1 F2700 X123.609 Y166.772 E2443.08127
G1 F2100 E2442.68127
G1 Z4.800
G0 F12000 X126.209 Y170.678
G1 Z4.400
G1 F2100 E2443.08127
G1 F2700 X181.389 Y138.820 E2449.43891
G1 F2100 E2449.03891
G1 Z4.800
G0 F12000 X179.306 Y134.620
G1 Z4.400
G1 F2100 E2449.43891
G1 F2700 X179.306 Y170.382 E2453.00725
G1 F2100 E2452.60725
G1 Z4.800
G0 F12000 X174.185 Y173.336
G1 Z4.400
G1 F2100 E2453.00725
G1 F2700 X123.609 Y144.136 E2458.83444
G1 F2100 E2458.43444
G1 Z4.800
G0 F12000 X123.609 Y149.543
G1 Z4.400
G1 F2100 E2458.83444
G1 F2700 X164.383 Y126.002 E2463.53228
G1 F2100 E2463.13228
G1 Z4.800
G0 F12000 X169.504 Y128.960
G1 Z4.400
G1 F2100 E2463.53228
G1 F2700 X169.504 Y176.041 E2468.23004
G1 F2100 E2467.83004
G1 Z4.800
G0 F12000 X164.384 Y178.996
G1 Z4.400
G1 F2100 E2468.23004
G1 F2700 X123.609 Y155.454 E2472.92802
G1 F2100 E2472.52802
G1 Z4.800
G0 F12000 X123.609 Y160.861
G1 Z4.400
G1 F2100 E2472.92802
G1 F2700 X174.184 Y131.662 E2478.75507
G1 F2100 E2478.35507
G1 Z4.800
G0 F12000 X181.390 Y143.540
G1 Z4.400
G1 F2100 E2478.75507
G1 F2700 X145.814 Y123.001 E2482.85397
G1 F2100 E2482.45397
G1 Z4.800
G0 F12000 X149.900 Y120.642
G1 Z4.400
G1 F2100 E2482.85397
G1 F2700 X149.900 Y184.357 E2489.21148
G1 F2100 E2488.81148
G1 Z4.800
G0 F12000 X145.812 Y181.998
G1 Z4.400
G1 F2100 E2489.21148
G1 F2700 X181.388 Y161.458 E2493.31043
G1 F2100 E2492.91043
G1 Z4.800
G0 F12000 X181.389 Y166.177
G1 Z4.400
G1 F2100 E2493.31043
G1 F2700 X126.211 Y134.320 E2499.66785
G1 F2100 E2499.26785
G1 Z4.800
G0 F12000 X123.609 Y138.225
G1 Z4.400
G1 F2100 E2499.66785
G1 F2700 X154.581 Y120.343 E2503.23635
G1 F2100 E2502.83635
G1 Z4.800
G0 F12000 X159.702 Y123.300
G1 Z4.400
G1 F2100 E2503.23635
G1 F2700 X159.702 Y181.701 E2509.06362
G1 F2100 E2508.66362
G1 Z4.800
G0 F12000 X140.098 Y178.697
G1 Z4.400
G1 F2100 E2509.06362
G1 F2700 X140.098 Y126.302 E2514.29162
G1 F2100 E2513.89162
G1 Z4.800
G0 F12000 X136.012 Y128.660
G1 Z4.400
G1 F2100 E2514.29162
G1 F2700 X181.390 Y154.859 E2519.51991
G1 F2100 E2519.11991
G1 Z4.800
G0 F12000 X181.388 Y150.139
G1 Z4.400
G1 F2100 E2519.51991
G1 F2700 X136.011 Y176.338 E2524.74812
G1 F2100 E2524.34812
G1 Z4.800
G0 F12000 X130.296 Y173.037
G1 Z4.400
G1 F2100 E2524.74812
G1 F2700 X130.296 Y131.961 E2528.84670
;LAYER:11
M106 S232
G1 F2100 E2528.44670
G1 Z4.800
G0 F12000 X125.325 Y134.589 Z4.800
;TYPE:WALL-INNER
G1 Z4.800
G1 F2100 E2528.84670
G1 F2700 X150.575 Y120.009 E2531.75601
G1 X154.425 Y120.009 E2532.14017
G1 X179.675 Y134.589 E2535.04948
G1 X181.600 Y137.921 E2535.43344
G1 X181.600 Y167.079 E2538.34284
G1 X179.675 Y170.411 E2538.72680
G1 X154.425 Y184.991 E2541.63611
G1 X150.575 Y184.991 E2542.02027
G1 X125.325 Y170.411 E2544.92958
G1 X123.400 Y167.079 E2545.31354
G1 X123.400 Y137.921 E2548.22294
G1 X125.325 Y134.589 E2548.60691
G0 F12000 X124.886 Y134.150
;TYPE:WALL-OUTER
G1 F2700 X150.416 Y119.409 E2551.54845
G1 X154.584 Y119.409 E2551.96433
G1 X180.114 Y134.150 E2554.90587
G1 X182.200 Y137.761 E2555.32198
G1 X182.200 Y167.239 E2558.26330
G1 X180.114 Y170.850 E2558.67941
G1 X154.584 Y185.591 E2561.62095
G1 X150.416 Y185.591 E2562.03683
G1 X124.886 Y170.850 E2564.97837
G1 X122.800 Y167.239 E2565.39448
G1 X122.800 Y137.761 E2568.33580
G1 X124.886 Y134.150 E2568.75191
G1 F2100 E2568.35191
G1 Z5.200
G0 F12000 X126.495 Y134.156
;TYPE:FILL
G1 Z4.800
G1 F2100 E2568.75191
G1 F2700 X181.389 Y165.849 E2575.07660
G1 F2100 E2574.67660
G1 Z5.200
G0 F12000 X181.389 Y161.785
G1 Z4.800
G1 F2100 E2575.07660
G1 F2700 X146.095 Y182.162 E2579.14305
G1 F2100 E2578.74305
G1 Z5.200
G0 F12000 X149.617 Y184.194
G1 Z4.800
G1 F2100 E2579.14305
G1 F2700 X149.617 Y120.805 E2585.46803
G1 F2100 E2585.06803
G1 Z5.200
G0 F12000 X146.097 Y122.836
G1 Z4.800
G1 F2100 E2585.46803
G1 F2700 X181.390 Y143.212 E2589.53435
G1 F2100 E2589.13435
G1 Z5.200
G0 F12000 X181.389 Y150.467
G1 Z4.800
G1 F2100 E2589.53435
G1 F2700 X136.294 Y176.502 E2594.73000
G1 F2100 E2594.33000
G1 Z5.200
G0 F12000 X139.815 Y178.534
G1 Z4.800
G1 F2100 E2594.73000
G1 F2700 X139.815 Y126.465 E2599.92547
G1 F2100 E2599.52547
G1 Z5.200
G0 F12000 X136.296 Y128.496
G1 Z4.800
G1 F2100 E2599.92547
G1 F2700 X181.390 Y154.531 E2605.12104
G1 F2100 E2604.72104
G1 Z5.200
G0 F12000 X181.388 Y139.148
G1 Z4.800
G1 F2100 E2605.12104
G1 F2700 X126.492 Y170.843 E2611.44600
G1 F2100 E2611.04600
G1 Z5.200
G0 F12000 X130.013 Y172.875
G1 Z4.800
G1 F2100 E2611.44600
G1 F2700 X130.013 Y132.124 E2615.51215
G1 F2100 E2615.11215
G1 Z5.200
G0 F12000 X123.609 Y138.552
G1 Z4.800
G1 F2100 E2615.51215
G1 F2700 X154.867 Y120.506 E2619.11355
G1 F2100 E2618.71355
G1 Z5.200
G0 F12000 X159.419 Y123.136
G1 Z4.800
G1 F2100 E2619.11355
G1 F2700 X159.419 Y181.865 E2624.97355
G1 F2100 E2624.57355
G1 Z5.200
G0 F12000 X154.867 Y184.491
G1 Z4.800
G1 F2100 E2624.97355
G1 F2700 X123.609 Y166.444 E2628.57500
G1 F2100 E2628.17500
G1 Z5.200
G0 F12000 X123.610 Y161.189
G1 Z4.800
G1 F2100 E2628.57500
G1 F2700 X174.469 Y131.825 E2634.43482
G1 F2100 E2634.03482
G1 Z5.200
G0 F12000 X179.023 Y134.456
G1 Z4.800
G1 F2100 E2634.43482
G1 F2700 X179.023 Y170.545 E2638.03580
G1 F2100 E2637.63580
G1 Z5.200
G0 F12000 X174.470 Y173.172
G1 Z4.800
G1 F2100 E2638.03580
G1 F2700 X123.609 Y143.808 E2643.89579
G1 F2100 E2643.49579
G1 Z5.200
G0 F12000 X123.610 Y149.870
G1 Z4.800
G1 F2100 E2643.89579
G1 F2700 X164.668 Y126.165 E2648.62636
G1 F2100 E2648.22636
G1 Z5.200
G0 F12000 X169.221 Y128.796
G1 Z4.800
G1 F2100 E2648.62636
G1 F2700 X169.221 Y176.205 E2653.35685
G1 F2100 E2652.95685
G1 Z5.200
G0 F12000 X164.668 Y178.832
G1 Z4.800
G1 F2100 E2653.35685
G1 F2700 X123.609 Y155.126 E2658.08755
;LAYER:12
M106 S255
G1 F2100 E2657.68755
G1 Z5.200
G0 F12000 X123.400 Y167.079 Z5.200
;TYPE:WALL-INNER
G1 Z5.200
G1 F2100 E2658.08755
G1 F2700 X123.400 Y137.921 E2660.99695
G1 X125.324 Y134.589 E2661.38086
G1 X126.085 Y134.150 E2661.46852
G1 X150.041 Y120.319 E2664.22865
G1 X150.576 Y120.009 E2664.29035
G1 X154.424 Y120.009 E2664.67430
G1 X155.185 Y120.448 E2664.76196
G1 X179.141 Y134.280 E2667.52214
G1 X179.675 Y134.588 E2667.58365
G1 X181.600 Y137.921 E2667.96770
G1 X181.600 Y167.079 E2670.87710
G1 X179.676 Y170.411 E2671.26101
G1 X178.915 Y170.850 E2671.34867
G1 X154.959 Y184.681 E2674.10880
G1 X154.424 Y184.991 E2674.17050
G1 X150.576 Y184.991 E2674.55445
G1 X149.815 Y184.552 E2674.64211
G1 X125.859 Y170.720 E2677.40229
G1 X125.325 Y170.412 E2677.46380
G1 X123.400 Y167.079 E2677.84785
G0 F12000 X122.800 Y167.239
;TYPE:WALL-OUTER
G1 F2700 X122.800 Y137.761 E2680.78918
G1 X124.886 Y134.150 E2681.20528
G1 X150.416 Y119.409 E2684.14682
G1 X154.584 Y119.409 E2684.56271
G1 X180.114 Y134.150 E2687.50425
G1 X182.200 Y137.761 E2687.92035
G1 X182.200 Y167.239 E2690.86168
G1 X180.114 Y170.850 E2691.27779
G1 X154.584 Y185.591 E2694.21932
G1 X150.416 Y185.591 E2694.63521
G1 X124.886 Y170.850 E2697.57675
G1 X122.800 Y167.239 E2697.99285
G0 F12000 X123.609 Y166.119
;TYPE:FILL
G1 F2700 X155.148 Y184.328 E2701.62667
G1 F2100 E2701.22667
G1 Z5.600
G0 F12000 X159.136 Y182.028
G1 Z5.200
G1 F2100 E2701.62667
G1 F2700 X159.136 Y122.973 E2707.51920
G1 F2100 E2707.11920
G1 Z5.600
G0 F12000 X155.147 Y120.669
G1 Z5.200
G1 F2100 E2707.51920
G1 F2700 X123.609 Y138.878 E2711.15292
G1 F2100 E2710.75292
G1 Z5.600
G0 F12000 X126.776 Y133.992
G1 Z5.200
G1 F2100 E2711.15292
G1 F2700 X181.390 Y165.524 E2717.44538
G1 F2100 E2717.04538
G1 Z5.600
G0 F12000 X181.389 Y162.111
G1 Z5.200
G1 F2100 E2717.44538
G1 F2700 X146.378 Y182.324 E2721.47920
G1 F2100 E2721.07920
G1 Z5.600
G0 F12000 X149.334 Y184.031
G1 Z5.200
