;-- START GCODE --
;Sliced for Type A Machines Series 1
;Sliced at: Tue 06-12-2016 12:22:44
;Basic settings:
; Layer height: 0.2
; Walls: 1
; Fill: 8
; Print Speed: 45
; Support: 0
; Retraction Speed: 35
; Retraction Distance: 0.4
;Print time: 2 hours 50 minutes
;Filament used: 13.106m 39.0g
;Settings based on: Type A Machines Everyday PLA
G21        ;metric values
G90        ;absolute positioning
G28     ;move to endstops
G1 Z15.0 F12000 ;move the platform down 15mm
G1 X150 Y5 F12000 ;center
M140 S50 ;Prep Heat Bed
M109 S215 ;Heat To temp
M190 S50 ;Heat Bed to temp
G1 X150 Y5 Z0.3 ;move the platform to purge extrusion
G92 E0 ;zero the extruded length
G1 F200 X250 E30 ;extrude 30mm of feed stock
G92 E0 ;zero the extruded length again
G1 X150 Y150  Z25 F12000 ;recenter and begin
G1 F12000

;Layer count: 80
;LAYER:0
M107
G0 F12000 X91.248 Y133.190 Z0.200
G0 X90.724 Y134.093
;TYPE:SKIRT
G1 F1800 X91.248 Y133.190 E0.04341
G1 X118.407 Y117.509 E1.34724
G1 X122.594 Y117.509 E1.52131
G1 X147.676 Y131.990 E2.72542
G1 X149.756 Y133.192 E2.82530
G1 X151.333 Y135.922 E2.95637
G1 X151.850 Y136.829 E2.99978
G1 X151.850 Y168.180 E4.30320
G1 X150.277 Y170.906 E4.43405
G1 X149.753 Y171.810 E4.47749
G1 X122.594 Y187.491 E5.78133
G1 X118.407 Y187.491 E5.95540
G1 X93.325 Y173.010 E7.15951
G1 X91.245 Y171.808 E7.25939
G1 X89.667 Y169.079 E7.39045
G1 X89.150 Y168.171 E7.43389
G1 X89.150 Y136.819 E8.73735
G1 X90.724 Y134.093 E8.86822
G0 F12000 X153.150 Y136.820
G1 F1800 X154.723 Y134.094 E8.99907
G1 X155.247 Y133.190 E9.04251
G1 X182.406 Y117.509 E10.34635
G1 X186.593 Y117.509 E10.52042
G1 X211.675 Y131.990 E11.72453
G1 X213.755 Y133.192 E11.82440
G1 X215.333 Y135.921 E11.95547
G1 X215.850 Y136.829 E11.99891
G1 X215.850 Y168.181 E13.30237
G1 X214.276 Y170.907 E13.43324
G1 X213.752 Y171.810 E13.47665
G1 X186.593 Y187.491 E14.78048
G1 X182.406 Y187.491 E14.95456
G1 X157.324 Y173.010 E16.15866
G1 X155.244 Y171.808 E16.25854
G1 X153.667 Y169.078 E16.38961
G1 X153.150 Y168.171 E16.43302
G1 X153.150 Y136.820 E17.73644
G1 F2100 E17.33644
G0 F12000 X147.850 Y137.888
;TYPE:WALL-INNER
G1 F2100 E17.73644
G1 F1800 X147.850 Y167.108 E18.95127
G1 X146.828 Y168.879 E19.03628
G1 X121.521 Y183.491 E20.25121
G1 X119.480 Y183.491 E20.33606
G1 X94.172 Y168.879 E21.55103
G1 X93.150 Y167.112 E21.63590
G1 X93.150 Y137.890 E22.85081
G1 X94.171 Y136.122 E22.93569
G1 X119.480 Y121.509 E24.15071
G1 X121.521 Y121.509 E24.23557
G1 X146.829 Y136.121 E25.45053
G1 X147.850 Y137.888 E25.53538
G0 F12000 X148.297 Y137.663
;TYPE:WALL-OUTER
G1 F1800 X148.350 Y137.756 E25.53983
G1 X148.350 Y167.242 E26.76571
G1 X147.194 Y169.246 E26.86190
G1 X121.655 Y183.991 E28.08795
G1 X119.346 Y183.991 E28.18394
G1 X93.806 Y169.245 E29.41005
G1 X92.702 Y167.336 E29.50173
G1 X92.650 Y167.244 E29.50613
G1 X92.650 Y137.756 E30.73210
G1 X93.806 Y135.755 E30.82817
G1 X119.346 Y121.009 E32.05428
G1 X121.655 Y121.009 E32.15027
G1 X147.195 Y135.755 E33.37638
G1 X148.297 Y137.663 E33.46799
G0 F12000 X147.500 Y137.632
;TYPE:SKIN
G1 F1800 X147.500 Y167.364 E34.70410
G0 F12000 X147.000 Y168.231
G1 F1800 X147.000 Y136.766 E36.01226
G0 F12000 X146.500 Y136.134
G1 F1800 X146.500 Y168.867 E37.37314
G0 F12000 X146.000 Y169.156
G1 F1800 X146.000 Y135.845 E38.75805
G0 F12000 X145.500 Y135.557
G1 F1800 X145.500 Y169.444 E40.16691
G0 F12000 X145.000 Y169.733
G1 F1800 X145.000 Y135.268 E41.59980
G0 F12000 X144.500 Y134.979
G1 F1800 X144.500 Y170.022 E43.05672
G0 F12000 X144.000 Y170.310
G1 F1800 X144.000 Y134.690 E44.53762
G0 F12000 X143.500 Y134.402
G1 F1800 X143.500 Y170.599 E46.04252
G0 F12000 X143.000 Y170.888
G1 F1800 X143.000 Y134.113 E47.57145
G0 F12000 X142.500 Y133.824
G1 F1800 X142.500 Y171.176 E49.12436
G0 F12000 X142.000 Y171.465
G1 F1800 X142.000 Y133.536 E50.70127
G0 F12000 X141.500 Y133.247
G1 F1800 X141.500 Y171.754 E52.30220
G0 F12000 X141.000 Y172.042
G1 F1800 X141.000 Y132.958 E53.92713
G0 F12000 X140.500 Y132.670
G1 F1800 X140.500 Y172.331 E55.57604
G0 F12000 X140.000 Y172.620
G1 F1800 X140.000 Y132.381 E57.24898
G0 F12000 X139.500 Y132.092
G1 F1800 X139.500 Y172.908 E58.94591
G0 F12000 X139.000 Y173.197
G1 F1800 X139.000 Y131.804 E60.66683
G0 F12000 X138.500 Y131.515
G1 F1800 X138.500 Y173.486 E62.41179
G0 F12000 X138.000 Y173.775
G1 F1800 X138.000 Y131.226 E64.18077
G0 F12000 X137.500 Y130.938
G1 F1800 X137.500 Y174.063 E65.97370
G0 F12000 X137.000 Y174.352
G1 F1800 X137.000 Y130.649 E67.79066
G0 F12000 X136.500 Y130.360
G1 F1800 X136.500 Y174.641 E69.63165
G0 F12000 X136.000 Y174.929
G1 F1800 X136.000 Y130.072 E71.49658
G0 F12000 X135.500 Y129.783
G1 F1800 X135.500 Y175.218 E73.38555
G0 F12000 X135.000 Y175.507
G1 F1800 X135.000 Y129.494 E75.29855
G0 F12000 X134.500 Y129.206
G1 F1800 X134.500 Y175.795 E77.23550
G0 F12000 X134.000 Y176.084
G1 F1800 X134.000 Y128.917 E79.19647
G0 F12000 X133.500 Y128.628
G1 F1800 X133.500 Y176.373 E81.18148
G0 F12000 X133.000 Y176.661
G1 F1800 X133.000 Y128.340 E83.19043
G0 F12000 X132.500 Y128.051
G1 F1800 X132.500 Y176.950 E85.22342
G0 F12000 X132.000 Y177.239
G1 F1800 X132.000 Y127.762 E87.28043
G0 F12000 X131.500 Y127.474
G1 F1800 X131.500 Y177.527 E89.36139
G0 F12000 X131.000 Y177.816
G1 F1800 X131.000 Y127.185 E91.46639
G0 F12000 X130.500 Y126.896
G1 F1800 X130.500 Y178.105 E93.59541
G0 F12000 X130.000 Y178.393
G1 F1800 X130.000 Y126.608 E95.74838
G0 F12000 X129.500 Y126.319
G1 F1800 X129.500 Y178.682 E97.92538
G0 F12000 X129.000 Y178.971
G1 F1800 X129.000 Y126.030 E100.12641
G0 F12000 X128.500 Y125.742
G1 F1800 X128.500 Y179.259 E102.35139
G0 F12000 X128.000 Y179.548
G1 F1800 X128.000 Y125.453 E104.60040
G0 F12000 X127.500 Y125.164
G1 F1800 X127.500 Y179.837 E106.87344
G0 F12000 X127.000 Y180.125
G1 F1800 X127.000 Y124.876 E109.17042
G0 F12000 X126.500 Y124.587
G1 F1800 X126.500 Y180.414 E111.49144
G0 F12000 X126.000 Y180.703
G1 F1800 X126.000 Y124.298 E113.83649
G0 F12000 X125.500 Y124.009
G1 F1800 X125.500 Y180.991 E116.20552
G0 F12000 X125.000 Y181.280
G1 F1800 X125.000 Y123.721 E118.59855
G0 F12000 X124.500 Y123.432
G1 F1800 X124.500 Y181.569 E121.01560
G0 F12000 X124.000 Y181.858
G1 F1800 X124.000 Y123.143 E123.45669
G0 F12000 X123.500 Y122.855
G1 F1800 X123.500 Y182.146 E125.92172
G0 F12000 X123.000 Y182.435
G1 F1800 X123.000 Y122.566 E128.41079
G0 F12000 X122.500 Y122.277
G1 F1800 X122.500 Y182.724 E130.92388
G0 F12000 X122.000 Y183.012
G1 F1800 X122.000 Y121.989 E133.46092
G0 F12000 X121.500 Y121.700
G1 F1800 X121.500 Y183.301 E136.02199
G0 F12000 X121.000 Y183.316
G1 F1800 X121.000 Y121.684 E138.58436
G0 F12000 X120.500 Y121.684
G1 F1800 X120.500 Y183.316 E141.14672
G0 F12000 X120.000 Y183.316
G1 F1800 X120.000 Y121.684 E143.70908
G0 F12000 X119.500 Y121.700
G1 F1800 X119.500 Y183.299 E146.27007
G0 F12000 X119.000 Y183.011
G1 F1800 X119.000 Y121.988 E148.80711
G0 F12000 X118.500 Y122.277
G1 F1800 X118.500 Y182.722 E151.32012
G0 F12000 X118.000 Y182.433
G1 F1800 X118.000 Y122.566 E153.80910
G0 F12000 X117.500 Y122.854
G1 F1800 X117.500 Y182.145 E156.27413
G0 F12000 X117.000 Y181.856
G1 F1800 X117.000 Y123.143 E158.71514
G0 F12000 X116.500 Y123.432
G1 F1800 X116.500 Y181.567 E161.13211
G0 F12000 X116.000 Y181.279
G1 F1800 X116.000 Y123.720 E163.52513
G0 F12000 X115.500 Y124.009
G1 F1800 X115.500 Y180.990 E165.89413
G0 F12000 X115.000 Y180.701
G1 F1800 X115.000 Y124.298 E168.23909
G0 F12000 X114.500 Y124.587
G1 F1800 X114.500 Y180.413 E170.56007
G0 F12000 X114.000 Y180.124
G1 F1800 X114.000 Y124.875 E172.85705
G0 F12000 X113.500 Y125.164
G1 F1800 X113.500 Y179.835 E175.13001
G0 F12000 X113.000 Y179.547
G1 F1800 X113.000 Y125.453 E177.37898
G0 F12000 X112.500 Y125.741
G1 F1800 X112.500 Y179.258 E179.60396
G0 F12000 X112.000 Y178.969
G1 F1800 X112.000 Y126.030 E181.80490
G0 F12000 X111.500 Y126.319
G1 F1800 X111.500 Y178.681 E183.98186
G0 F12000 X111.000 Y178.392
G1 F1800 X111.000 Y126.607 E186.13483
G0 F12000 X110.500 Y126.896
G1 F1800 X110.500 Y178.103 E188.26377
G0 F12000 X110.000 Y177.814
G1 F1800 X110.000 Y127.185 E190.36868
G0 F12000 X109.500 Y127.473
G1 F1800 X109.500 Y177.526 E192.44964
G0 F12000 X109.000 Y177.237
G1 F1800 X109.000 Y127.762 E194.50657
G0 F12000 X108.500 Y128.051
G1 F1800 X108.500 Y176.948 E196.53948
G0 F12000 X108.000 Y176.660
G1 F1800 X108.000 Y128.339 E198.54843
G0 F12000 X107.500 Y128.628
G1 F1800 X107.500 Y176.371 E200.53335
G0 F12000 X107.000 Y176.082
G1 F1800 X107.000 Y128.917 E202.49425
G0 F12000 X106.500 Y129.205
G1 F1800 X106.500 Y175.794 E204.43119
G0 F12000 X106.000 Y175.505
G1 F1800 X106.000 Y129.494 E206.34411
G0 F12000 X105.500 Y129.783
G1 F1800 X105.500 Y175.216 E208.23299
G0 F12000 X105.000 Y174.928
G1 F1800 X105.000 Y130.072 E210.09789
G0 F12000 X104.500 Y130.360
G1 F1800 X104.500 Y174.639 E211.93879
G0 F12000 X104.000 Y174.350
G1 F1800 X104.000 Y130.649 E213.75567
G0 F12000 X103.500 Y130.938
G1 F1800 X103.500 Y174.062 E215.54856
G0 F12000 X103.000 Y173.773
G1 F1800 X103.000 Y131.226 E217.31746
G0 F12000 X102.500 Y131.515
G1 F1800 X102.500 Y173.484 E219.06232
G0 F12000 X102.000 Y173.196
G1 F1800 X102.000 Y131.804 E220.78320
G0 F12000 X101.500 Y132.092
G1 F1800 X101.500 Y172.907 E222.48009
G0 F12000 X101.000 Y172.618
G1 F1800 X101.000 Y132.381 E224.15295
G0 F12000 X100.500 Y132.670
G1 F1800 X100.500 Y172.330 E225.80183
G0 F12000 X100.000 Y172.041
G1 F1800 X100.000 Y132.958 E227.42671
G0 F12000 X99.500 Y133.247
G1 F1800 X99.500 Y171.752 E229.02756
G0 F12000 X99.000 Y171.464
G1 F1800 X99.000 Y133.536 E230.60442
G0 F12000 X98.500 Y133.824
G1 F1800 X98.500 Y171.175 E232.15730
G0 F12000 X98.000 Y170.886
G1 F1800 X98.000 Y134.113 E233.68614
G0 F12000 X97.500 Y134.402
G1 F1800 X97.500 Y170.598 E235.19100
G0 F12000 X97.000 Y170.309
G1 F1800 X97.000 Y134.690 E236.67186
G0 F12000 X96.500 Y134.979
G1 F1800 X96.500 Y170.020 E238.12870
G0 F12000 X96.000 Y169.732
G1 F1800 X96.000 Y135.268 E239.56154
G0 F12000 X95.500 Y135.557
G1 F1800 X95.500 Y169.443 E240.97036
G0 F12000 X95.000 Y169.154
G1 F1800 X95.000 Y135.845 E242.35519
G0 F12000 X94.500 Y136.134
G1 F1800 X94.500 Y168.866 E243.71603
G0 F12000 X94.000 Y168.233
G1 F1800 X94.000 Y136.767 E245.02423
G0 F12000 X93.500 Y137.632
G1 F1800 X93.500 Y167.368 E246.26051
G1 F2100 E245.86051
G0 F12000 X157.150 Y167.112
;TYPE:WALL-INNER
G1 F2100 E246.26051
G1 F1800 X157.150 Y137.892 E247.47534
G1 X158.172 Y136.121 E247.56035
G1 X183.479 Y121.509 E248.77528
G1 X185.520 Y121.509 E248.86013
G1 X210.828 Y136.121 E250.07510
G1 X211.850 Y137.888 E250.15996
G1 X211.850 Y167.110 E251.37487
G1 X210.829 Y168.878 E251.45975
G1 X185.520 Y183.491 E252.67478
G1 X183.479 Y183.491 E252.75963
G1 X158.171 Y168.879 E253.97460
G1 X157.150 Y167.112 E254.05944
G0 F12000 X156.702 Y167.336
;TYPE:WALL-OUTER
G1 F1800 X156.650 Y167.244 E254.06384
G1 X156.650 Y137.758 E255.28972
G1 X157.806 Y135.754 E255.38591
G1 X183.345 Y121.009 E256.61196
G1 X185.654 Y121.009 E256.70795
G1 X211.194 Y135.755 E257.93406
G1 X212.297 Y137.663 E258.02569
G1 X212.350 Y137.756 E258.03014
G1 X212.350 Y167.244 E259.25610
G1 X211.194 Y169.245 E259.35218
G1 X185.654 Y183.991 E260.57829
G1 X183.345 Y183.991 E260.67428
G1 X157.805 Y169.245 E261.90039
G1 X156.702 Y167.336 E261.99205
G0 F12000 X157.500 Y167.368
;TYPE:SKIN
G1 F1800 X157.500 Y137.636 E263.22816
G0 F12000 X158.000 Y136.769
G1 F1800 X158.000 Y168.234 E264.53633
G0 F12000 X158.500 Y168.866
G1 F1800 X158.500 Y136.133 E265.89721
G0 F12000 X159.000 Y135.844
G1 F1800 X159.000 Y169.155 E267.28212
G0 F12000 X159.500 Y169.443
G1 F1800 X159.500 Y135.556 E268.69098
G0 F12000 X160.000 Y135.267
G1 F1800 X160.000 Y169.732 E270.12386
G0 F12000 X160.500 Y170.021
G1 F1800 X160.500 Y134.978 E271.58078
G0 F12000 X161.000 Y134.690
G1 F1800 X161.000 Y170.310 E273.06169
G0 F12000 X161.500 Y170.598
G1 F1800 X161.500 Y134.401 E274.56659
G0 F12000 X162.000 Y134.112
G1 F1800 X162.000 Y170.887 E276.09551
G0 F12000 X162.500 Y171.176
G1 F1800 X162.500 Y133.824 E277.64843
G0 F12000 X163.000 Y133.535
G1 F1800 X163.000 Y171.464 E279.22533
G0 F12000 X163.500 Y171.753
G1 F1800 X163.500 Y133.246 E280.82627
G0 F12000 X164.000 Y132.958
G1 F1800 X164.000 Y172.042 E282.45119
G0 F12000 X164.500 Y172.330
G1 F1800 X164.500 Y132.669 E284.10010
G0 F12000 X165.000 Y132.380
G1 F1800 X165.000 Y172.619 E285.77305
G0 F12000 X165.500 Y172.908
G1 F1800 X165.500 Y132.092 E287.46998
G0 F12000 X166.000 Y131.803
G1 F1800 X166.000 Y173.196 E289.19090
G0 F12000 X166.500 Y173.485
G1 F1800 X166.500 Y131.514 E290.93585
G0 F12000 X167.000 Y131.225
G1 F1800 X167.000 Y173.774 E292.70483
G0 F12000 X167.500 Y174.062
G1 F1800 X167.500 Y130.937 E294.49776
G0 F12000 X168.000 Y130.648
G1 F1800 X168.000 Y174.351 E296.31472
G0 F12000 X168.500 Y174.640
G1 F1800 X168.500 Y130.359 E298.15571
G0 F12000 X169.000 Y130.071
G1 F1800 X169.000 Y174.928 E300.02065
G0 F12000 X169.500 Y175.217
G1 F1800 X169.500 Y129.782 E301.90962
G0 F12000 X170.000 Y129.493
G1 F1800 X170.000 Y175.506 E303.82262
G0 F12000 X170.500 Y175.794
G1 F1800 X170.500 Y129.205 E305.75956
G0 F12000 X171.000 Y128.916
G1 F1800 X171.000 Y176.083 E307.72054
G0 F12000 X171.500 Y176.372
G1 F1800 X171.500 Y128.627 E309.70554
G0 F12000 X172.000 Y128.339
G1 F1800 X172.000 Y176.660 E311.71450
G0 F12000 X172.500 Y176.949
G1 F1800 X172.500 Y128.050 E313.74748
G0 F12000 X173.000 Y127.761
G1 F1800 X173.000 Y177.238 E315.80450
G0 F12000 X173.500 Y177.526
G1 F1800 X173.500 Y127.473 E317.88546
G0 F12000 X174.000 Y127.184
G1 F1800 X174.000 Y177.815 E319.99045
G0 F12000 X174.500 Y178.104
G1 F1800 X174.500 Y126.895 E322.11947
G0 F12000 X175.000 Y126.607
G1 F1800 X175.000 Y178.392 E324.27244
G0 F12000 X175.500 Y178.681
G1 F1800 X175.500 Y126.318 E326.44944
G0 F12000 X176.000 Y126.029
G1 F1800 X176.000 Y178.970 E328.65048
G0 F12000 X176.500 Y179.258
G1 F1800 X176.500 Y125.741 E330.87545
G0 F12000 X177.000 Y125.452
G1 F1800 X177.000 Y179.547 E333.12446
G0 F12000 X177.500 Y179.836
G1 F1800 X177.500 Y125.163 E335.39750
G0 F12000 X178.000 Y124.875
G1 F1800 X178.000 Y180.124 E337.69449
G0 F12000 X178.500 Y180.413
G1 F1800 X178.500 Y124.586 E340.01551
G0 F12000 X179.000 Y124.297
G1 F1800 X179.000 Y180.702 E342.36055
G0 F12000 X179.500 Y180.991
G1 F1800 X179.500 Y124.009 E344.72959
G0 F12000 X180.000 Y123.720
G1 F1800 X180.000 Y181.279 E347.12261
G0 F12000 X180.500 Y181.568
G1 F1800 X180.500 Y123.431 E349.53967
G0 F12000 X181.000 Y123.142
G1 F1800 X181.000 Y181.857 E351.98076
G0 F12000 X181.500 Y182.145
G1 F1800 X181.500 Y122.854 E354.44579
G0 F12000 X182.000 Y122.565
G1 F1800 X182.000 Y182.434 E356.93485
G0 F12000 X182.500 Y182.723
G1 F1800 X182.500 Y122.276 E359.44795
G0 F12000 X183.000 Y121.988
G1 F1800 X183.000 Y183.011 E361.98499
G0 F12000 X183.500 Y183.300
G1 F1800 X183.500 Y121.699 E364.54606
G0 F12000 X184.000 Y121.684
G1 F1800 X184.000 Y183.316 E367.10842
G0 F12000 X184.500 Y183.316
G1 F1800 X184.500 Y121.684 E369.67078
G0 F12000 X185.000 Y121.684
G1 F1800 X185.000 Y183.316 E372.23314
G0 F12000 X185.500 Y183.300
G1 F1800 X185.500 Y121.701 E374.79413
G0 F12000 X186.000 Y121.989
G1 F1800 X186.000 Y183.012 E377.33117
G0 F12000 X186.500 Y182.723
G1 F1800 X186.500 Y122.278 E379.84418
G0 F12000 X187.000 Y122.567
G1 F1800 X187.000 Y182.434 E382.33317
G0 F12000 X187.500 Y182.146
G1 F1800 X187.500 Y122.855 E384.79820
G0 F12000 X188.000 Y123.144
G1 F1800 X188.000 Y181.857 E387.23920
G0 F12000 X188.500 Y181.568
G1 F1800 X188.500 Y123.433 E389.65617
G0 F12000 X189.000 Y123.721
G1 F1800 X189.000 Y181.280 E392.04920
G0 F12000 X189.500 Y180.991
G1 F1800 X189.500 Y124.010 E394.41819
G0 F12000 X190.000 Y124.299
G1 F1800 X190.000 Y180.702 E396.76316
G0 F12000 X190.500 Y180.413
G1 F1800 X190.500 Y124.587 E399.08413
G0 F12000 X191.000 Y124.876
G1 F1800 X191.000 Y180.125 E401.38112
G0 F12000 X191.500 Y179.836
G1 F1800 X191.500 Y125.165 E403.65408
G0 F12000 X192.000 Y125.453
G1 F1800 X192.000 Y179.547 E405.90304
G0 F12000 X192.500 Y179.259
G1 F1800 X192.500 Y125.742 E408.12802
G0 F12000 X193.000 Y126.031
G1 F1800 X193.000 Y178.970 E410.32897
G0 F12000 X193.500 Y178.681
G1 F1800 X193.500 Y126.319 E412.50593
G0 F12000 X194.000 Y126.608
G1 F1800 X194.000 Y178.393 E414.65890
G0 F12000 X194.500 Y178.104
G1 F1800 X194.500 Y126.897 E416.78784
G0 F12000 X195.000 Y127.186
G1 F1800 X195.000 Y177.815 E418.89275
G0 F12000 X195.500 Y177.527
G1 F1800 X195.500 Y127.474 E420.97371
G0 F12000 X196.000 Y127.763
G1 F1800 X196.000 Y177.238 E423.03064
G0 F12000 X196.500 Y176.949
G1 F1800 X196.500 Y128.052 E425.06354
G0 F12000 X197.000 Y128.340
G1 F1800 X197.000 Y176.661 E427.07250
G0 F12000 X197.500 Y176.372
G1 F1800 X197.500 Y128.629 E429.05742
G0 F12000 X198.000 Y128.918
G1 F1800 X198.000 Y176.083 E431.01831
G0 F12000 X198.500 Y175.795
G1 F1800 X198.500 Y129.206 E432.95526
G0 F12000 X199.000 Y129.495
G1 F1800 X199.000 Y175.506 E434.86817
G0 F12000 X199.500 Y175.217
G1 F1800 X199.500 Y129.784 E436.75706
G0 F12000 X200.000 Y130.072
G1 F1800 X200.000 Y174.928 E438.62195
G0 F12000 X200.500 Y174.640
G1 F1800 X200.500 Y130.361 E440.46286
G0 F12000 X201.000 Y130.650
G1 F1800 X201.000 Y174.351 E442.27974
G0 F12000 X201.500 Y174.062
G1 F1800 X201.500 Y130.938 E444.07262
G0 F12000 X202.000 Y131.227
G1 F1800 X202.000 Y173.774 E445.84152
G0 F12000 X202.500 Y173.485
G1 F1800 X202.500 Y131.516 E447.58639
G0 F12000 X203.000 Y131.804
G1 F1800 X203.000 Y173.196 E449.30727
G0 F12000 X203.500 Y172.908
G1 F1800 X203.500 Y132.093 E451.00416
G0 F12000 X204.000 Y132.382
G1 F1800 X204.000 Y172.619 E452.67702
G0 F12000 X204.500 Y172.330
G1 F1800 X204.500 Y132.670 E454.32589
G0 F12000 X205.000 Y132.959
G1 F1800 X205.000 Y172.042 E455.95077
G0 F12000 X205.500 Y171.753
G1 F1800 X205.500 Y133.248 E457.55163
G0 F12000 X206.000 Y133.536
G1 F1800 X206.000 Y171.464 E459.12849
G0 F12000 X206.500 Y171.176
G1 F1800 X206.500 Y133.825 E460.68136
G0 F12000 X207.000 Y134.114
G1 F1800 X207.000 Y170.887 E462.21021
G0 F12000 X207.500 Y170.598
G1 F1800 X207.500 Y134.402 E463.71506
G0 F12000 X208.000 Y134.691
G1 F1800 X208.000 Y170.310 E465.19593
G0 F12000 X208.500 Y170.021
G1 F1800 X208.500 Y134.980 E466.65276
G0 F12000 X209.000 Y135.268
G1 F1800 X209.000 Y169.732 E468.08561
G0 F12000 X209.500 Y169.443
G1 F1800 X209.500 Y135.557 E469.49443
G0 F12000 X210.000 Y135.846
G1 F1800 X210.000 Y169.155 E470.87925
G0 F12000 X210.500 Y168.866
G1 F1800 X210.500 Y136.134 E472.24009
G0 F12000 X211.000 Y136.767
G1 F1800 X211.000 Y168.233 E473.54830
G0 F12000 X211.500 Y167.368
G1 F1800 X211.500 Y137.632 E474.78457
;LAYER:1
M106 S10
G1 F2100 E474.38457
G0 F12000 X148.050 Y137.836 Z0.400
;TYPE:WALL-INNER
G1 F2100 E474.78457
G1 F1980 X148.050 Y167.162 E476.00381
G1 X147.135 Y168.749 E476.07997
G1 X146.975 Y169.025 E476.09323
G1 X121.575 Y183.691 E477.31263
G1 X119.426 Y183.691 E477.40198
G1 X94.026 Y169.025 E478.62138
G1 X93.108 Y167.439 E478.69757
G1 X92.950 Y167.164 E478.71075
G1 X92.950 Y137.836 E479.93007
G1 X93.866 Y136.251 E480.00618
G1 X94.026 Y135.975 E480.01944
G1 X119.426 Y121.309 E481.23885
G1 X121.575 Y121.309 E481.32819
G1 X146.975 Y135.975 E482.54759
G1 X147.891 Y137.559 E482.62367
G1 X148.050 Y137.836 E482.63694
G0 F12000 X148.550 Y137.702
;TYPE:WALL-OUTER
G1 F1980 X148.550 Y167.296 E483.86732
G1 X147.340 Y169.392 E483.96794
G1 X121.709 Y184.191 E485.19842
G1 X119.292 Y184.191 E485.29891
G1 X93.660 Y169.391 E486.52945
G1 X92.450 Y167.298 E486.62996
G1 X92.450 Y137.702 E487.86042
G1 X93.660 Y135.609 E487.96093
G1 X119.292 Y120.809 E489.19147
G1 X121.709 Y120.809 E489.29196
G1 X147.341 Y135.609 E490.52250
G1 X148.550 Y137.702 E490.62299
G0 F12000 X147.874 Y138.000
;TYPE:SKIN
G1 F1980 X93.124 Y138.000 E492.89923
G0 F12000 X93.124 Y138.500
G1 F1980 X147.874 Y138.500 E495.17547
G0 F12000 X147.874 Y139.000
G1 F1980 X93.124 Y139.000 E497.45171
G0 F12000 X93.124 Y139.500
G1 F1980 X147.874 Y139.500 E499.72795
G1 F2100 E499.32795
G0 F12000 X147.654 Y137.500
G1 F2100 E499.72795
G1 F1980 X93.345 Y137.500 E501.98586
G0 F12000 X93.634 Y137.000
G1 F1980 X147.366 Y137.000 E504.21978
G0 F12000 X147.077 Y136.500
G1 F1980 X93.923 Y136.500 E506.42966
G0 F12000 X94.331 Y136.000
G1 F1980 X146.669 Y136.000 E508.60562
G0 F12000 X145.803 Y135.500
G1 F1980 X95.197 Y135.500 E510.70958
G0 F12000 X96.063 Y135.000
G1 F1980 X144.937 Y135.000 E512.74152
G0 F12000 X144.071 Y134.500
G1 F1980 X96.929 Y134.500 E514.70146
G0 F12000 X97.795 Y134.000
G1 F1980 X143.205 Y134.000 E516.58939
G0 F12000 X142.339 Y133.500
G1 F1980 X98.661 Y133.500 E518.40531
G0 F12000 X99.527 Y133.000
G1 F1980 X141.473 Y133.000 E520.14922
G0 F12000 X140.607 Y132.500
G1 F1980 X100.393 Y132.500 E521.82112
G0 F12000 X101.259 Y132.000
G1 F1980 X139.741 Y132.000 E523.42102
G0 F12000 X138.875 Y131.500
G1 F1980 X102.125 Y131.500 E524.94891
G0 F12000 X102.991 Y131.000
G1 F1980 X138.009 Y131.000 E526.40479
G0 F12000 X137.143 Y130.500
G1 F1980 X103.857 Y130.500 E527.78866
G0 F12000 X104.723 Y130.000
G1 F1980 X136.277 Y130.000 E529.10052
G0 F12000 X135.411 Y129.500
G1 F1980 X105.589 Y129.500 E530.34037
G0 F12000 X106.454 Y129.000
G1 F1980 X134.546 Y129.000 E531.50830
G0 F12000 X133.680 Y128.500
G1 F1980 X107.320 Y128.500 E532.60422
G0 F12000 X108.186 Y128.000
G1 F1980 X132.814 Y128.000 E533.62814
G0 F12000 X131.948 Y127.500
G1 F1980 X109.052 Y127.500 E534.58004
G0 F12000 X109.918 Y127.000
G1 F1980 X131.082 Y127.000 E535.45994
G0 F12000 X130.216 Y126.500
G1 F1980 X110.784 Y126.500 E536.26783
G0 F12000 X111.650 Y126.000
G1 F1980 X129.350 Y126.000 E537.00371
G0 F12000 X128.484 Y125.500
G1 F1980 X112.516 Y125.500 E537.66758
G0 F12000 X113.382 Y125.000
G1 F1980 X127.618 Y125.000 E538.25945
G0 F12000 X126.752 Y124.500
G1 F1980 X114.248 Y124.500 E538.77930
G0 F12000 X115.114 Y124.000
G1 F1980 X125.886 Y124.000 E539.22715
G0 F12000 X125.020 Y123.500
G1 F1980 X115.980 Y123.500 E539.60299
G0 F12000 X116.846 Y123.000
G1 F1980 X124.154 Y123.000 E539.90682
G0 F12000 X123.288 Y122.500
G1 F1980 X117.712 Y122.500 E540.13864
G0 F12000 X118.578 Y122.000
G1 F1980 X122.422 Y122.000 E540.29846
G0 F12000 X121.556 Y121.500
G1 F1980 X119.444 Y121.500 E540.38626
G1 F2100 E539.98626
G0 F12000 X93.124 Y140.000
G1 F2100 E540.38626
G1 F1980 X147.874 Y140.000 E542.66251
G0 F12000 X147.874 Y140.500
G1 F1980 X93.124 Y140.500 E544.93875
G0 F12000 X93.124 Y141.000
G1 F1980 X147.874 Y141.000 E547.21499
G0 F12000 X147.874 Y141.500
G1 F1980 X93.124 Y141.500 E549.49123
G0 F12000 X93.124 Y142.000
G1 F1980 X147.874 Y142.000 E551.76747
G0 F12000 X147.874 Y142.500
G1 F1980 X93.124 Y142.500 E554.04371
G0 F12000 X93.124 Y143.000
G1 F1980 X147.874 Y143.000 E556.31995
G0 F12000 X147.874 Y143.500
G1 F1980 X93.124 Y143.500 E558.59619
G0 F12000 X93.124 Y144.000
G1 F1980 X147.874 Y144.000 E560.87243
G0 F12000 X147.874 Y144.500
G1 F1980 X93.124 Y144.500 E563.14867
G0 F12000 X93.124 Y145.000
G1 F1980 X147.874 Y145.000 E565.42491
G0 F12000 X147.874 Y145.500
G1 F1980 X93.124 Y145.500 E567.70115
G0 F12000 X93.124 Y146.000
G1 F1980 X147.874 Y146.000 E569.97739
G0 F12000 X147.874 Y146.500
G1 F1980 X93.124 Y146.500 E572.25363
G0 F12000 X93.124 Y147.000
G1 F1980 X147.874 Y147.000 E574.52987
G0 F12000 X147.874 Y147.500
G1 F1980 X93.124 Y147.500 E576.80611
G0 F12000 X93.124 Y148.000
G1 F1980 X147.874 Y148.000 E579.08235
G0 F12000 X147.874 Y148.500
G1 F1980 X93.124 Y148.500 E581.35859
G0 F12000 X93.124 Y149.000
G1 F1980 X147.874 Y149.000 E583.63483
G0 F12000 X147.874 Y149.500
G1 F1980 X93.124 Y149.500 E585.91107
G0 F12000 X93.124 Y150.000
G1 F1980 X147.874 Y150.000 E588.18732
G0 F12000 X147.874 Y150.500
G1 F1980 X93.124 Y150.500 E590.46356
G0 F12000 X93.124 Y151.000
G1 F1980 X147.874 Y151.000 E592.73980
G0 F12000 X147.874 Y151.500
G1 F1980 X93.124 Y151.500 E595.01604
G0 F12000 X93.124 Y152.000
G1 F1980 X147.874 Y152.000 E597.29228
G0 F12000 X147.874 Y152.500
G1 F1980 X93.124 Y152.500 E599.56852
G0 F12000 X93.124 Y153.000
G1 F1980 X147.874 Y153.000 E601.84476
G0 F12000 X147.874 Y153.500
G1 F1980 X93.124 Y153.500 E604.12100
G0 F12000 X93.124 Y154.000
G1 F1980 X147.874 Y154.000 E606.39724
G0 F12000 X147.874 Y154.500
G1 F1980 X93.124 Y154.500 E608.67348
G0 F12000 X93.124 Y155.000
G1 F1980 X147.874 Y155.000 E610.94972
G0 F12000 X147.874 Y155.500
G1 F1980 X93.124 Y155.500 E613.22596
G0 F12000 X93.124 Y156.000
G1 F1980 X147.874 Y156.000 E615.50220
G0 F12000 X147.874 Y156.500
G1 F1980 X93.124 Y156.500 E617.77844
G0 F12000 X93.124 Y157.000
G1 F1980 X147.874 Y157.000 E620.05468
G0 F12000 X147.874 Y157.500
G1 F1980 X93.124 Y157.500 E622.33092
G0 F12000 X93.124 Y158.000
G1 F1980 X147.874 Y158.000 E624.60716
G0 F12000 X147.874 Y158.500
G1 F1980 X93.124 Y158.500 E626.88340
G0 F12000 X93.124 Y159.000
G1 F1980 X147.874 Y159.000 E629.15964
G0 F12000 X147.874 Y159.500
G1 F1980 X93.124 Y159.500 E631.43588
G0 F12000 X93.124 Y160.000
G1 F1980 X147.874 Y160.000 E633.71213
G0 F12000 X147.874 Y160.500
G1 F1980 X93.124 Y160.500 E635.98837
G0 F12000 X93.124 Y161.000
G1 F1980 X147.874 Y161.000 E638.26461
G0 F12000 X147.874 Y161.500
G1 F1980 X93.124 Y161.500 E640.54085
G0 F12000 X93.124 Y162.000
G1 F1980 X147.874 Y162.000 E642.81709
G0 F12000 X147.874 Y162.500
G1 F1980 X93.124 Y162.500 E645.09333
G0 F12000 X93.124 Y163.000
G1 F1980 X147.874 Y163.000 E647.36957
G0 F12000 X147.874 Y163.500
G1 F1980 X93.124 Y163.500 E649.64581
G0 F12000 X93.124 Y164.000
G1 F1980 X147.874 Y164.000 E651.92205
G0 F12000 X147.874 Y164.500
G1 F1980 X93.124 Y164.500 E654.19829
G0 F12000 X93.124 Y165.000
G1 F1980 X147.874 Y165.000 E656.47453
G0 F12000 X147.874 Y165.500
G1 F1980 X93.124 Y165.500 E658.75077
G0 F12000 X93.124 Y166.000
G1 F1980 X147.874 Y166.000 E661.02701
G0 F12000 X147.874 Y166.500
G1 F1980 X93.124 Y166.500 E663.30325
G0 F12000 X93.124 Y167.000
G1 F1980 X147.874 Y167.000 E665.57949
G0 F12000 X147.650 Y167.500
G1 F1980 X93.345 Y167.500 E667.83723
G0 F12000 X93.634 Y168.000
G1 F1980 X147.362 Y168.000 E670.07098
G0 F12000 X147.074 Y168.500
G1 F1980 X93.923 Y168.500 E672.28074
G0 F12000 X94.333 Y169.000
G1 F1980 X146.665 Y169.000 E674.45646
G0 F12000 X145.799 Y169.500
G1 F1980 X95.199 Y169.500 E676.56016
G0 F12000 X96.065 Y170.000
G1 F1980 X144.933 Y170.000 E678.59185
G0 F12000 X144.067 Y170.500
G1 F1980 X96.931 Y170.500 E680.55154
G0 F12000 X97.797 Y171.000
G1 F1980 X143.201 Y171.000 E682.43922
G0 F12000 X142.335 Y171.500
G1 F1980 X98.663 Y171.500 E684.25489
G0 F12000 X99.529 Y172.000
G1 F1980 X141.469 Y172.000 E685.99855
G0 F12000 X140.603 Y172.500
G1 F1980 X100.395 Y172.500 E687.67021
G0 F12000 X101.261 Y173.000
G1 F1980 X139.737 Y173.000 E689.26985
G0 F12000 X138.871 Y173.500
G1 F1980 X102.127 Y173.500 E690.79749
G0 F12000 X102.993 Y174.000
G1 F1980 X138.005 Y174.000 E692.25312
G0 F12000 X137.139 Y174.500
G1 F1980 X103.859 Y174.500 E693.63674
G0 F12000 X104.725 Y175.000
G1 F1980 X136.273 Y175.000 E694.94836
G0 F12000 X135.407 Y175.500
G1 F1980 X105.591 Y175.500 E696.18796
G0 F12000 X106.457 Y176.000
G1 F1980 X134.541 Y176.000 E697.35556
G0 F12000 X133.675 Y176.500
G1 F1980 X107.323 Y176.500 E698.45115
G0 F12000 X108.189 Y177.000
G1 F1980 X132.809 Y177.000 E699.47473
G0 F12000 X131.943 Y177.500
G1 F1980 X109.055 Y177.500 E700.42630
G0 F12000 X109.921 Y178.000
G1 F1980 X131.077 Y178.000 E701.30587
G0 F12000 X130.211 Y178.500
G1 F1980 X110.787 Y178.500 E702.11342
G0 F12000 X111.653 Y179.000
G1 F1980 X129.345 Y179.000 E702.84897
G0 F12000 X128.479 Y179.500
G1 F1980 X112.519 Y179.500 E703.51251
G0 F12000 X113.385 Y180.000
G1 F1980 X127.613 Y180.000 E704.10404
G0 F12000 X126.747 Y180.500
G1 F1980 X114.251 Y180.500 E704.62356
G0 F12000 X115.117 Y181.000
G1 F1980 X125.881 Y181.000 E705.07108
G0 F12000 X125.015 Y181.500
G1 F1980 X115.983 Y181.500 E705.44659
G0 F12000 X116.849 Y182.000
G1 F1980 X124.149 Y182.000 E705.75009
G0 F12000 X123.283 Y182.500
G1 F1980 X117.715 Y182.500 E705.98158
G0 F12000 X118.581 Y183.000
G1 F1980 X122.417 Y183.000 E706.14106
G0 F12000 X121.551 Y183.500
G1 F1980 X119.447 Y183.500 E706.22853
G1 F2100 E705.82853
G0 F12000 X156.950 Y167.164
;TYPE:WALL-INNER
G1 F2100 E706.22853
G1 F1980 X156.950 Y137.838 E707.44777
G1 X157.865 Y136.251 E707.52393
G1 X158.025 Y135.975 E707.53719
G1 X183.425 Y121.309 E708.75659
G1 X185.574 Y121.309 E708.84594
G1 X210.974 Y135.975 E710.06534
G1 X211.891 Y137.559 E710.14143
G1 X212.050 Y137.836 E710.15471
G1 X212.050 Y167.164 E711.37403
G1 X211.134 Y168.749 E711.45014
G1 X210.974 Y169.025 E711.46340
G1 X185.574 Y183.691 E712.68280
G1 X183.425 Y183.691 E712.77215
G1 X158.025 Y169.025 E713.99155
G1 X157.108 Y167.439 E714.06772
G1 X156.950 Y167.164 E714.08090
G0 F12000 X156.450 Y167.298
;TYPE:WALL-OUTER
G1 F1980 X156.450 Y137.704 E715.31128
G1 X157.660 Y135.608 E715.41190
G1 X183.291 Y120.809 E716.64238
G1 X185.708 Y120.809 E716.74287
G1 X211.340 Y135.609 E717.97341
G1 X212.550 Y137.702 E718.07392
G1 X212.550 Y167.298 E719.30438
G1 X211.340 Y169.391 E719.40489
G1 X185.708 Y184.191 E720.63543
G1 X183.291 Y184.191 E720.73592
G1 X157.659 Y169.391 E721.96646
G1 X156.450 Y167.298 E722.06695
G0 F12000 X157.124 Y167.000
;TYPE:SKIN
G1 F1980 X211.874 Y167.000 E724.34319
G0 F12000 X211.874 Y166.500
G1 F1980 X157.124 Y166.500 E726.61943
G0 F12000 X157.124 Y166.000
G1 F1980 X211.874 Y166.000 E728.89567
G0 F12000 X211.874 Y165.500
G1 F1980 X157.124 Y165.500 E731.17191
G0 F12000 X157.124 Y165.000
G1 F1980 X211.874 Y165.000 E733.44815
G0 F12000 X211.874 Y164.500
G1 F1980 X157.124 Y164.500 E735.72439
G0 F12000 X157.124 Y164.000
G1 F1980 X211.874 Y164.000 E738.00063
G0 F12000 X211.874 Y163.500
G1 F1980 X157.124 Y163.500 E740.27687
G0 F12000 X157.124 Y163.000
G1 F1980 X211.874 Y163.000 E742.55311
G0 F12000 X211.874 Y162.500
G1 F1980 X157.124 Y162.500 E744.82935
G0 F12000 X157.124 Y162.000
G1 F1980 X211.874 Y162.000 E747.10559
G0 F12000 X211.874 Y161.500
G1 F1980 X157.124 Y161.500 E749.38183
G0 F12000 X157.124 Y161.000
G1 F1980 X211.874 Y161.000 E751.65808
G0 F12000 X211.874 Y160.500
G1 F1980 X157.124 Y160.500 E753.93432
G0 F12000 X157.124 Y160.000
G1 F1980 X211.874 Y160.000 E756.21056
G1 F2100 E755.81056
G0 F12000 X211.652 Y167.500
G1 F2100 E756.21056
G1 F1980 X157.345 Y167.500 E758.46838
G0 F12000 X157.634 Y168.000
G1 F1980 X211.363 Y168.000 E760.70217
G0 F12000 X211.074 Y168.500
G1 F1980 X157.922 Y168.500 E762.91197
G0 F12000 X158.332 Y169.000
G1 F1980 X210.664 Y169.000 E765.08769
G0 F12000 X209.798 Y169.500
G1 F1980 X159.198 Y169.500 E767.19139
G0 F12000 X160.064 Y170.000
G1 F1980 X208.932 Y170.000 E769.22309
G0 F12000 X208.066 Y170.500
G1 F1980 X160.930 Y170.500 E771.18277
G0 F12000 X161.796 Y171.000
G1 F1980 X207.200 Y171.000 E773.07045
G0 F12000 X206.334 Y171.500
G1 F1980 X162.662 Y171.500 E774.88612
G0 F12000 X163.528 Y172.000
G1 F1980 X205.468 Y172.000 E776.62978
G0 F12000 X204.602 Y172.500
G1 F1980 X164.394 Y172.500 E778.30144
G0 F12000 X165.260 Y173.000
G1 F1980 X203.736 Y173.000 E779.90109
G0 F12000 X202.870 Y173.500
G1 F1980 X166.126 Y173.500 E781.42872
G0 F12000 X166.992 Y174.000
G1 F1980 X202.004 Y174.000 E782.88435
G0 F12000 X201.138 Y174.500
G1 F1980 X167.858 Y174.500 E784.26797
G0 F12000 X168.724 Y175.000
G1 F1980 X200.272 Y175.000 E785.57959
G0 F12000 X199.406 Y175.500
G1 F1980 X169.590 Y175.500 E786.81919
G0 F12000 X170.456 Y176.000
G1 F1980 X198.540 Y176.000 E787.98679
G0 F12000 X197.674 Y176.500
G1 F1980 X171.322 Y176.500 E789.08238
G0 F12000 X172.188 Y177.000
G1 F1980 X196.808 Y177.000 E790.10596
G0 F12000 X195.942 Y177.500
G1 F1980 X173.054 Y177.500 E791.05753
G0 F12000 X173.920 Y178.000
G1 F1980 X195.076 Y178.000 E791.93710
G0 F12000 X194.210 Y178.500
G1 F1980 X174.786 Y178.500 E792.74465
G0 F12000 X175.652 Y179.000
G1 F1980 X193.344 Y179.000 E793.48020
G0 F12000 X192.478 Y179.500
G1 F1980 X176.518 Y179.500 E794.14374
G0 F12000 X177.384 Y180.000
G1 F1980 X191.612 Y180.000 E794.73527
G0 F12000 X190.746 Y180.500
G1 F1980 X178.250 Y180.500 E795.25480
G0 F12000 X179.116 Y181.000
G1 F1980 X189.880 Y181.000 E795.70231
G0 F12000 X189.014 Y181.500
G1 F1980 X179.982 Y181.500 E796.07782
G0 F12000 X180.848 Y182.000
G1 F1980 X188.148 Y182.000 E796.38132
G0 F12000 X187.282 Y182.500
G1 F1980 X181.714 Y182.500 E796.61281
G0 F12000 X182.580 Y183.000
G1 F1980 X186.416 Y183.000 E796.77229
G0 F12000 X185.550 Y183.500
G1 F1980 X183.446 Y183.500 E796.85976
G1 F2100 E796.45976
G0 F12000 X157.124 Y159.500
G1 F2100 E796.85976
G1 F1980 X211.874 Y159.500 E799.13600
G0 F12000 X211.874 Y159.000
G1 F1980 X157.124 Y159.000 E801.41224
G0 F12000 X157.124 Y158.500
G1 F1980 X211.874 Y158.500 E803.68848
G0 F12000 X211.874 Y158.000
G1 F1980 X157.124 Y158.000 E805.96472
G0 F12000 X157.124 Y157.500
G1 F1980 X211.874 Y157.500 E808.24097
G0 F12000 X211.874 Y157.000
G1 F1980 X157.124 Y157.000 E810.51721
G0 F12000 X157.124 Y156.500
G1 F1980 X211.874 Y156.500 E812.79345
G0 F12000 X211.874 Y156.000
G1 F1980 X157.124 Y156.000 E815.06969
G0 F12000 X157.124 Y155.500
G1 F1980 X211.874 Y155.500 E817.34593
G0 F12000 X211.874 Y155.000
G1 F1980 X157.124 Y155.000 E819.62217
G0 F12000 X157.124 Y154.500
G1 F1980 X211.874 Y154.500 E821.89841
G0 F12000 X211.874 Y154.000
G1 F1980 X157.124 Y154.000 E824.17465
G0 F12000 X157.124 Y153.500
G1 F1980 X211.874 Y153.500 E826.45089
G0 F12000 X211.874 Y153.000
G1 F1980 X157.124 Y153.000 E828.72713
G0 F12000 X157.124 Y152.500
G1 F1980 X211.874 Y152.500 E831.00337
G0 F12000 X211.874 Y152.000
G1 F1980 X157.124 Y152.000 E833.27961
G0 F12000 X157.124 Y151.500
G1 F1980 X211.874 Y151.500 E835.55585
G0 F12000 X211.874 Y151.000
G1 F1980 X157.124 Y151.000 E837.83209
G0 F12000 X157.124 Y150.500
G1 F1980 X211.874 Y150.500 E840.10833
G0 F12000 X211.874 Y150.000
G1 F1980 X157.124 Y150.000 E842.38457
G0 F12000 X157.124 Y149.500
G1 F1980 X211.874 Y149.500 E844.66081
G0 F12000 X211.874 Y149.000
G1 F1980 X157.124 Y149.000 E846.93705
G0 F12000 X157.124 Y148.500
G1 F1980 X211.874 Y148.500 E849.21329
G0 F12000 X211.874 Y148.000
G1 F1980 X157.124 Y148.000 E851.48953
G0 F12000 X157.124 Y147.500
G1 F1980 X211.874 Y147.500 E853.76578
G0 F12000 X211.874 Y147.000
G1 F1980 X157.124 Y147.000 E856.04202
G0 F12000 X157.124 Y146.500
G1 F1980 X211.874 Y146.500 E858.31826
G0 F12000 X211.874 Y146.000
G1 F1980 X157.124 Y146.000 E860.59450
G0 F12000 X157.124 Y145.500
G1 F1980 X211.874 Y145.500 E862.87074
G0 F12000 X211.874 Y145.000
G1 F1980 X157.124 Y145.000 E865.14698
G0 F12000 X157.124 Y144.500
G1 F1980 X211.874 Y144.500 E867.42322
G0 F12000 X211.874 Y144.000
G1 F1980 X157.124 Y144.000 E869.69946
G0 F12000 X157.124 Y143.500
G1 F1980 X211.874 Y143.500 E871.97570
G0 F12000 X211.874 Y143.000
G1 F1980 X157.124 Y143.000 E874.25194
G0 F12000 X157.124 Y142.500
G1 F1980 X211.874 Y142.500 E876.52818
G0 F12000 X211.874 Y142.000
G1 F1980 X157.124 Y142.000 E878.80442
G0 F12000 X157.124 Y141.500
G1 F1980 X211.874 Y141.500 E881.08066
G0 F12000 X211.874 Y141.000
G1 F1980 X157.124 Y141.000 E883.35690
G0 F12000 X157.124 Y140.500
G1 F1980 X211.874 Y140.500 E885.63314
G0 F12000 X211.874 Y140.000
G1 F1980 X157.124 Y140.000 E887.90938
G0 F12000 X157.124 Y139.500
G1 F1980 X211.874 Y139.500 E890.18562
G0 F12000 X211.874 Y139.000
G1 F1980 X157.124 Y139.000 E892.46186
G0 F12000 X157.124 Y138.500
G1 F1980 X211.874 Y138.500 E894.73810
G0 F12000 X211.874 Y138.000
G1 F1980 X157.124 Y138.000 E897.01434
G0 F12000 X157.346 Y137.500
G1 F1980 X211.654 Y137.500 E899.27221
G0 F12000 X211.365 Y137.000
G1 F1980 X157.635 Y137.000 E901.50604
G0 F12000 X157.923 Y136.500
G1 F1980 X211.076 Y136.500 E903.71589
G0 F12000 X210.668 Y136.000
G1 F1980 X158.329 Y136.000 E905.89189
G0 F12000 X159.195 Y135.500
G1 F1980 X209.802 Y135.500 E907.99588
G0 F12000 X208.936 Y135.000
G1 F1980 X160.061 Y135.000 E910.02787
G0 F12000 X160.927 Y134.500
G1 F1980 X208.070 Y134.500 E911.98785
G0 F12000 X207.204 Y134.000
G1 F1980 X161.793 Y134.000 E913.87582
G0 F12000 X162.659 Y133.500
G1 F1980 X206.338 Y133.500 E915.69178
G0 F12000 X205.472 Y133.000
G1 F1980 X163.525 Y133.000 E917.43573
G0 F12000 X164.391 Y132.500
G1 F1980 X204.606 Y132.500 E919.10768
G0 F12000 X203.740 Y132.000
G1 F1980 X165.257 Y132.000 E920.70762
G0 F12000 X166.123 Y131.500
G1 F1980 X202.874 Y131.500 E922.23555
G0 F12000 X202.008 Y131.000
G1 F1980 X166.989 Y131.000 E923.69147
G0 F12000 X167.855 Y130.500
G1 F1980 X201.142 Y130.500 E925.07538
G0 F12000 X200.276 Y130.000
G1 F1980 X168.721 Y130.000 E926.38728
G0 F12000 X169.587 Y129.500
G1 F1980 X199.410 Y129.500 E927.62718
G0 F12000 X198.545 Y129.000
G1 F1980 X170.453 Y129.000 E928.79511
G0 F12000 X171.319 Y128.500
G1 F1980 X197.679 Y128.500 E929.89103
G0 F12000 X196.813 Y128.000
G1 F1980 X172.185 Y128.000 E930.91495
G0 F12000 X173.051 Y127.500
G1 F1980 X195.947 Y127.500 E931.86685
G0 F12000 X195.081 Y127.000
G1 F1980 X173.917 Y127.000 E932.74675
G0 F12000 X174.783 Y126.500
G1 F1980 X194.215 Y126.500 E933.55464
G0 F12000 X193.349 Y126.000
G1 F1980 X175.649 Y126.000 E934.29052
G0 F12000 X176.515 Y125.500
G1 F1980 X192.483 Y125.500 E934.95439
G0 F12000 X191.617 Y125.000
G1 F1980 X177.381 Y125.000 E935.54625
G0 F12000 X178.247 Y124.500
G1 F1980 X190.751 Y124.500 E936.06611
G0 F12000 X189.885 Y124.000
G1 F1980 X179.113 Y124.000 E936.51396
G0 F12000 X179.979 Y123.500
G1 F1980 X189.019 Y123.500 E936.88980
G0 F12000 X188.153 Y123.000
G1 F1980 X180.845 Y123.000 E937.19363
G0 F12000 X181.711 Y122.500
G1 F1980 X187.287 Y122.500 E937.42545
G0 F12000 X186.421 Y122.000
G1 F1980 X182.577 Y122.000 E937.58527
G0 F12000 X183.443 Y121.500
G1 F1980 X185.555 Y121.500 E937.67307
;LAYER:2
M106 S20
G1 F2100 E937.27307
G0 F12000 X148.250 Y137.784 Z0.600
;TYPE:WALL-INNER
G1 F2100 E937.67307
G1 F2220 X148.250 Y167.216 E938.89671
G1 X147.121 Y169.173 E938.99064
G1 X121.629 Y183.891 E940.21444
G1 X119.372 Y183.891 E940.30827
G1 X93.879 Y169.172 E941.53213
G1 X92.750 Y167.218 E941.62595
G1 X92.750 Y137.784 E942.84967
G1 X93.880 Y135.827 E942.94362
G1 X119.372 Y121.109 E944.16742
G1 X121.629 Y121.109 E944.26125
G1 X147.121 Y135.827 E945.48505
G1 X148.250 Y137.784 E945.57898
G0 F12000 X148.750 Y137.650
;TYPE:WALL-OUTER
G1 F2220 X148.750 Y167.350 E946.81376
G1 X147.487 Y169.539 E946.91883
G1 X121.763 Y184.391 E948.15377
G1 X119.238 Y184.391 E948.25874
G1 X93.513 Y169.538 E949.49373
G1 X92.250 Y167.352 E949.59870
G1 X92.250 Y137.650 E950.83356
G1 X93.514 Y135.461 E950.93865
G1 X119.238 Y120.609 E952.17359
G1 X121.763 Y120.609 E952.27856
G1 X147.487 Y135.461 E953.51350
G1 X148.750 Y137.650 E953.61857
G0 F12000 X148.000 Y137.702
;TYPE:SKIN
G1 F2220 X148.000 Y167.299 E954.84907
G0 F12000 X147.500 Y168.166
G1 F2220 X147.500 Y136.835 E956.15166
G0 F12000 X147.000 Y135.968
G1 F2220 X147.000 Y169.033 E957.52634
G0 F12000 X146.500 Y169.330
G1 F2220 X146.500 Y135.671 E958.92572
G0 F12000 X146.000 Y135.382
G1 F2220 X146.000 Y169.619 E960.34913
G0 F12000 X145.500 Y169.907
G1 F2220 X145.500 Y135.094 E961.79649
G0 F12000 X145.000 Y134.805
G1 F2220 X145.000 Y170.196 E963.26787
G0 F12000 X144.500 Y170.485
G1 F2220 X144.500 Y134.516 E964.76329
G0 F12000 X144.000 Y134.228
G1 F2220 X144.000 Y170.773 E966.28266
G0 F12000 X143.500 Y171.062
G1 F2220 X143.500 Y133.939 E967.82605
G0 F12000 X143.000 Y133.650
G1 F2220 X143.000 Y171.351 E969.39348
G0 F12000 X142.500 Y171.639
G1 F2220 X142.500 Y133.362 E970.98485
G0 F12000 X142.000 Y133.073
G1 F2220 X142.000 Y171.928 E972.60025
G0 F12000 X141.500 Y172.217
G1 F2220 X141.500 Y132.784 E974.23969
G0 F12000 X141.000 Y132.496
G1 F2220 X141.000 Y172.505 E975.90307
G0 F12000 X140.500 Y172.794
G1 F2220 X140.500 Y132.207 E977.59048
G0 F12000 X140.000 Y131.918
G1 F2220 X140.000 Y173.083 E979.30192
G0 F12000 X139.500 Y173.371
G1 F2220 X139.500 Y131.630 E981.03731
G0 F12000 X139.000 Y131.341
G1 F2220 X139.000 Y173.660 E982.79673
G0 F12000 X138.500 Y173.949
G1 F2220 X138.500 Y131.052 E984.58018
G0 F12000 X138.000 Y130.764
G1 F2220 X138.000 Y174.237 E986.38758
G0 F12000 X137.500 Y174.526
G1 F2220 X137.500 Y130.475 E988.21900
G0 F12000 X137.000 Y130.186
G1 F2220 X137.000 Y174.815 E990.07446
G0 F12000 X136.500 Y175.103
G1 F2220 X136.500 Y129.898 E991.95387
G0 F12000 X136.000 Y129.609
G1 F2220 X136.000 Y175.392 E993.85730
G0 F12000 X135.500 Y175.681
G1 F2220 X135.500 Y129.320 E995.78477
G0 F12000 X135.000 Y129.032
G1 F2220 X135.000 Y175.969 E997.73618
G0 F12000 X134.500 Y176.258
G1 F2220 X134.500 Y128.743 E999.71163
G0 F12000 X134.000 Y128.454
G1 F2220 X134.000 Y176.547 E1001.71110
G0 F12000 X133.500 Y176.835
G1 F2220 X133.500 Y128.166 E1003.73452
G0 F12000 X133.000 Y127.877
G1 F2220 X133.000 Y177.124 E1005.78198
G0 F12000 X132.500 Y177.413
G1 F2220 X132.500 Y127.588 E1007.85346
G0 F12000 X132.000 Y127.300
G1 F2220 X132.000 Y177.701 E1009.94889
G0 F12000 X131.500 Y177.990
G1 F2220 X131.500 Y127.011 E1012.06835
G0 F12000 X131.000 Y126.722
G1 F2220 X131.000 Y178.279 E1014.21184
G0 F12000 X130.500 Y178.567
G1 F2220 X130.500 Y126.434 E1016.37928
G0 F12000 X130.000 Y126.145
G1 F2220 X130.000 Y178.856 E1018.57075
G0 F12000 X129.500 Y179.145
G1 F2220 X129.500 Y125.856 E1020.78625
G0 F12000 X129.000 Y125.568
G1 F2220 X129.000 Y179.433 E1023.02569
G0 F12000 X128.500 Y179.722
G1 F2220 X128.500 Y125.279 E1025.28917
G0 F12000 X128.000 Y124.990
G1 F2220 X128.000 Y180.011 E1027.57668
G0 F12000 X127.500 Y180.299
G1 F2220 X127.500 Y124.702 E1029.88813
G0 F12000 X127.000 Y124.413
G1 F2220 X127.000 Y180.588 E1032.22362
G0 F12000 X126.500 Y180.877
G1 F2220 X126.500 Y124.124 E1034.58313
G0 F12000 X126.000 Y123.836
G1 F2220 X126.000 Y181.165 E1036.96660
G0 F12000 X125.500 Y181.454
G1 F2220 X125.500 Y123.547 E1039.37409
G0 F12000 X125.000 Y123.258
G1 F2220 X125.000 Y181.743 E1041.80561
G0 F12000 X124.500 Y182.031
G1 F2220 X124.500 Y122.970 E1044.26108
G0 F12000 X124.000 Y122.681
G1 F2220 X124.000 Y182.320 E1046.74059
G0 F12000 X123.500 Y182.609
G1 F2220 X123.500 Y122.392 E1049.24412
G0 F12000 X123.000 Y122.104
G1 F2220 X123.000 Y182.897 E1051.77160
G0 F12000 X122.500 Y183.186
G1 F2220 X122.500 Y121.815 E1054.32311
G0 F12000 X122.000 Y121.526
G1 F2220 X122.000 Y183.475 E1056.89865
G0 F12000 X121.500 Y183.716
G1 F2220 X121.500 Y121.284 E1059.49427
G0 F12000 X121.000 Y121.284
G1 F2220 X121.000 Y183.716 E1062.08989
G0 F12000 X120.500 Y183.716
G1 F2220 X120.500 Y121.284 E1064.68551
G0 F12000 X120.000 Y121.284
G1 F2220 X120.000 Y183.716 E1067.28113
G0 F12000 X119.500 Y183.716
G1 F2220 X119.500 Y121.284 E1069.87675
G0 F12000 X119.000 Y121.526
G1 F2220 X119.000 Y183.473 E1072.45221
G0 F12000 X118.500 Y183.184
G1 F2220 X118.500 Y121.815 E1075.00363
G0 F12000 X118.000 Y122.103
G1 F2220 X118.000 Y182.896 E1077.53111
G0 F12000 X117.500 Y182.607
G1 F2220 X117.500 Y122.392 E1080.03456
G0 F12000 X117.000 Y122.681
G1 F2220 X117.000 Y182.318 E1082.51398
G0 F12000 X116.500 Y182.030
G1 F2220 X116.500 Y122.969 E1084.96945
G0 F12000 X116.000 Y123.258
G1 F2220 X116.000 Y181.741 E1087.40089
G0 F12000 X115.500 Y181.452
G1 F2220 X115.500 Y123.547 E1089.80830
G0 F12000 X115.000 Y123.835
G1 F2220 X115.000 Y181.164 E1092.19177
G0 F12000 X114.500 Y180.875
G1 F2220 X114.500 Y124.124 E1094.55120
G0 F12000 X114.000 Y124.413
G1 F2220 X114.000 Y180.586 E1096.88660
G0 F12000 X113.500 Y180.298
G1 F2220 X113.500 Y124.701 E1099.19805
G0 F12000 X113.000 Y124.990
G1 F2220 X113.000 Y180.009 E1101.48548
G0 F12000 X112.500 Y179.720
G1 F2220 X112.500 Y125.279 E1103.74887
G0 F12000 X112.000 Y125.567
G1 F2220 X112.000 Y179.431 E1105.98828
G0 F12000 X111.500 Y179.143
G1 F2220 X111.500 Y125.856 E1108.20369
G0 F12000 X111.000 Y126.145
G1 F2220 X111.000 Y178.854 E1110.39508
G0 F12000 X110.500 Y178.565
G1 F2220 X110.500 Y126.433 E1112.56248
G0 F12000 X110.000 Y126.722
G1 F2220 X110.000 Y178.277 E1114.70588
G0 F12000 X109.500 Y177.988
G1 F2220 X109.500 Y127.011 E1116.82526
G0 F12000 X109.000 Y127.299
G1 F2220 X109.000 Y177.699 E1118.92065
G0 F12000 X108.500 Y177.411
G1 F2220 X108.500 Y127.588 E1120.99205
G0 F12000 X108.000 Y127.877
G1 F2220 X108.000 Y177.122 E1123.03942
G0 F12000 X107.500 Y176.833
G1 F2220 X107.500 Y128.165 E1125.06280
G0 F12000 X107.000 Y128.454
G1 F2220 X107.000 Y176.545 E1127.06219
G0 F12000 X106.500 Y176.256
G1 F2220 X106.500 Y128.743 E1129.03755
G0 F12000 X106.000 Y129.031
G1 F2220 X106.000 Y175.967 E1130.98892
G0 F12000 X105.500 Y175.679
G1 F2220 X105.500 Y129.320 E1132.91631
G0 F12000 X105.000 Y129.609
G1 F2220 X105.000 Y175.390 E1134.81966
G0 F12000 X104.500 Y175.101
G1 F2220 X104.500 Y129.897 E1136.69902
G0 F12000 X104.000 Y130.186
G1 F2220 X104.000 Y174.813 E1138.55440
G0 F12000 X103.500 Y174.524
G1 F2220 X103.500 Y130.475 E1140.38574
G0 F12000 X103.000 Y130.763
G1 F2220 X103.000 Y174.235 E1142.19310
G0 F12000 X102.500 Y173.947
G1 F2220 X102.500 Y131.052 E1143.97647
G0 F12000 X102.000 Y131.341
G1 F2220 X102.000 Y173.658 E1145.73580
G0 F12000 X101.500 Y173.369
G1 F2220 X101.500 Y131.629 E1147.47115
G0 F12000 X101.000 Y131.918
G1 F2220 X101.000 Y173.081 E1149.18251
G0 F12000 X100.500 Y172.792
G1 F2220 X100.500 Y132.207 E1150.86984
G0 F12000 X100.000 Y132.495
G1 F2220 X100.000 Y172.503 E1152.53318
G0 F12000 X99.500 Y172.215
G1 F2220 X99.500 Y132.784 E1154.17253
G0 F12000 X99.000 Y133.072
G1 F2220 X99.000 Y171.926 E1155.78789
G0 F12000 X98.500 Y171.637
G1 F2220 X98.500 Y133.361 E1157.37922
G0 F12000 X98.000 Y133.650
G1 F2220 X98.000 Y171.348 E1158.94652
G0 F12000 X97.500 Y171.060
G1 F2220 X97.500 Y133.938 E1160.48987
G0 F12000 X97.000 Y134.227
G1 F2220 X97.000 Y170.771 E1162.00920
G0 F12000 X96.500 Y170.482
G1 F2220 X96.500 Y134.516 E1163.50449
G0 F12000 X96.000 Y134.804
G1 F2220 X96.000 Y170.194 E1164.97583
G0 F12000 X95.500 Y169.905
G1 F2220 X95.500 Y135.093 E1166.42315
G0 F12000 X95.000 Y135.382
G1 F2220 X95.000 Y169.616 E1167.84643
G0 F12000 X94.500 Y169.328
G1 F2220 X94.500 Y135.670 E1169.24577
G0 F12000 X94.000 Y135.968
G1 F2220 X94.000 Y169.032 E1170.62041
G0 F12000 X93.500 Y168.167
G1 F2220 X93.500 Y136.835 E1171.92304
G0 F12000 X93.000 Y137.702
G1 F2220 X93.000 Y167.301 E1173.15363
G1 F2100 E1172.75363
G0 F12000 X156.750 Y167.216
;TYPE:WALL-INNER
G1 F2100 E1173.15363
G1 F2220 X156.750 Y137.784 E1174.37727
G1 X157.879 Y135.827 E1174.47120
G1 X183.371 Y121.109 E1175.69499
G1 X185.628 Y121.109 E1175.78883
G1 X211.121 Y135.828 E1177.01268
G1 X212.250 Y137.782 E1177.10650
G1 X212.250 Y167.216 E1178.33023
G1 X211.120 Y169.173 E1178.42418
G1 X185.628 Y183.891 E1179.64798
G1 X183.371 Y183.891 E1179.74181
G1 X157.879 Y169.173 E1180.96561
G1 X156.750 Y167.216 E1181.05954
G0 F12000 X156.250 Y167.350
;TYPE:WALL-OUTER
G1 F2220 X156.250 Y137.650 E1182.29432
G1 X157.513 Y135.461 E1182.39939
G1 X183.237 Y120.609 E1183.63432
G1 X185.762 Y120.609 E1183.73930
G1 X211.487 Y135.462 E1184.97429
G1 X212.750 Y137.648 E1185.07925
G1 X212.750 Y167.350 E1186.31412
G1 X211.486 Y169.539 E1186.41921
G1 X185.762 Y184.391 E1187.65414
G1 X183.237 Y184.391 E1187.75912
G1 X157.513 Y169.539 E1188.99405
G1 X156.250 Y167.350 E1189.09912
G0 F12000 X157.000 Y167.298
;TYPE:SKIN
G1 F2220 X157.000 Y137.701 E1190.32962
G0 F12000 X157.500 Y136.834
G1 F2220 X157.500 Y168.165 E1191.63222
G0 F12000 X158.000 Y169.032
G1 F2220 X158.000 Y135.967 E1193.00690
G0 F12000 X158.500 Y135.670
G1 F2220 X158.500 Y169.329 E1194.40628
G0 F12000 X159.000 Y169.618
G1 F2220 X159.000 Y135.381 E1195.82969
G0 F12000 X159.500 Y135.093
G1 F2220 X159.500 Y169.906 E1197.27704
G0 F12000 X160.000 Y170.195
G1 F2220 X160.000 Y134.804 E1198.74843
G0 F12000 X160.500 Y134.515
G1 F2220 X160.500 Y170.484 E1200.24385
G0 F12000 X161.000 Y170.772
G1 F2220 X161.000 Y134.227 E1201.76321
G0 F12000 X161.500 Y133.938
G1 F2220 X161.500 Y171.061 E1203.30661
G0 F12000 X162.000 Y171.350
G1 F2220 X162.000 Y133.649 E1204.87403
G0 F12000 X162.500 Y133.361
G1 F2220 X162.500 Y171.638 E1206.46540
G0 F12000 X163.000 Y171.927
G1 F2220 X163.000 Y133.072 E1208.08081
G0 F12000 X163.500 Y132.783
G1 F2220 X163.500 Y172.216 E1209.72024
G0 F12000 X164.000 Y172.504
G1 F2220 X164.000 Y132.495 E1211.38362
G0 F12000 X164.500 Y132.206
G1 F2220 X164.500 Y172.793 E1213.07103
G0 F12000 X165.000 Y173.082
G1 F2220 X165.000 Y131.917 E1214.78248
G0 F12000 X165.500 Y131.629
G1 F2220 X165.500 Y173.370 E1216.51786
G0 F12000 X166.000 Y173.659
G1 F2220 X166.000 Y131.340 E1218.27728
G0 F12000 X166.500 Y131.051
G1 F2220 X166.500 Y173.948 E1220.06073
G0 F12000 X167.000 Y174.236
G1 F2220 X167.000 Y130.763 E1221.86813
G0 F12000 X167.500 Y130.474
G1 F2220 X167.500 Y174.525 E1223.69956
G0 F12000 X168.000 Y174.814
G1 F2220 X168.000 Y130.185 E1225.55502
G0 F12000 X168.500 Y129.897
G1 F2220 X168.500 Y175.102 E1227.43442
G0 F12000 X169.000 Y175.391
G1 F2220 X169.000 Y129.608 E1229.33786
G0 F12000 X169.500 Y129.319
G1 F2220 X169.500 Y175.680 E1231.26533
G0 F12000 X170.000 Y175.968
G1 F2220 X170.000 Y129.031 E1233.21674
G0 F12000 X170.500 Y128.742
G1 F2220 X170.500 Y176.257 E1235.19218
G0 F12000 X171.000 Y176.546
G1 F2220 X171.000 Y128.453 E1237.19166
G0 F12000 X171.500 Y128.165
G1 F2220 X171.500 Y176.834 E1239.21508
G0 F12000 X172.000 Y177.123
G1 F2220 X172.000 Y127.876 E1241.26253
G0 F12000 X172.500 Y127.587
G1 F2220 X172.500 Y177.412 E1243.33401
G0 F12000 X173.000 Y177.700
G1 F2220 X173.000 Y127.299 E1245.42944
G0 F12000 X173.500 Y127.010
G1 F2220 X173.500 Y177.989 E1247.54891
G0 F12000 X174.000 Y178.278
G1 F2220 X174.000 Y126.721 E1249.69240
G0 F12000 X174.500 Y126.433
G1 F2220 X174.500 Y178.566 E1251.85983
G0 F12000 X175.000 Y178.855
G1 F2220 X175.000 Y126.144 E1254.05130
G0 F12000 X175.500 Y125.855
G1 F2220 X175.500 Y179.144 E1256.26680
G0 F12000 X176.000 Y179.432
G1 F2220 X176.000 Y125.567 E1258.50625
G0 F12000 X176.500 Y125.278
G1 F2220 X176.500 Y179.721 E1260.76973
G0 F12000 X177.000 Y180.010
G1 F2220 X177.000 Y124.989 E1263.05723
G0 F12000 X177.500 Y124.701
G1 F2220 X177.500 Y180.298 E1265.36869
G0 F12000 X178.000 Y180.587
G1 F2220 X178.000 Y124.412 E1267.70417
G0 F12000 X178.500 Y124.123
G1 F2220 X178.500 Y180.876 E1270.06369
G0 F12000 X179.000 Y181.164
G1 F2220 X179.000 Y123.835 E1272.44715
G0 F12000 X179.500 Y123.546
G1 F2220 X179.500 Y181.453 E1274.85464
G0 F12000 X180.000 Y181.742
G1 F2220 X180.000 Y123.257 E1277.28617
G0 F12000 X180.500 Y122.969
G1 F2220 X180.500 Y182.030 E1279.74164
G0 F12000 X181.000 Y182.319
G1 F2220 X181.000 Y122.680 E1282.22114
G0 F12000 X181.500 Y122.391
G1 F2220 X181.500 Y182.608 E1284.72467
G0 F12000 X182.000 Y182.896
G1 F2220 X182.000 Y122.103 E1287.25215
G0 F12000 X182.500 Y121.814
G1 F2220 X182.500 Y183.185 E1289.80366
G0 F12000 X183.000 Y183.474
G1 F2220 X183.000 Y121.525 E1292.37920
G0 F12000 X183.500 Y121.284
G1 F2220 X183.500 Y183.716 E1294.97482
G0 F12000 X184.000 Y183.716
G1 F2220 X184.000 Y121.284 E1297.57044
G0 F12000 X184.500 Y121.284
G1 F2220 X184.500 Y183.716 E1300.16606
G0 F12000 X185.000 Y183.716
G1 F2220 X185.000 Y121.284 E1302.76169
G0 F12000 X185.500 Y121.284
G1 F2220 X185.500 Y183.716 E1305.35731
G0 F12000 X186.000 Y183.474
G1 F2220 X186.000 Y121.527 E1307.93276
G0 F12000 X186.500 Y121.816
G1 F2220 X186.500 Y183.185 E1310.48419
G0 F12000 X187.000 Y182.897
G1 F2220 X187.000 Y122.104 E1313.01167
G0 F12000 X187.500 Y122.393
G1 F2220 X187.500 Y182.608 E1315.51512
G0 F12000 X188.000 Y182.319
G1 F2220 X188.000 Y122.682 E1317.99454
G0 F12000 X188.500 Y122.970
G1 F2220 X188.500 Y182.031 E1320.45001
G0 F12000 X189.000 Y181.742
G1 F2220 X189.000 Y123.259 E1322.88145
G0 F12000 X189.500 Y123.548
G1 F2220 X189.500 Y181.453 E1325.28886
G0 F12000 X190.000 Y181.165
G1 F2220 X190.000 Y123.836 E1327.67232
G0 F12000 X190.500 Y124.125
G1 F2220 X190.500 Y180.876 E1330.03175
G0 F12000 X191.000 Y180.587
G1 F2220 X191.000 Y124.414 E1332.36716
G0 F12000 X191.500 Y124.702
G1 F2220 X191.500 Y180.299 E1334.67861
G0 F12000 X192.000 Y180.010
G1 F2220 X192.000 Y124.991 E1336.96603
G0 F12000 X192.500 Y125.280
G1 F2220 X192.500 Y179.721 E1339.22943
G0 F12000 X193.000 Y179.433
G1 F2220 X193.000 Y125.569 E1341.46883
G0 F12000 X193.500 Y125.857
G1 F2220 X193.500 Y179.144 E1343.68425
G0 F12000 X194.000 Y178.855
G1 F2220 X194.000 Y126.146 E1345.87563
G0 F12000 X194.500 Y126.435
G1 F2220 X194.500 Y178.567 E1348.04303
G0 F12000 X195.000 Y178.278
G1 F2220 X195.000 Y126.723 E1350.18644
G0 F12000 X195.500 Y127.012
G1 F2220 X195.500 Y177.989 E1352.30582
G0 F12000 X196.000 Y177.701
G1 F2220 X196.000 Y127.301 E1354.40121
G0 F12000 X196.500 Y127.589
G1 F2220 X196.500 Y177.412 E1356.47260
G0 F12000 X197.000 Y177.123
G1 F2220 X197.000 Y127.878 E1358.51997
G0 F12000 X197.500 Y128.167
G1 F2220 X197.500 Y176.835 E1360.54335
G0 F12000 X198.000 Y176.546
G1 F2220 X198.000 Y128.455 E1362.54275
G0 F12000 X198.500 Y128.744
G1 F2220 X198.500 Y176.257 E1364.51811
G0 F12000 X199.000 Y175.969
G1 F2220 X199.000 Y129.033 E1366.46948
G0 F12000 X199.500 Y129.321
G1 F2220 X199.500 Y175.680 E1368.39686
G0 F12000 X200.000 Y175.391
G1 F2220 X200.000 Y129.610 E1370.30021
G0 F12000 X200.500 Y129.899
G1 F2220 X200.500 Y175.103 E1372.17958
G0 F12000 X201.000 Y174.814
G1 F2220 X201.000 Y130.187 E1374.03495
G0 F12000 X201.500 Y130.476
G1 F2220 X201.500 Y174.525 E1375.86630
G0 F12000 X202.000 Y174.237
G1 F2220 X202.000 Y130.765 E1377.67365
G0 F12000 X202.500 Y131.053
G1 F2220 X202.500 Y173.948 E1379.45702
G0 F12000 X203.000 Y173.659
G1 F2220 X203.000 Y131.342 E1381.21636
G0 F12000 X203.500 Y131.631
G1 F2220 X203.500 Y173.371 E1382.95171
G0 F12000 X204.000 Y173.082
G1 F2220 X204.000 Y131.919 E1384.66306
G0 F12000 X204.500 Y132.208
G1 F2220 X204.500 Y172.793 E1386.35039
G0 F12000 X205.000 Y172.505
G1 F2220 X205.000 Y132.497 E1388.01373
G0 F12000 X205.500 Y132.785
G1 F2220 X205.500 Y172.216 E1389.65308
G0 F12000 X206.000 Y171.928
G1 F2220 X206.000 Y133.074 E1391.26844
G0 F12000 X206.500 Y133.363
G1 F2220 X206.500 Y171.639 E1392.85977
G0 F12000 X207.000 Y171.350
G1 F2220 X207.000 Y133.652 E1394.42708
G0 F12000 X207.500 Y133.940
G1 F2220 X207.500 Y171.062 E1395.97043
G0 F12000 X208.000 Y170.773
G1 F2220 X208.000 Y134.229 E1397.48975
G0 F12000 X208.500 Y134.518
G1 F2220 X208.500 Y170.484 E1398.98504
G0 F12000 X209.000 Y170.196
G1 F2220 X209.000 Y134.806 E1400.45639
G0 F12000 X209.500 Y135.095
G1 F2220 X209.500 Y169.907 E1401.90370
G0 F12000 X210.000 Y169.618
G1 F2220 X210.000 Y135.384 E1403.32699
G0 F12000 X210.500 Y135.672
G1 F2220 X210.500 Y169.330 E1404.72633
G0 F12000 X211.000 Y169.032
G1 F2220 X211.000 Y135.968 E1406.10097
G0 F12000 X211.500 Y136.833
G1 F2220 X211.500 Y168.165 E1407.40360
G0 F12000 X212.000 Y167.298
G1 F2220 X212.000 Y137.699 E1408.63418
;LAYER:3
M106 S30
G1 F2100 E1408.23418
G0 F12000 X148.450 Y137.729 Z0.800
;TYPE:WALL-INNER
G1 F2100 E1408.63418
G1 F2400 X148.450 Y167.269 E1409.86231
G1 X147.267 Y169.319 E1409.96072
G1 X121.682 Y184.091 E1411.18898
G1 X119.319 Y184.091 E1411.28722
G1 X93.733 Y169.318 E1412.51555
G1 X93.055 Y168.146 E1412.57184
G1 X92.550 Y167.269 E1412.61391
G1 X92.550 Y137.729 E1413.84204
G1 X93.733 Y135.682 E1413.94034
G1 X119.319 Y120.909 E1415.16866
G1 X121.682 Y120.909 E1415.26690
G1 X147.268 Y135.682 E1416.49523
G1 X148.450 Y137.729 E1416.59350
G0 F12000 X148.950 Y137.595
;TYPE:WALL-OUTER
G1 F2400 X148.950 Y167.403 E1417.83277
G1 X147.633 Y169.685 E1417.94231
G1 X121.816 Y184.591 E1419.18172
G1 X119.185 Y184.591 E1419.29110
G1 X93.367 Y169.684 E1420.53056
G1 X92.050 Y167.405 E1420.64000
G1 X92.050 Y137.595 E1421.87935
G1 X93.367 Y135.316 E1421.98879
G1 X119.185 Y120.409 E1423.22825
G1 X121.816 Y120.409 E1423.33763
G1 X147.634 Y135.316 E1424.57709
G1 X148.950 Y137.595 E1424.68651
G0 F12000 X148.274 Y138.000
;TYPE:SKIN
G1 F2400 X92.724 Y138.000 E1426.99601
G0 F12000 X92.724 Y138.500
G1 F2400 X148.274 Y138.500 E1429.30551
G0 F12000 X148.274 Y139.000
G1 F2400 X92.724 Y139.000 E1431.61501
G0 F12000 X92.724 Y139.500
G1 F2400 X148.274 Y139.500 E1433.92451
G1 F2100 E1433.52451
G0 F12000 X148.116 Y137.500
G1 F2100 E1433.92451
G1 F2400 X92.883 Y137.500 E1436.22083
G0 F12000 X93.172 Y137.000
G1 F2400 X147.828 Y137.000 E1438.49316
G0 F12000 X147.539 Y136.500
G1 F2400 X93.461 Y136.500 E1440.74146
G0 F12000 X93.750 Y136.000
G1 F2400 X147.250 Y136.000 E1442.96573
G0 F12000 X146.604 Y135.500
G1 F2400 X94.396 Y135.500 E1445.13629
G0 F12000 X95.262 Y135.000
G1 F2400 X145.738 Y135.000 E1447.23484
G0 F12000 X144.872 Y134.500
G1 F2400 X96.128 Y134.500 E1449.26138
G0 F12000 X96.994 Y134.000
G1 F2400 X144.006 Y134.000 E1451.21591
G0 F12000 X143.140 Y133.500
G1 F2400 X97.860 Y133.500 E1453.09844
G0 F12000 X98.726 Y133.000
G1 F2400 X142.274 Y133.000 E1454.90895
G0 F12000 X141.408 Y132.500
G1 F2400 X99.592 Y132.500 E1456.64746
G0 F12000 X100.458 Y132.000
G1 F2400 X140.542 Y132.000 E1458.31396
G0 F12000 X139.676 Y131.500
G1 F2400 X101.324 Y131.500 E1459.90845
G0 F12000 X102.190 Y131.000
G1 F2400 X138.810 Y131.000 E1461.43093
G0 F12000 X137.944 Y130.500
G1 F2400 X103.056 Y130.500 E1462.88140
G0 F12000 X103.922 Y130.000
G1 F2400 X137.078 Y130.000 E1464.25987
G0 F12000 X136.212 Y129.500
G1 F2400 X104.788 Y129.500 E1465.56633
G0 F12000 X105.654 Y129.000
G1 F2400 X135.346 Y129.000 E1466.80078
G0 F12000 X134.480 Y128.500
G1 F2400 X106.520 Y128.500 E1467.96322
G0 F12000 X107.386 Y128.000
G1 F2400 X133.614 Y128.000 E1469.05365
G0 F12000 X132.748 Y127.500
G1 F2400 X108.252 Y127.500 E1470.07208
G0 F12000 X109.118 Y127.000
G1 F2400 X131.882 Y127.000 E1471.01850
G0 F12000 X131.016 Y126.500
G1 F2400 X109.984 Y126.500 E1471.89291
G0 F12000 X110.850 Y126.000
G1 F2400 X130.150 Y126.000 E1472.69531
G0 F12000 X129.284 Y125.500
G1 F2400 X111.716 Y125.500 E1473.42570
G0 F12000 X112.582 Y125.000
G1 F2400 X128.418 Y125.000 E1474.08408
G0 F12000 X127.552 Y124.500
G1 F2400 X113.448 Y124.500 E1474.67046
G0 F12000 X114.314 Y124.000
G1 F2400 X126.686 Y124.000 E1475.18483
G0 F12000 X125.820 Y123.500
G1 F2400 X115.180 Y123.500 E1475.62719
G0 F12000 X116.046 Y123.000
G1 F2400 X124.954 Y123.000 E1475.99754
G0 F12000 X124.088 Y122.500
G1 F2400 X116.912 Y122.500 E1476.29588
G0 F12000 X117.778 Y122.000
G1 F2400 X123.222 Y122.000 E1476.52222
G0 F12000 X122.356 Y121.500
G1 F2400 X118.644 Y121.500 E1476.67654
G1 F2100 E1476.27654
G0 F12000 X92.724 Y140.000
G1 F2100 E1476.67654
G1 F2400 X148.274 Y140.000 E1478.98605
G0 F12000 X148.274 Y140.500
G1 F2400 X92.724 Y140.500 E1481.29555
G0 F12000 X92.724 Y141.000
G1 F2400 X148.274 Y141.000 E1483.60505
G0 F12000 X148.274 Y141.500
G1 F2400 X92.724 Y141.500 E1485.91455
G0 F12000 X92.724 Y142.000
G1 F2400 X148.274 Y142.000 E1488.22405
G0 F12000 X148.274 Y142.500
G1 F2400 X92.724 Y142.500 E1490.53355
G0 F12000 X92.724 Y143.000
G1 F2400 X148.274 Y143.000 E1492.84305
G0 F12000 X148.274 Y143.500
G1 F2400 X92.724 Y143.500 E1495.15255
G0 F12000 X92.724 Y144.000
G1 F2400 X148.274 Y144.000 E1497.46205
G0 F12000 X148.274 Y144.500
G1 F2400 X92.724 Y144.500 E1499.77155
G0 F12000 X92.724 Y145.000
G1 F2400 X148.274 Y145.000 E1502.08105
G0 F12000 X148.274 Y145.500
G1 F2400 X92.724 Y145.500 E1504.39055
G0 F12000 X92.724 Y146.000
G1 F2400 X148.274 Y146.000 E1506.70005
G0 F12000 X148.274 Y146.500
G1 F2400 X92.724 Y146.500 E1509.00955
G0 F12000 X92.724 Y147.000
G1 F2400 X148.274 Y147.000 E1511.31905
G0 F12000 X148.274 Y147.500
G1 F2400 X92.724 Y147.500 E1513.62855
G0 F12000 X92.724 Y148.000
G1 F2400 X148.274 Y148.000 E1515.93806
G0 F12000 X148.274 Y148.500
G1 F2400 X92.724 Y148.500 E1518.24756
G0 F12000 X92.724 Y149.000
G1 F2400 X148.274 Y149.000 E1520.55706
G0 F12000 X148.274 Y149.500
G1 F2400 X92.724 Y149.500 E1522.86656
G0 F12000 X92.724 Y150.000
G1 F2400 X148.274 Y150.000 E1525.17606
G0 F12000 X148.274 Y150.500
G1 F2400 X92.724 Y150.500 E1527.48556
G0 F12000 X92.724 Y151.000
G1 F2400 X148.274 Y151.000 E1529.79506
G0 F12000 X148.274 Y151.500
G1 F2400 X92.724 Y151.500 E1532.10456
G0 F12000 X92.724 Y152.000
G1 F2400 X148.274 Y152.000 E1534.41406
G0 F12000 X148.274 Y152.500
G1 F2400 X92.724 Y152.500 E1536.72356
G0 F12000 X92.724 Y153.000
G1 F2400 X148.274 Y153.000 E1539.03306
G0 F12000 X148.274 Y153.500
G1 F2400 X92.724 Y153.500 E1541.34256
G0 F12000 X92.724 Y154.000
G1 F2400 X148.274 Y154.000 E1543.65206
G0 F12000 X148.274 Y154.500
G1 F2400 X92.724 Y154.500 E1545.96156
G0 F12000 X92.724 Y155.000
G1 F2400 X148.274 Y155.000 E1548.27106
G0 F12000 X148.274 Y155.500
G1 F2400 X92.724 Y155.500 E1550.58056
G0 F12000 X92.724 Y156.000
G1 F2400 X148.274 Y156.000 E1552.89007
G0 F12000 X148.274 Y156.500
G1 F2400 X92.724 Y156.500 E1555.19957
G0 F12000 X92.724 Y157.000
G1 F2400 X148.274 Y157.000 E1557.50907
G0 F12000 X148.274 Y157.500
G1 F2400 X92.724 Y157.500 E1559.81857
G0 F12000 X92.724 Y158.000
G1 F2400 X148.274 Y158.000 E1562.12807
G0 F12000 X148.274 Y158.500
G1 F2400 X92.724 Y158.500 E1564.43757
G0 F12000 X92.724 Y159.000
G1 F2400 X148.274 Y159.000 E1566.74707
G0 F12000 X148.274 Y159.500
G1 F2400 X92.724 Y159.500 E1569.05657
G0 F12000 X92.724 Y160.000
G1 F2400 X148.274 Y160.000 E1571.36607
G0 F12000 X148.274 Y160.500
G1 F2400 X92.724 Y160.500 E1573.67557
G0 F12000 X92.724 Y161.000
G1 F2400 X148.274 Y161.000 E1575.98507
G0 F12000 X148.274 Y161.500
G1 F2400 X92.724 Y161.500 E1578.29457
G0 F12000 X92.724 Y162.000
G1 F2400 X148.274 Y162.000 E1580.60407
G0 F12000 X148.274 Y162.500
G1 F2400 X92.724 Y162.500 E1582.91357
G0 F12000 X92.724 Y163.000
G1 F2400 X148.274 Y163.000 E1585.22307
G0 F12000 X148.274 Y163.500
G1 F2400 X92.724 Y163.500 E1587.53257
G0 F12000 X92.724 Y164.000
G1 F2400 X148.274 Y164.000 E1589.84208
G0 F12000 X148.274 Y164.500
G1 F2400 X92.724 Y164.500 E1592.15158
G0 F12000 X92.724 Y165.000
G1 F2400 X148.274 Y165.000 E1594.46108
G0 F12000 X148.274 Y165.500
G1 F2400 X92.724 Y165.500 E1596.77058
G0 F12000 X92.724 Y166.000
G1 F2400 X148.274 Y166.000 E1599.08008
G0 F12000 X148.274 Y166.500
G1 F2400 X92.724 Y166.500 E1601.38958
G0 F12000 X92.724 Y167.000
G1 F2400 X148.274 Y167.000 E1603.69908
G0 F12000 X148.112 Y167.500
G1 F2400 X92.884 Y167.500 E1605.99519
G0 F12000 X93.173 Y168.000
G1 F2400 X147.824 Y168.000 E1608.26732
G0 F12000 X147.535 Y168.500
G1 F2400 X93.461 Y168.500 E1610.51545
G0 F12000 X93.750 Y169.000
G1 F2400 X147.247 Y169.000 E1612.73960
G0 F12000 X146.601 Y169.500
G1 F2400 X94.399 Y169.500 E1614.90991
G0 F12000 X95.265 Y170.000
G1 F2400 X145.735 Y170.000 E1617.00821
G0 F12000 X144.868 Y170.500
G1 F2400 X96.131 Y170.500 E1619.03445
G0 F12000 X96.997 Y171.000
G1 F2400 X144.002 Y171.000 E1620.98870
G0 F12000 X143.136 Y171.500
G1 F2400 X97.863 Y171.500 E1622.87093
G0 F12000 X98.729 Y172.000
G1 F2400 X142.270 Y172.000 E1624.68115
G0 F12000 X141.404 Y172.500
G1 F2400 X99.595 Y172.500 E1626.41937
G0 F12000 X100.461 Y173.000
G1 F2400 X140.538 Y173.000 E1628.08558
G0 F12000 X139.672 Y173.500
G1 F2400 X101.327 Y173.500 E1629.67978
G0 F12000 X102.193 Y174.000
G1 F2400 X138.806 Y174.000 E1631.20197
G0 F12000 X137.940 Y174.500
G1 F2400 X103.059 Y174.500 E1632.65215
G0 F12000 X103.925 Y175.000
G1 F2400 X137.074 Y175.000 E1634.03033
G0 F12000 X136.208 Y175.500
G1 F2400 X104.791 Y175.500 E1635.33649
G0 F12000 X105.657 Y176.000
G1 F2400 X135.342 Y176.000 E1636.57065
G0 F12000 X134.476 Y176.500
G1 F2400 X106.523 Y176.500 E1637.73280
G0 F12000 X107.389 Y177.000
G1 F2400 X133.610 Y177.000 E1638.82295
G0 F12000 X132.744 Y177.500
G1 F2400 X108.255 Y177.500 E1639.84108
G0 F12000 X109.121 Y178.000
G1 F2400 X131.878 Y178.000 E1640.78721
G0 F12000 X131.012 Y178.500
G1 F2400 X109.987 Y178.500 E1641.66132
G0 F12000 X110.853 Y179.000
G1 F2400 X130.146 Y179.000 E1642.46343
G0 F12000 X129.280 Y179.500
G1 F2400 X111.719 Y179.500 E1643.19354
G0 F12000 X112.585 Y180.000
G1 F2400 X128.414 Y180.000 E1643.85163
G0 F12000 X127.548 Y180.500
G1 F2400 X113.451 Y180.500 E1644.43771
G0 F12000 X114.317 Y181.000
G1 F2400 X126.682 Y181.000 E1644.95179
G0 F12000 X125.815 Y181.500
G1 F2400 X115.183 Y181.500 E1645.39382
G0 F12000 X116.049 Y182.000
G1 F2400 X124.949 Y182.000 E1645.76384
G0 F12000 X124.083 Y182.500
G1 F2400 X116.915 Y182.500 E1646.06185
G0 F12000 X117.781 Y183.000
G1 F2400 X123.217 Y183.000 E1646.28785
G0 F12000 X122.351 Y183.500
G1 F2400 X118.647 Y183.500 E1646.44185
G1 F2100 E1646.04185
G0 F12000 X156.550 Y167.271
;TYPE:WALL-INNER
G1 F2100 E1646.44185
G1 F2400 X156.550 Y137.731 E1647.66998
G1 X157.733 Y135.681 E1647.76838
G1 X183.318 Y120.909 E1648.99664
G1 X185.681 Y120.909 E1649.09489
G1 X211.267 Y135.682 E1650.32321
G1 X211.944 Y136.853 E1650.37944
G1 X212.450 Y137.731 E1650.42158
G1 X212.450 Y167.271 E1651.64971
G1 X211.267 Y169.318 E1651.74800
G1 X185.681 Y184.091 E1652.97632
G1 X183.318 Y184.091 E1653.07456
G1 X157.732 Y169.318 E1654.30289
G1 X156.550 Y167.271 E1654.40116
G0 F12000 X156.050 Y167.405
;TYPE:WALL-OUTER
G1 F2400 X156.050 Y137.597 E1655.64043
G1 X157.367 Y135.315 E1655.74997
G1 X183.184 Y120.409 E1656.98938
G1 X185.815 Y120.409 E1657.09876
G1 X211.633 Y135.316 E1658.33823
G1 X212.950 Y137.595 E1658.44766
G1 X212.950 Y167.405 E1659.68701
G1 X211.633 Y169.684 E1659.79645
G1 X185.815 Y184.591 E1661.03591
G1 X183.184 Y184.591 E1661.14529
G1 X157.366 Y169.684 E1662.38475
G1 X156.050 Y167.405 E1662.49417
G0 F12000 X156.724 Y167.000
;TYPE:SKIN
G1 F2400 X212.274 Y167.000 E1664.80367
G0 F12000 X212.274 Y166.500
G1 F2400 X156.724 Y166.500 E1667.11317
G0 F12000 X156.724 Y166.000
G1 F2400 X212.274 Y166.000 E1669.42267
G0 F12000 X212.274 Y165.500
G1 F2400 X156.724 Y165.500 E1671.73217
G0 F12000 X156.724 Y165.000
G1 F2400 X212.274 Y165.000 E1674.04167
G0 F12000 X212.274 Y164.500
G1 F2400 X156.724 Y164.500 E1676.35117
G0 F12000 X156.724 Y164.000
G1 F2400 X212.274 Y164.000 E1678.66067
G0 F12000 X212.274 Y163.500
G1 F2400 X156.724 Y163.500 E1680.97017
G0 F12000 X156.724 Y163.000
G1 F2400 X212.274 Y163.000 E1683.27967
G0 F12000 X212.274 Y162.500
G1 F2400 X156.724 Y162.500 E1685.58917
G0 F12000 X156.724 Y162.000
G1 F2400 X212.274 Y162.000 E1687.89867
G0 F12000 X212.274 Y161.500
G1 F2400 X156.724 Y161.500 E1690.20817
G0 F12000 X156.724 Y161.000
G1 F2400 X212.274 Y161.000 E1692.51767
G0 F12000 X212.274 Y160.500
G1 F2400 X156.724 Y160.500 E1694.82718
G0 F12000 X156.724 Y160.000
G1 F2400 X212.274 Y160.000 E1697.13668
G1 F2100 E1696.73668
G0 F12000 X212.114 Y167.500
G1 F2100 E1697.13668
G1 F2400 X156.883 Y167.500 E1699.43291
G0 F12000 X157.172 Y168.000
G1 F2400 X211.825 Y168.000 E1701.70512
G0 F12000 X211.536 Y168.500
G1 F2400 X157.460 Y168.500 E1703.95334
G0 F12000 X157.749 Y169.000
G1 F2400 X211.247 Y169.000 E1706.17753
G0 F12000 X210.598 Y169.500
G1 F2400 X158.398 Y169.500 E1708.34775
G0 F12000 X159.264 Y170.000
G1 F2400 X209.732 Y170.000 E1710.44597
G0 F12000 X208.866 Y170.500
G1 F2400 X160.130 Y170.500 E1712.47218
G0 F12000 X160.996 Y171.000
G1 F2400 X208.000 Y171.000 E1714.42638
G0 F12000 X207.134 Y171.500
G1 F2400 X161.862 Y171.500 E1716.30857
G0 F12000 X162.728 Y172.000
G1 F2400 X206.268 Y172.000 E1718.11875
G0 F12000 X205.402 Y172.500
G1 F2400 X163.594 Y172.500 E1719.85692
G0 F12000 X164.460 Y173.000
G1 F2400 X204.536 Y173.000 E1721.52309
G0 F12000 X203.670 Y173.500
G1 F2400 X165.326 Y173.500 E1723.11725
G0 F12000 X166.192 Y174.000
G1 F2400 X202.804 Y174.000 E1724.63940
G0 F12000 X201.938 Y174.500
G1 F2400 X167.058 Y174.500 E1726.08954
G0 F12000 X167.924 Y175.000
G1 F2400 X201.072 Y175.000 E1727.46767
G0 F12000 X200.206 Y175.500
G1 F2400 X168.790 Y175.500 E1728.77380
G0 F12000 X169.656 Y176.000
G1 F2400 X199.340 Y176.000 E1730.00792
G0 F12000 X198.474 Y176.500
G1 F2400 X170.522 Y176.500 E1731.17003
G0 F12000 X171.388 Y177.000
G1 F2400 X197.608 Y177.000 E1732.26013
G0 F12000 X196.742 Y177.500
G1 F2400 X172.254 Y177.500 E1733.27822
G0 F12000 X173.120 Y178.000
G1 F2400 X195.876 Y178.000 E1734.22430
G0 F12000 X195.010 Y178.500
G1 F2400 X173.986 Y178.500 E1735.09838
G0 F12000 X174.852 Y179.000
G1 F2400 X194.144 Y179.000 E1735.90045
G0 F12000 X193.278 Y179.500
G1 F2400 X175.718 Y179.500 E1736.63051
G0 F12000 X176.584 Y180.000
G1 F2400 X192.412 Y180.000 E1737.28856
G0 F12000 X191.546 Y180.500
G1 F2400 X177.450 Y180.500 E1737.87460
G0 F12000 X178.316 Y181.000
G1 F2400 X190.680 Y181.000 E1738.38864
G0 F12000 X189.814 Y181.500
G1 F2400 X179.182 Y181.500 E1738.83067
G0 F12000 X180.048 Y182.000
G1 F2400 X188.948 Y182.000 E1739.20069
G0 F12000 X188.082 Y182.500
G1 F2400 X180.914 Y182.500 E1739.49870
G0 F12000 X181.780 Y183.000
G1 F2400 X187.216 Y183.000 E1739.72470
G0 F12000 X186.350 Y183.500
G1 F2400 X182.646 Y183.500 E1739.87869
G1 F2100 E1739.47869
G0 F12000 X156.724 Y159.500
G1 F2100 E1739.87869
G1 F2400 X212.274 Y159.500 E1742.18819
G0 F12000 X212.274 Y159.000
G1 F2400 X156.724 Y159.000 E1744.49769
G0 F12000 X156.724 Y158.500
G1 F2400 X212.274 Y158.500 E1746.80720
G0 F12000 X212.274 Y158.000
G1 F2400 X156.724 Y158.000 E1749.11670
G0 F12000 X156.724 Y157.500
G1 F2400 X212.274 Y157.500 E1751.42620
G0 F12000 X212.274 Y157.000
G1 F2400 X156.724 Y157.000 E1753.73570
G0 F12000 X156.724 Y156.500
G1 F2400 X212.274 Y156.500 E1756.04520
G0 F12000 X212.274 Y156.000
G1 F2400 X156.724 Y156.000 E1758.35470
G0 F12000 X156.724 Y155.500
G1 F2400 X212.274 Y155.500 E1760.66420
G0 F12000 X212.274 Y155.000
G1 F2400 X156.724 Y155.000 E1762.97370
G0 F12000 X156.724 Y154.500
G1 F2400 X212.274 Y154.500 E1765.28320
G0 F12000 X212.274 Y154.000
G1 F2400 X156.724 Y154.000 E1767.59270
G0 F12000 X156.724 Y153.500
G1 F2400 X212.274 Y153.500 E1769.90220
G0 F12000 X212.274 Y153.000
G1 F2400 X156.724 Y153.000 E1772.21170
G0 F12000 X156.724 Y152.500
G1 F2400 X212.274 Y152.500 E1774.52120
G0 F12000 X212.274 Y152.000
G1 F2400 X156.724 Y152.000 E1776.83070
G0 F12000 X156.724 Y151.500
G1 F2400 X212.274 Y151.500 E1779.14020
G0 F12000 X212.274 Y151.000
G1 F2400 X156.724 Y151.000 E1781.44970
G0 F12000 X156.724 Y150.500
G1 F2400 X212.274 Y150.500 E1783.75921
G0 F12000 X212.274 Y150.000
G1 F2400 X156.724 Y150.000 E1786.06871
G0 F12000 X156.724 Y149.500
G1 F2400 X212.274 Y149.500 E1788.37821
G0 F12000 X212.274 Y149.000
G1 F2400 X156.724 Y149.000 E1790.68771
G0 F12000 X156.724 Y148.500
G1 F2400 X212.274 Y148.500 E1792.99721
G0 F12000 X212.274 Y148.000
G1 F2400 X156.724 Y148.000 E1795.30671
G0 F12000 X156.724 Y147.500
G1 F2400 X212.274 Y147.500 E1797.61621
G0 F12000 X212.274 Y147.000
G1 F2400 X156.724 Y147.000 E1799.92571
G0 F12000 X156.724 Y146.500
G1 F2400 X212.274 Y146.500 E1802.23521
G0 F12000 X212.274 Y146.000
G1 F2400 X156.724 Y146.000 E1804.54471
G0 F12000 X156.724 Y145.500
G1 F2400 X212.274 Y145.500 E1806.85421
G0 F12000 X212.274 Y145.000
G1 F2400 X156.724 Y145.000 E1809.16371
G0 F12000 X156.724 Y144.500
G1 F2400 X212.274 Y144.500 E1811.47321
G0 F12000 X212.274 Y144.000
G1 F2400 X156.724 Y144.000 E1813.78271
G0 F12000 X156.724 Y143.500
G1 F2400 X212.274 Y143.500 E1816.09221
G0 F12000 X212.274 Y143.000
G1 F2400 X156.724 Y143.000 E1818.40171
G0 F12000 X156.724 Y142.500
G1 F2400 X212.274 Y142.500 E1820.71122
G0 F12000 X212.274 Y142.000
G1 F2400 X156.724 Y142.000 E1823.02072
G0 F12000 X156.724 Y141.500
G1 F2400 X212.274 Y141.500 E1825.33022
G0 F12000 X212.274 Y141.000
G1 F2400 X156.724 Y141.000 E1827.63972
G0 F12000 X156.724 Y140.500
G1 F2400 X212.274 Y140.500 E1829.94922
G0 F12000 X212.274 Y140.000
G1 F2400 X156.724 Y140.000 E1832.25872
G0 F12000 X156.724 Y139.500
G1 F2400 X212.274 Y139.500 E1834.56822
G0 F12000 X212.274 Y139.000
G1 F2400 X156.724 Y139.000 E1836.87772
G0 F12000 X156.724 Y138.500
G1 F2400 X212.274 Y138.500 E1839.18722
G0 F12000 X212.274 Y138.000
G1 F2400 X156.724 Y138.000 E1841.49672
G0 F12000 X156.885 Y137.500
G1 F2400 X212.115 Y137.500 E1843.79292
G0 F12000 X211.827 Y137.000
G1 F2400 X157.173 Y137.000 E1846.06517
G0 F12000 X157.461 Y136.500
G1 F2400 X211.538 Y136.500 E1848.31343
G0 F12000 X211.249 Y136.000
G1 F2400 X157.750 Y136.000 E1850.53766
G0 F12000 X158.394 Y135.500
G1 F2400 X210.603 Y135.500 E1852.70826
G0 F12000 X209.737 Y135.000
G1 F2400 X159.260 Y135.000 E1854.80685
G0 F12000 X160.126 Y134.500
G1 F2400 X208.871 Y134.500 E1856.83343
G0 F12000 X208.005 Y134.000
G1 F2400 X160.992 Y134.000 E1858.78800
G0 F12000 X161.858 Y133.500
G1 F2400 X207.139 Y133.500 E1860.67057
G0 F12000 X206.273 Y133.000
G1 F2400 X162.724 Y133.000 E1862.48112
G0 F12000 X163.590 Y132.500
G1 F2400 X205.407 Y132.500 E1864.21967
G0 F12000 X204.541 Y132.000
G1 F2400 X164.456 Y132.000 E1865.88621
G0 F12000 X165.322 Y131.500
G1 F2400 X203.675 Y131.500 E1867.48074
G0 F12000 X202.809 Y131.000
G1 F2400 X166.188 Y131.000 E1869.00327
G0 F12000 X167.054 Y130.500
G1 F2400 X201.943 Y130.500 E1870.45378
G0 F12000 X201.077 Y130.000
G1 F2400 X167.920 Y130.000 E1871.83229
G0 F12000 X168.787 Y129.500
G1 F2400 X200.211 Y129.500 E1873.13875
G0 F12000 X199.345 Y129.000
G1 F2400 X169.653 Y129.000 E1874.37320
G0 F12000 X170.519 Y128.500
G1 F2400 X198.479 Y128.500 E1875.53564
G0 F12000 X197.613 Y128.000
G1 F2400 X171.385 Y128.000 E1876.62608
G0 F12000 X172.251 Y127.500
G1 F2400 X196.747 Y127.500 E1877.64450
G0 F12000 X195.881 Y127.000
G1 F2400 X173.117 Y127.000 E1878.59092
G0 F12000 X173.983 Y126.500
G1 F2400 X195.015 Y126.500 E1879.46533
G0 F12000 X194.149 Y126.000
G1 F2400 X174.849 Y126.000 E1880.26773
G0 F12000 X175.715 Y125.500
G1 F2400 X193.283 Y125.500 E1880.99812
G0 F12000 X192.417 Y125.000
G1 F2400 X176.581 Y125.000 E1881.65650
G0 F12000 X177.447 Y124.500
G1 F2400 X191.551 Y124.500 E1882.24288
G0 F12000 X190.685 Y124.000
G1 F2400 X178.313 Y124.000 E1882.75725
G0 F12000 X179.179 Y123.500
G1 F2400 X189.819 Y123.500 E1883.19961
G0 F12000 X188.953 Y123.000
G1 F2400 X180.045 Y123.000 E1883.56996
G0 F12000 X180.911 Y122.500
G1 F2400 X188.087 Y122.500 E1883.86830
G0 F12000 X187.221 Y122.000
G1 F2400 X181.777 Y122.000 E1884.09464
G0 F12000 X182.643 Y121.500
G1 F2400 X186.355 Y121.500 E1884.24897
;LAYER:4
M106 S40
G1 F2100 E1883.84897
G0 F12000 X148.650 Y137.677 Z1.000
;TYPE:WALL-INNER
G1 F2100 E1884.24897
G1 F2700 X148.650 Y167.323 E1885.48150
G1 X147.412 Y169.466 E1885.58440
G1 X121.738 Y184.291 E1886.81697
G1 X119.265 Y184.291 E1886.91979
G1 X93.587 Y169.464 E1888.15254
G1 X93.028 Y168.500 E1888.19887
G1 X92.350 Y167.323 E1888.25534
G1 X92.350 Y137.675 E1889.48797
G1 X93.588 Y135.535 E1889.59075
G1 X119.263 Y120.709 E1890.82338
G1 X121.736 Y120.709 E1890.92620
G1 X147.414 Y135.536 E1892.15895
G1 X147.971 Y136.499 E1892.20521
G1 X148.650 Y137.677 E1892.26173
G0 F12000 X149.150 Y137.541
;TYPE:WALL-OUTER
G1 F2700 X149.150 Y167.457 E1893.50550
G1 X147.778 Y169.832 E1893.61953
G1 X121.872 Y184.791 E1894.86324
G1 X119.131 Y184.791 E1894.97720
G1 X93.221 Y169.830 E1896.22109
G1 X91.850 Y167.459 E1896.33496
G1 X91.850 Y137.541 E1897.57881
G1 X93.222 Y135.169 E1897.69273
G1 X119.129 Y120.209 E1898.93650
G1 X121.870 Y120.209 E1899.05046
G1 X147.780 Y135.170 E1900.29436
G1 X149.150 Y137.541 E1900.40820
G0 F12000 X148.000 Y136.901
;TYPE:SKIN
G1 F2700 X148.000 Y168.099 E1901.70526
G0 F12000 X147.500 Y168.965
G1 F2700 X147.500 Y136.035 E1903.07433
G0 F12000 X147.000 Y135.499
G1 F2700 X147.000 Y169.502 E1904.48802
G0 F12000 X146.500 Y169.791
G1 F2700 X146.500 Y135.211 E1905.92568
G0 F12000 X146.000 Y134.922
G1 F2700 X146.000 Y170.080 E1907.38738
G0 F12000 X145.500 Y170.369
G1 F2700 X145.500 Y134.633 E1908.87311
G0 F12000 X145.000 Y134.344
G1 F2700 X145.000 Y170.657 E1910.38283
G0 F12000 X144.500 Y170.946
G1 F2700 X144.500 Y134.056 E1911.91654
G0 F12000 X144.000 Y133.767
G1 F2700 X144.000 Y171.235 E1913.47428
G0 F12000 X143.500 Y171.524
G1 F2700 X143.500 Y133.478 E1915.05605
G0 F12000 X143.000 Y133.190
G1 F2700 X143.000 Y171.812 E1916.66177
G0 F12000 X142.500 Y172.101
G1 F2700 X142.500 Y132.901 E1918.29151
G0 F12000 X142.000 Y132.612
G1 F2700 X142.000 Y172.390 E1919.94529
G0 F12000 X141.500 Y172.678
G1 F2700 X141.500 Y132.323 E1921.62305
G0 F12000 X141.000 Y132.035
G1 F2700 X141.000 Y172.967 E1923.32481
G0 F12000 X140.500 Y173.256
G1 F2700 X140.500 Y131.746 E1925.05059
G0 F12000 X140.000 Y131.457
G1 F2700 X140.000 Y173.545 E1926.80041
G0 F12000 X139.500 Y173.833
G1 F2700 X139.500 Y131.169 E1928.57417
G0 F12000 X139.000 Y130.880
G1 F2700 X139.000 Y174.122 E1930.37197
G0 F12000 X138.500 Y174.411
G1 F2700 X138.500 Y130.591 E1932.19379
G0 F12000 X138.000 Y130.302
G1 F2700 X138.000 Y174.700 E1934.03965
G0 F12000 X137.500 Y174.988
G1 F2700 X137.500 Y130.014 E1935.90945
G0 F12000 X137.000 Y129.725
G1 F2700 X137.000 Y175.277 E1937.80328
G0 F12000 X136.500 Y175.566
G1 F2700 X136.500 Y129.436 E1939.72114
G0 F12000 X136.000 Y129.148
G1 F2700 X136.000 Y175.854 E1941.66295
G0 F12000 X135.500 Y176.143
G1 F2700 X135.500 Y128.859 E1943.62879
G0 F12000 X135.000 Y128.570
G1 F2700 X135.000 Y176.432 E1945.61866
G0 F12000 X134.500 Y176.721
G1 F2700 X134.500 Y128.281 E1947.63256
G0 F12000 X134.000 Y127.993
G1 F2700 X134.000 Y177.009 E1949.67041
G0 F12000 X133.500 Y177.298
G1 F2700 X133.500 Y127.704 E1951.73229
G0 F12000 X133.000 Y127.415
G1 F2700 X133.000 Y177.587 E1953.81820
G0 F12000 X132.500 Y177.875
G1 F2700 X132.500 Y127.127 E1955.92806
G0 F12000 X132.000 Y126.838
G1 F2700 X132.000 Y178.164 E1958.06194
G0 F12000 X131.500 Y178.453
G1 F2700 X131.500 Y126.549 E1960.21986
G0 F12000 X131.000 Y126.260
G1 F2700 X131.000 Y178.742 E1962.40181
G0 F12000 X130.500 Y179.030
G1 F2700 X130.500 Y125.972 E1964.60770
G0 F12000 X130.000 Y125.683
G1 F2700 X130.000 Y179.319 E1966.83763
G0 F12000 X129.500 Y179.608
G1 F2700 X129.500 Y125.394 E1969.09159
G0 F12000 X129.000 Y125.106
G1 F2700 X129.000 Y179.897 E1971.36953
G0 F12000 X128.500 Y180.185
G1 F2700 X128.500 Y124.817 E1973.67147
G0 F12000 X128.000 Y124.528
G1 F2700 X128.000 Y180.474 E1975.99743
G0 F12000 X127.500 Y180.763
G1 F2700 X127.500 Y124.239 E1978.34743
G0 F12000 X127.000 Y123.951
G1 F2700 X127.000 Y181.051 E1980.72137
G0 F12000 X126.500 Y181.340
G1 F2700 X126.500 Y123.662 E1983.11934
G0 F12000 X126.000 Y123.373
G1 F2700 X126.000 Y181.629 E1985.54134
G0 F12000 X125.500 Y181.918
G1 F2700 X125.500 Y123.085 E1987.98733
G0 F12000 X125.000 Y122.796
G1 F2700 X125.000 Y182.206 E1990.45732
G0 F12000 X124.500 Y182.495
G1 F2700 X124.500 Y122.507 E1992.95133
G0 F12000 X124.000 Y122.218
G1 F2700 X124.000 Y182.784 E1995.46937
G0 F12000 X123.500 Y183.072
G1 F2700 X123.500 Y121.930 E1998.01136
G0 F12000 X123.000 Y121.641
G1 F2700 X123.000 Y183.361 E2000.57738
G0 F12000 X122.500 Y183.650
G1 F2700 X122.500 Y121.352 E2003.16743
G0 F12000 X122.000 Y121.064
G1 F2700 X122.000 Y183.939 E2005.78147
G0 F12000 X121.500 Y184.116
G1 F2700 X121.500 Y120.884 E2008.41035
G0 F12000 X121.000 Y120.884
G1 F2700 X121.000 Y184.116 E2011.03923
G0 F12000 X120.500 Y184.116
G1 F2700 X120.500 Y120.884 E2013.66811
G0 F12000 X120.000 Y120.884
G1 F2700 X120.000 Y184.116 E2016.29699
G0 F12000 X119.500 Y184.116
G1 F2700 X119.500 Y120.884 E2018.92587
G0 F12000 X119.000 Y121.062
G1 F2700 X119.000 Y183.936 E2021.53987
G0 F12000 X118.500 Y183.647
G1 F2700 X118.500 Y121.351 E2024.12983
G0 F12000 X118.000 Y121.639
G1 F2700 X118.000 Y183.358 E2026.69581
G0 F12000 X117.500 Y183.070
G1 F2700 X117.500 Y121.928 E2029.23780
G0 F12000 X117.000 Y122.217
G1 F2700 X117.000 Y182.781 E2031.75576
G0 F12000 X116.500 Y182.492
G1 F2700 X116.500 Y122.506 E2034.24969
G0 F12000 X116.000 Y122.794
G1 F2700 X116.000 Y182.204 E2036.71967
G0 F12000 X115.500 Y181.915
G1 F2700 X115.500 Y123.083 E2039.16562
G0 F12000 X115.000 Y123.372
G1 F2700 X115.000 Y181.626 E2041.58754
G0 F12000 X114.500 Y181.337
G1 F2700 X114.500 Y123.661 E2043.98543
G0 F12000 X114.000 Y123.949
G1 F2700 X114.000 Y181.049 E2046.35937
G0 F12000 X113.500 Y180.760
G1 F2700 X113.500 Y124.238 E2048.70928
G0 F12000 X113.000 Y124.527
G1 F2700 X113.000 Y180.471 E2051.03516
G0 F12000 X112.500 Y180.183
G1 F2700 X112.500 Y124.815 E2053.33710
G0 F12000 X112.000 Y125.104
G1 F2700 X112.000 Y179.894 E2055.61500
G0 F12000 X111.500 Y179.605
G1 F2700 X111.500 Y125.393 E2057.86887
G0 F12000 X111.000 Y125.682
G1 F2700 X111.000 Y179.316 E2060.09872
G0 F12000 X110.500 Y179.028
G1 F2700 X110.500 Y125.970 E2062.30461
G0 F12000 X110.000 Y126.259
G1 F2700 X110.000 Y178.739 E2064.48648
G0 F12000 X109.500 Y178.450
G1 F2700 X109.500 Y126.548 E2066.64431
G0 F12000 X109.000 Y126.837
G1 F2700 X109.000 Y178.162 E2068.77816
G0 F12000 X108.500 Y177.873
G1 F2700 X108.500 Y127.125 E2070.88801
G0 F12000 X108.000 Y127.414
G1 F2700 X108.000 Y177.584 E2072.97384
G0 F12000 X107.500 Y177.295
G1 F2700 X107.500 Y127.703 E2075.03564
G0 F12000 X107.000 Y127.991
G1 F2700 X107.000 Y177.007 E2077.07348
G0 F12000 X106.500 Y176.718
G1 F2700 X106.500 Y128.280 E2079.08730
G0 F12000 X106.000 Y128.569
G1 F2700 X106.000 Y176.429 E2081.07709
G0 F12000 X105.500 Y176.141
G1 F2700 X105.500 Y128.858 E2083.04289
G0 F12000 X105.000 Y129.146
G1 F2700 X105.000 Y175.852 E2084.98470
G0 F12000 X104.500 Y175.563
G1 F2700 X104.500 Y129.435 E2086.90248
G0 F12000 X104.000 Y129.724
G1 F2700 X104.000 Y175.274 E2088.79623
G0 F12000 X103.500 Y174.986
G1 F2700 X103.500 Y130.013 E2090.66599
G0 F12000 X103.000 Y130.301
G1 F2700 X103.000 Y174.697 E2092.51176
G0 F12000 X102.500 Y174.408
G1 F2700 X102.500 Y130.590 E2094.33350
G0 F12000 X102.000 Y130.879
G1 F2700 X102.000 Y174.120 E2096.13125
G0 F12000 X101.500 Y173.831
G1 F2700 X101.500 Y131.168 E2097.90497
G0 F12000 X101.000 Y131.456
G1 F2700 X101.000 Y173.542 E2099.65470
G0 F12000 X100.500 Y173.253
G1 F2700 X100.500 Y131.745 E2101.38041
G0 F12000 X100.000 Y132.034
G1 F2700 X100.000 Y172.965 E2103.08212
G0 F12000 X99.500 Y172.676
G1 F2700 X99.500 Y132.322 E2104.75984
G0 F12000 X99.000 Y132.611
G1 F2700 X99.000 Y172.387 E2106.41354
G0 F12000 X98.500 Y172.099
G1 F2700 X98.500 Y132.900 E2108.04324
G0 F12000 X98.000 Y133.189
G1 F2700 X98.000 Y171.810 E2109.64892
G0 F12000 X97.500 Y171.521
G1 F2700 X97.500 Y133.477 E2111.23060
G0 F12000 X97.000 Y133.766
G1 F2700 X97.000 Y171.232 E2112.78826
G0 F12000 X96.500 Y170.944
G1 F2700 X96.500 Y134.055 E2114.32192
G0 F12000 X96.000 Y134.344
G1 F2700 X96.000 Y170.655 E2115.83156
G0 F12000 X95.500 Y170.366
G1 F2700 X95.500 Y134.632 E2117.31721
G0 F12000 X95.000 Y134.921
G1 F2700 X95.000 Y170.078 E2118.77887
G0 F12000 X94.500 Y169.789
G1 F2700 X94.500 Y135.210 E2120.21649
G0 F12000 X94.000 Y135.499
G1 F2700 X94.000 Y169.500 E2121.63009
G0 F12000 X93.500 Y168.963
G1 F2700 X93.500 Y136.036 E2122.99904
G0 F12000 X93.000 Y136.900
G1 F2700 X93.000 Y168.098 E2124.29610
G1 F2100 E2123.89610
G0 F12000 X156.350 Y167.323
;TYPE:WALL-INNER
G1 F2100 E2124.29610
G1 F2700 X156.350 Y137.677 E2125.52864
G1 X157.588 Y135.534 E2125.63153
G1 X183.262 Y120.709 E2126.86410
G1 X185.735 Y120.709 E2126.96692
G1 X211.413 Y135.536 E2128.19968
G1 X211.971 Y136.499 E2128.24595
G1 X212.650 Y137.677 E2128.30248
G1 X212.650 Y167.325 E2129.53510
G1 X211.412 Y169.465 E2129.63788
G1 X185.737 Y184.291 E2130.87051
G1 X183.264 Y184.291 E2130.97333
G1 X157.586 Y169.464 E2132.20609
G1 X157.028 Y168.500 E2132.25239
G1 X156.350 Y167.323 E2132.30887
G0 F12000 X155.850 Y167.459
;TYPE:WALL-OUTER
G1 F2700 X155.850 Y137.543 E2133.55263
G1 X157.222 Y135.168 E2133.66666
G1 X183.128 Y120.209 E2134.91037
G1 X185.869 Y120.209 E2135.02433
G1 X211.779 Y135.170 E2136.26823
G1 X213.150 Y137.541 E2136.38210
G1 X213.150 Y167.459 E2137.62594
G1 X211.778 Y169.831 E2137.73987
G1 X185.871 Y184.791 E2138.98363
G1 X183.130 Y184.791 E2139.09759
G1 X157.220 Y169.830 E2140.34149
G1 X155.850 Y167.459 E2140.45534
G0 F12000 X157.000 Y168.099
;TYPE:SKIN
G1 F2700 X157.000 Y136.901 E2141.75240
G0 F12000 X157.500 Y136.035
G1 F2700 X157.500 Y168.965 E2143.12147
G0 F12000 X158.000 Y169.501
G1 F2700 X158.000 Y135.498 E2144.53515
G0 F12000 X158.500 Y135.209
G1 F2700 X158.500 Y169.789 E2145.97282
G0 F12000 X159.000 Y170.078
G1 F2700 X159.000 Y134.920 E2147.43452
G0 F12000 X159.500 Y134.631
G1 F2700 X159.500 Y170.367 E2148.92025
G0 F12000 X160.000 Y170.656
G1 F2700 X160.000 Y134.343 E2150.42997
G0 F12000 X160.500 Y134.054
G1 F2700 X160.500 Y170.944 E2151.96367
G0 F12000 X161.000 Y171.233
G1 F2700 X161.000 Y133.765 E2153.52141
G0 F12000 X161.500 Y133.476
G1 F2700 X161.500 Y171.522 E2155.10318
G0 F12000 X162.000 Y171.810
G1 F2700 X162.000 Y133.188 E2156.70890
G0 F12000 X162.500 Y132.899
G1 F2700 X162.500 Y172.099 E2158.33864
G0 F12000 X163.000 Y172.388
G1 F2700 X163.000 Y132.610 E2159.99242
G0 F12000 X163.500 Y132.322
G1 F2700 X163.500 Y172.677 E2161.67019
G0 F12000 X164.000 Y172.965
G1 F2700 X164.000 Y132.033 E2163.37194
G0 F12000 X164.500 Y131.744
G1 F2700 X164.500 Y173.254 E2165.09773
G0 F12000 X165.000 Y173.543
G1 F2700 X165.000 Y131.455 E2166.84754
G0 F12000 X165.500 Y131.167
G1 F2700 X165.500 Y173.831 E2168.62131
G0 F12000 X166.000 Y174.120
G1 F2700 X166.000 Y130.878 E2170.41910
G0 F12000 X166.500 Y130.589
G1 F2700 X166.500 Y174.409 E2172.24092
G0 F12000 X167.000 Y174.698
G1 F2700 X167.000 Y130.300 E2174.08678
G0 F12000 X167.500 Y130.012
G1 F2700 X167.500 Y174.986 E2175.95658
G0 F12000 X168.000 Y175.275
G1 F2700 X168.000 Y129.723 E2177.85041
G0 F12000 X168.500 Y129.434
G1 F2700 X168.500 Y175.564 E2179.76827
G0 F12000 X169.000 Y175.852
G1 F2700 X169.000 Y129.146 E2181.71008
G0 F12000 X169.500 Y128.857
G1 F2700 X169.500 Y176.141 E2183.67592
G0 F12000 X170.000 Y176.430
G1 F2700 X170.000 Y128.568 E2185.66580
G0 F12000 X170.500 Y128.279
G1 F2700 X170.500 Y176.719 E2187.67970
G0 F12000 X171.000 Y177.007
G1 F2700 X171.000 Y127.991 E2189.71754
G0 F12000 X171.500 Y127.702
G1 F2700 X171.500 Y177.296 E2191.77942
G0 F12000 X172.000 Y177.585
G1 F2700 X172.000 Y127.413 E2193.86533
G0 F12000 X172.500 Y127.125
G1 F2700 X172.500 Y177.873 E2195.97519
G0 F12000 X173.000 Y178.162
G1 F2700 X173.000 Y126.836 E2198.10908
G0 F12000 X173.500 Y126.547
G1 F2700 X173.500 Y178.451 E2200.26699
G0 F12000 X174.000 Y178.740
G1 F2700 X174.000 Y126.258 E2202.44894
G0 F12000 X174.500 Y125.970
G1 F2700 X174.500 Y179.028 E2204.65484
G0 F12000 X175.000 Y179.317
G1 F2700 X175.000 Y125.681 E2206.88476
G0 F12000 X175.500 Y125.392
G1 F2700 X175.500 Y179.606 E2209.13872
G0 F12000 X176.000 Y179.894
G1 F2700 X176.000 Y125.103 E2211.41666
G0 F12000 X176.500 Y124.815
G1 F2700 X176.500 Y180.183 E2213.71860
G0 F12000 X177.000 Y180.472
G1 F2700 X177.000 Y124.526 E2216.04456
G0 F12000 X177.500 Y124.237
G1 F2700 X177.500 Y180.761 E2218.39456
G0 F12000 X178.000 Y181.049
G1 F2700 X178.000 Y123.949 E2220.76850
G0 F12000 X178.500 Y123.660
G1 F2700 X178.500 Y181.338 E2223.16647
G0 F12000 X179.000 Y181.627
G1 F2700 X179.000 Y123.371 E2225.58848
G0 F12000 X179.500 Y123.082
G1 F2700 X179.500 Y181.915 E2228.03447
G0 F12000 X180.000 Y182.204
G1 F2700 X180.000 Y122.794 E2230.50445
G0 F12000 X180.500 Y122.505
G1 F2700 X180.500 Y182.493 E2232.99846
G0 F12000 X181.000 Y182.782
G1 F2700 X181.000 Y122.216 E2235.51650
G0 F12000 X181.500 Y121.928
G1 F2700 X181.500 Y183.070 E2238.05849
G0 F12000 X182.000 Y183.359
G1 F2700 X182.000 Y121.639 E2240.62451
G0 F12000 X182.500 Y121.350
G1 F2700 X182.500 Y183.648 E2243.21456
G0 F12000 X183.000 Y183.936
G1 F2700 X183.000 Y121.061 E2245.82860
G0 F12000 X183.500 Y120.884
G1 F2700 X183.500 Y184.116 E2248.45748
G0 F12000 X184.000 Y184.116
G1 F2700 X184.000 Y120.884 E2251.08636
G0 F12000 X184.500 Y120.884
G1 F2700 X184.500 Y184.116 E2253.71524
G0 F12000 X185.000 Y184.116
G1 F2700 X185.000 Y120.884 E2256.34412
G0 F12000 X185.500 Y120.884
G1 F2700 X185.500 Y184.116 E2258.97300
G0 F12000 X186.000 Y183.938
G1 F2700 X186.000 Y121.064 E2261.58700
G0 F12000 X186.500 Y121.353
G1 F2700 X186.500 Y183.649 E2264.17697
G0 F12000 X187.000 Y183.361
G1 F2700 X187.000 Y121.642 E2266.74295
G0 F12000 X187.500 Y121.930
G1 F2700 X187.500 Y183.072 E2269.28493
G0 F12000 X188.000 Y182.783
G1 F2700 X188.000 Y122.219 E2271.80289
G0 F12000 X188.500 Y122.508
G1 F2700 X188.500 Y182.494 E2274.29682
G0 F12000 X189.000 Y182.206
G1 F2700 X189.000 Y122.796 E2276.76680
G0 F12000 X189.500 Y123.085
G1 F2700 X189.500 Y181.917 E2279.21275
G0 F12000 X190.000 Y181.628
G1 F2700 X190.000 Y123.374 E2281.63467
G0 F12000 X190.500 Y123.663
G1 F2700 X190.500 Y181.339 E2284.03256
G0 F12000 X191.000 Y181.051
G1 F2700 X191.000 Y123.951 E2286.40650
G0 F12000 X191.500 Y124.240
G1 F2700 X191.500 Y180.762 E2288.75642
G0 F12000 X192.000 Y180.473
G1 F2700 X192.000 Y124.529 E2291.08230
G0 F12000 X192.500 Y124.817
G1 F2700 X192.500 Y180.185 E2293.38423
G0 F12000 X193.000 Y179.896
G1 F2700 X193.000 Y125.106 E2295.66213
G0 F12000 X193.500 Y125.395
G1 F2700 X193.500 Y179.607 E2297.91601
G0 F12000 X194.000 Y179.318
G1 F2700 X194.000 Y125.684 E2300.14585
G0 F12000 X194.500 Y125.972
G1 F2700 X194.500 Y179.030 E2302.35174
G0 F12000 X195.000 Y178.741
G1 F2700 X195.000 Y126.261 E2304.53361
G0 F12000 X195.500 Y126.550
G1 F2700 X195.500 Y178.452 E2306.69144
G0 F12000 X196.000 Y178.163
G1 F2700 X196.000 Y126.838 E2308.82529
G0 F12000 X196.500 Y127.127
G1 F2700 X196.500 Y177.875 E2310.93515
G0 F12000 X197.000 Y177.586
G1 F2700 X197.000 Y127.416 E2313.02097
G0 F12000 X197.500 Y127.705
G1 F2700 X197.500 Y177.297 E2315.08277
G0 F12000 X198.000 Y177.009
G1 F2700 X198.000 Y127.993 E2317.12062
G0 F12000 X198.500 Y128.282
G1 F2700 X198.500 Y176.720 E2319.13443
G0 F12000 X199.000 Y176.431
G1 F2700 X199.000 Y128.571 E2321.12422
G0 F12000 X199.500 Y128.859
G1 F2700 X199.500 Y176.142 E2323.09002
G0 F12000 X200.000 Y175.854
G1 F2700 X200.000 Y129.148 E2325.03183
G0 F12000 X200.500 Y129.437
G1 F2700 X200.500 Y175.565 E2326.94961
G0 F12000 X201.000 Y175.276
G1 F2700 X201.000 Y129.726 E2328.84336
G0 F12000 X201.500 Y130.014
G1 F2700 X201.500 Y174.987 E2330.71312
G0 F12000 X202.000 Y174.699
G1 F2700 X202.000 Y130.303 E2332.55889
G0 F12000 X202.500 Y130.592
G1 F2700 X202.500 Y174.410 E2334.38063
G0 F12000 X203.000 Y174.121
G1 F2700 X203.000 Y130.880 E2336.17838
G0 F12000 X203.500 Y131.169
G1 F2700 X203.500 Y173.832 E2337.95210
G0 F12000 X204.000 Y173.544
G1 F2700 X204.000 Y131.458 E2339.70184
G0 F12000 X204.500 Y131.747
G1 F2700 X204.500 Y173.255 E2341.42754
G0 F12000 X205.000 Y172.966
G1 F2700 X205.000 Y132.035 E2343.12925
G0 F12000 X205.500 Y132.324
G1 F2700 X205.500 Y172.678 E2344.80698
G0 F12000 X206.000 Y172.389
G1 F2700 X206.000 Y132.613 E2346.46067
G0 F12000 X206.500 Y132.901
G1 F2700 X206.500 Y172.100 E2348.09038
G0 F12000 X207.000 Y171.811
G1 F2700 X207.000 Y133.190 E2349.69605
G0 F12000 X207.500 Y133.479
G1 F2700 X207.500 Y171.523 E2351.27774
G0 F12000 X208.000 Y171.234
G1 F2700 X208.000 Y133.768 E2352.83539
G0 F12000 X208.500 Y134.056
G1 F2700 X208.500 Y170.945 E2354.36906
G0 F12000 X209.000 Y170.656
G1 F2700 X209.000 Y134.345 E2355.87869
G0 F12000 X209.500 Y134.634
G1 F2700 X209.500 Y170.368 E2357.36434
G0 F12000 X210.000 Y170.079
G1 F2700 X210.000 Y134.922 E2358.82600
G0 F12000 X210.500 Y135.211
G1 F2700 X210.500 Y169.790 E2360.26363
G0 F12000 X211.000 Y169.501
G1 F2700 X211.000 Y135.500 E2361.67722
G0 F12000 X211.500 Y136.037
G1 F2700 X211.500 Y168.964 E2363.04617
G0 F12000 X212.000 Y168.100
G1 F2700 X212.000 Y136.902 E2364.34323
;LAYER:5
M106 S51
G1 F2100 E2363.94323
G0 F12000 X148.850 Y137.622 Z1.200
;TYPE:WALL-INNER
G1 F2100 E2364.34323
G1 F2700 X148.850 Y167.376 E2365.58026
G1 X147.560 Y169.612 E2365.68758
G1 X121.789 Y184.491 E2366.92477
G1 X119.212 Y184.491 E2367.03191
G1 X93.440 Y169.611 E2368.26915
G1 X92.150 Y167.378 E2368.37637
G1 X92.150 Y137.624 E2369.61340
G1 X93.441 Y135.388 E2369.72074
G1 X119.212 Y120.509 E2370.95793
G1 X121.789 Y120.509 E2371.06507
G1 X147.561 Y135.389 E2372.30231
G1 X148.850 Y137.622 E2372.40951
G1 F2100 E2372.00951
G0 F12000 X127.600 Y147.751
G1 F2100 E2372.40951
G1 F2700 X127.161 Y146.984 E2372.44625
G1 X127.015 Y146.755 E2372.45754
G1 X126.646 Y146.263 E2372.48311
G1 X126.176 Y145.712 E2372.51322
G1 X125.482 Y145.037 E2372.55347
G1 X125.296 Y144.888 E2372.56338
G1 X124.724 Y144.553 E2372.59093
G1 X124.041 Y144.227 E2372.62240
G1 X123.114 Y143.890 E2372.66341
G1 X122.076 Y143.639 E2372.70781
G1 X121.092 Y143.520 E2372.74901
G1 X120.133 Y143.510 E2372.78889
G1 X119.994 Y143.514 E2372.79467
G1 X119.130 Y143.608 E2372.83080
G1 X118.077 Y143.832 E2372.87556
G1 X117.155 Y144.146 E2372.91605
G1 X116.317 Y144.538 E2372.95452
G1 X116.147 Y144.622 E2372.96240
G1 X115.353 Y145.118 E2373.00132
G1 X114.622 Y145.690 E2373.03991
G1 X113.976 Y146.311 E2373.07717
G1 X113.770 Y146.524 E2373.08949
G1 X113.233 Y147.192 E2373.12512
G1 X112.881 Y147.711 E2373.15119
G1 X112.764 Y147.912 E2373.16086
G1 X112.515 Y148.530 E2373.18856
G1 X112.296 Y149.248 E2373.21977
G1 X112.111 Y150.161 E2373.25850
G1 X112.025 Y151.112 E2373.29820
G1 X112.023 Y151.198 E2373.30178
G1 X112.045 Y152.063 E2373.33775
G1 X112.177 Y153.030 E2373.37833
G1 X112.409 Y153.932 E2373.41705
G1 X112.762 Y154.844 E2373.45771
G1 X113.195 Y155.660 E2373.49611
G1 X113.754 Y156.465 E2373.53686
G1 X114.363 Y157.143 E2373.57475
G1 X115.100 Y157.787 E2373.61544
G1 X115.832 Y158.275 E2373.65201
G1 X116.365 Y158.564 E2373.67722
G1 X116.838 Y158.773 E2373.69872
G1 X117.625 Y159.032 E2373.73317
G1 X118.339 Y159.184 E2373.76352
G1 X118.914 Y159.250 E2373.78758
G1 X119.483 Y159.266 E2373.81124
G1 X119.967 Y159.323 E2373.83151
G1 X120.511 Y159.344 E2373.85414
G1 X121.319 Y159.295 E2373.88779
G1 X122.082 Y159.152 E2373.92007
G1 X122.393 Y159.075 E2373.93339
G1 X122.962 Y158.882 E2373.95837
G1 X123.762 Y158.516 E2373.99494
G1 X124.260 Y158.209 E2374.01927
G1 X124.464 Y158.076 E2374.02939
G1 X124.889 Y157.853 E2374.04935
G1 X125.351 Y157.553 E2374.07225
G1 X125.774 Y157.233 E2374.09430
G1 X126.465 Y156.589 E2374.13357
G1 X126.815 Y156.186 E2374.15576
G1 X127.132 Y155.759 E2374.17787
G1 X127.619 Y154.950 E2374.21713
G1 X127.879 Y154.383 E2374.24306
G1 X128.165 Y153.569 E2374.27893
G1 X128.386 Y152.553 E2374.32216
G1 X128.463 Y151.625 E2374.36088
G1 X128.466 Y151.476 E2374.36707
G1 X128.423 Y150.552 E2374.40553
G1 X128.267 Y149.625 E2374.44461
G1 X128.009 Y148.737 E2374.48306
G1 X127.600 Y147.751 E2374.52744
G0 F12000 X127.150 Y147.972
;TYPE:WALL-OUTER
G1 F2700 X126.733 Y147.243 E2374.56235
G1 X126.255 Y146.576 E2374.59647
G1 X125.811 Y146.054 E2374.62496
G1 X125.151 Y145.412 E2374.66324
G1 X125.012 Y145.301 E2374.67064
G1 X124.489 Y144.995 E2374.69583
G1 X123.848 Y144.688 E2374.72538
G1 X122.969 Y144.369 E2374.76425
G1 X121.987 Y144.132 E2374.80625
G1 X121.059 Y144.020 E2374.84511
G1 X120.138 Y144.010 E2374.88341
G1 X120.029 Y144.013 E2374.88794
G1 X119.209 Y144.103 E2374.92224
G1 X118.210 Y144.315 E2374.96469
G1 X117.342 Y144.611 E2375.00282
G1 X116.534 Y144.989 E2375.03991
G1 X116.391 Y145.059 E2375.04653
G1 X115.633 Y145.533 E2375.08370
G1 X114.942 Y146.075 E2375.12021
G1 X114.758 Y146.233 E2375.13029
G1 X114.333 Y146.661 E2375.15537
G1 X114.145 Y146.855 E2375.16660
G1 X113.636 Y147.489 E2375.20040
G1 X113.304 Y147.978 E2375.22498
G1 X113.214 Y148.133 E2375.23243
G1 X112.987 Y148.697 E2375.25770
G1 X112.781 Y149.371 E2375.28700
G1 X112.606 Y150.234 E2375.32361
G1 X112.524 Y151.141 E2375.36148
G1 X112.523 Y151.197 E2375.36381
G1 X112.544 Y152.023 E2375.39816
G1 X112.668 Y152.934 E2375.43638
G1 X112.886 Y153.779 E2375.47266
G1 X113.217 Y154.636 E2375.51086
G1 X113.622 Y155.399 E2375.54677
G1 X114.147 Y156.154 E2375.58500
G1 X114.715 Y156.786 E2375.62033
G1 X115.405 Y157.389 E2375.65843
G1 X116.091 Y157.846 E2375.69270
G1 X116.586 Y158.115 E2375.71612
G1 X117.018 Y158.306 E2375.73576
G1 X117.756 Y158.549 E2375.76806
G1 X118.420 Y158.690 E2375.79628
G1 X118.949 Y158.751 E2375.81842
G1 X119.515 Y158.767 E2375.84196
G1 X120.006 Y158.824 E2375.86251
G1 X120.505 Y158.843 E2375.88328
G1 X121.258 Y158.798 E2375.91464
G1 X121.976 Y158.663 E2375.94501
G1 X122.252 Y158.595 E2375.95683
G1 X122.777 Y158.417 E2375.97988
G1 X123.526 Y158.074 E2376.01413
G1 X123.993 Y157.786 E2376.03694
G1 X124.212 Y157.644 E2376.04779
G1 X124.636 Y157.421 E2376.06771
G1 X125.064 Y157.143 E2376.08892
G1 X125.452 Y156.850 E2376.10914
G1 X126.105 Y156.241 E2376.14626
G1 X126.425 Y155.873 E2376.16654
G1 X126.716 Y155.480 E2376.18687
G1 X127.176 Y154.716 E2376.22394
G1 X127.415 Y154.196 E2376.24774
G1 X127.683 Y153.432 E2376.28140
G1 X127.891 Y152.479 E2376.32195
G1 X127.964 Y151.600 E2376.35862
G1 X127.966 Y151.483 E2376.36349
G1 X127.925 Y150.605 E2376.40003
G1 X127.779 Y149.737 E2376.43662
G1 X127.536 Y148.903 E2376.47274
G1 X127.150 Y147.972 E2376.51464
G1 F2100 E2376.11464
G0 F12000 X147.927 Y135.023
G1 F2100 E2376.51464
G1 F2700 X149.350 Y137.488 E2376.63297
G1 X149.350 Y167.510 E2377.88114
G1 X147.926 Y169.978 E2377.99961
G1 X121.923 Y184.991 E2379.24793
G1 X119.078 Y184.991 E2379.36621
G1 X93.074 Y169.977 E2380.61460
G1 X91.650 Y167.512 E2380.73295
G1 X91.650 Y137.490 E2381.98112
G1 X93.075 Y135.022 E2382.09960
G1 X119.078 Y120.009 E2383.34793
G1 X121.923 Y120.009 E2383.46621
G1 X147.927 Y135.023 E2384.71459
G0 F12000 X147.519 Y136.169
;TYPE:FILL
G1 F2700 X127.717 Y147.602 E2385.66523
G1 F2100 E2385.26523
G0 F12000 X121.130 Y143.347
G1 F2100 E2385.66523
G1 F2700 X121.130 Y120.934 E2386.59706
G1 F2100 E2386.19706
G0 F12000 X128.187 Y124.693
G1 F2100 E2386.59706
G1 F2700 X92.575 Y145.254 E2388.30668
G1 F2100 E2387.90668
G0 F12000 X92.574 Y148.424
G1 F2100 E2388.30668
G1 F2700 X137.989 Y174.644 E2390.48691
G1 F2100 E2390.08691
G0 F12000 X130.932 Y178.722
G1 F2100 E2390.48691
G1 F2700 X130.932 Y126.279 E2392.66724
G1 F2100 E2392.26724
G0 F12000 X137.989 Y130.353
G1 F2100 E2392.66724
G1 F2700 X92.575 Y156.573 E2394.84742
G1 F2100 E2394.44742
G0 F12000 X92.574 Y159.742
G1 F2100 E2394.84742
G1 F2700 X128.187 Y180.304 E2396.55711
G1 F2100 E2396.15711
G0 F12000 X121.130 Y184.066
G1 F2100 E2396.55711
G1 F2700 X121.130 Y159.876 E2397.56281
G1 F2100 E2397.16281
G0 F12000 X127.415 Y157.221
G1 F2100 E2397.56281
G1 F2700 X147.520 Y168.829 E2398.52800
G1 F2100 E2398.12800
G0 F12000 X140.734 Y173.063
G1 F2100 E2398.52800
G1 F2700 X140.734 Y131.938 E2400.23778
G1 F2100 E2399.83778
G0 F12000 X148.424 Y146.714
G1 F2100 E2400.23778
G1 F2700 X111.548 Y125.423 E2402.00809
G0 F12000 X111.328 Y125.551
G1 F2700 X111.328 Y179.448 E2404.24887
G0 F12000 X111.546 Y179.575
G1 F2700 X148.423 Y158.284 E2406.01922
G0 F12000 X148.424 Y158.032
G1 F2700 X101.746 Y131.083 E2408.26007
G0 F12000 X101.526 Y131.211
G1 F2700 X101.526 Y173.788 E2410.03022
G0 F12000 X101.745 Y173.915
G1 F2700 X148.423 Y146.965 E2412.27109
G1 F2100 E2411.87109
G0 F12000 X112.336 Y148.515
G1 F2100 E2412.27109
G1 F2700 X92.847 Y137.263 E2413.20670
G1 F2100 E2412.80670
G0 F12000 X113.205 Y155.980
G1 F2100 E2413.20670
G1 F2700 X92.847 Y167.734 E2414.18403
G0 F12000 X92.710 Y168.000
;TYPE:SKIN
G1 F2700 X93.751 Y168.000 E2414.22731
G0 F12000 X94.040 Y168.500
G1 F2700 X92.999 Y168.500 E2414.27059
G0 F12000 X93.288 Y169.000
G1 F2700 X94.533 Y169.000 E2414.32235
G0 F12000 X95.399 Y169.500
G1 F2700 X93.598 Y169.500 E2414.39723
G0 F12000 X94.464 Y170.000
G1 F2700 X96.265 Y170.000 E2414.47210
G0 F12000 X97.131 Y170.500
G1 F2700 X95.330 Y170.500 E2414.54698
G0 F12000 X96.196 Y171.000
G1 F2700 X97.997 Y171.000 E2414.62186
G0 F12000 X98.863 Y171.500
G1 F2700 X97.062 Y171.500 E2414.69673
G0 F12000 X97.928 Y172.000
G1 F2700 X99.729 Y172.000 E2414.77161
G0 F12000 X100.595 Y172.500
G1 F2700 X98.795 Y172.500 E2414.84645
G0 F12000 X99.661 Y173.000
G1 F2700 X101.461 Y173.000 E2414.92128
G0 F12000 X102.327 Y173.500
G1 F2700 X100.527 Y173.500 E2414.99612
G0 F12000 X101.393 Y174.000
G1 F2700 X103.193 Y174.000 E2415.07095
G0 F12000 X104.059 Y174.500
G1 F2700 X102.259 Y174.500 E2415.14579
G0 F12000 X103.125 Y175.000
G1 F2700 X104.925 Y175.000 E2415.22062
G0 F12000 X105.791 Y175.500
G1 F2700 X103.991 Y175.500 E2415.29546
G0 F12000 X104.857 Y176.000
G1 F2700 X106.657 Y176.000 E2415.37029
G0 F12000 X107.523 Y176.500
G1 F2700 X105.723 Y176.500 E2415.44513
G0 F12000 X106.589 Y177.000
G1 F2700 X108.389 Y177.000 E2415.51996
G0 F12000 X109.255 Y177.500
G1 F2700 X107.455 Y177.500 E2415.59480
G0 F12000 X108.321 Y178.000
G1 F2700 X110.121 Y178.000 E2415.66963
G0 F12000 X110.987 Y178.500
G1 F2700 X109.187 Y178.500 E2415.74447
G0 F12000 X110.053 Y179.000
G1 F2700 X111.854 Y179.000 E2415.81935
G0 F12000 X112.720 Y179.500
G1 F2700 X110.919 Y179.500 E2415.89422
G1 F2100 E2415.49422
G0 F12000 X118.726 Y160.000
G1 F2100 E2415.89422
G1 F2700 X124.508 Y160.000 E2416.13461
G1 F2100 E2415.73461
G0 F12000 X122.366 Y160.500
G1 F2100 E2416.13461
G1 F2700 X120.827 Y160.500 E2416.19860
G1 F2100 E2415.79860
G0 F12000 X130.878 Y178.000
G1 F2100 E2416.19860
G1 F2700 X132.678 Y178.000 E2416.27343
G0 F12000 X131.812 Y178.500
G1 F2700 X130.012 Y178.500 E2416.34827
G0 F12000 X129.146 Y179.000
G1 F2700 X130.946 Y179.000 E2416.42310
G0 F12000 X130.080 Y179.500
G1 F2700 X128.280 Y179.500 E2416.49794
G1 F2100 E2416.09794
G0 F12000 X131.744 Y177.500
G1 F2100 E2416.49794
G1 F2700 X133.544 Y177.500 E2416.57277
G0 F12000 X134.410 Y177.000
G1 F2700 X132.610 Y177.000 E2416.64761
G0 F12000 X133.476 Y176.500
G1 F2700 X135.276 Y176.500 E2416.72244
G0 F12000 X136.142 Y176.000
G1 F2700 X134.342 Y176.000 E2416.79728
G0 F12000 X135.208 Y175.500
G1 F2700 X137.008 Y175.500 E2416.87211
G0 F12000 X137.874 Y175.000
G1 F2700 X136.074 Y175.000 E2416.94695
G0 F12000 X136.940 Y174.500
G1 F2700 X138.740 Y174.500 E2417.02178
G0 F12000 X139.606 Y174.000
G1 F2700 X137.806 Y174.000 E2417.09662
G0 F12000 X138.672 Y173.500
G1 F2700 X140.473 Y173.500 E2417.17150
G0 F12000 X141.339 Y173.000
G1 F2700 X139.538 Y173.000 E2417.24637
G0 F12000 X140.403 Y172.500
G1 F2700 X142.205 Y172.500 E2417.32129
G0 F12000 X143.071 Y172.000
G1 F2700 X141.269 Y172.000 E2417.39621
G0 F12000 X142.135 Y171.500
G1 F2700 X143.937 Y171.500 E2417.47113
G0 F12000 X144.803 Y171.000
G1 F2700 X143.001 Y171.000 E2417.54605
G0 F12000 X143.867 Y170.500
G1 F2700 X145.669 Y170.500 E2417.62097
