;-- START GCODE --
;Sliced for Type A Machines Series 1
;Sliced at: Fri 02-12-2016 17:01:39
;Basic settings:
; Layer height: 0.4
; Walls: 1.2
; Fill: 8
; Print Speed: 45
; Support: 0
; Retraction Speed: 35
; Retraction Distance: 0.4
;Print time: 2 hours 1 minutes
;Filament used: 19.866m 59.0g
;Settings based on: Type A Machines Everyday PLA
G21        ;metric values
G90        ;absolute positioning
G28     ;move to endstops
G1 Z15.0 F12000 ;move the platform down 15mm
G1 X150 Y5 F12000 ;center
M140 S50 ;Prep Heat Bed
M109 S215 ;Heat To temp
M190 S50 ;Heat Bed to temp
G1 X150 Y5 Z0.3 ;move the platform to purge extrusion
G92 E0 ;zero the extruded length
G1 F200 X250 E30 ;extrude 30mm of feed stock
G92 E0 ;zero the extruded length again
G1 X150 Y150  Z25 F12000 ;recenter and begin
G1 F12000

;Layer count: 63
;LAYER:0
M107
G0 F12000 X90.563 Y133.989 Z0.400
;TYPE:SKIRT
G1 F1800 X116.623 Y118.943 E3.00255
G1 X119.443 Y117.316 E3.32741
G1 X121.557 Y117.316 E3.53834
G1 X147.624 Y132.364 E6.54160
G1 X150.437 Y133.990 E6.86580
G1 X151.500 Y135.817 E7.07671
G1 X151.500 Y169.183 E10.40599
G1 X150.437 Y171.011 E10.61698
G1 X124.377 Y186.057 E13.61954
G1 X121.557 Y187.684 E13.94439
G1 X119.443 Y187.684 E14.15533
G1 X93.376 Y172.636 E17.15858
G1 X90.563 Y171.010 E17.48278
G1 X89.500 Y169.183 E17.69369
G1 X89.500 Y135.817 E21.02297
G1 X90.563 Y133.989 E21.23396
G0 F12000 X153.500 Y135.817
G1 F1800 X154.563 Y133.989 E21.44496
G1 X180.623 Y118.943 E24.44751
G1 X183.443 Y117.316 E24.77237
G1 X185.557 Y117.316 E24.98330
G1 X211.624 Y132.364 E27.98656
G1 X214.437 Y133.990 E28.31076
G1 X215.500 Y135.817 E28.52167
G1 X215.500 Y169.183 E31.85094
G1 X214.437 Y171.011 E32.06194
G1 X188.377 Y186.057 E35.06450
G1 X185.557 Y187.684 E35.38935
G1 X183.443 Y187.684 E35.60029
G1 X157.376 Y172.636 E38.60354
G1 X154.563 Y171.010 E38.92774
G1 X153.500 Y169.183 E39.13865
G1 X153.500 Y135.817 E42.46793
G1 F2100 E42.06793
G1 Z0.800
G0 F12000 X147.300 Y137.028
;TYPE:WALL-INNER
G1 Z0.400
G1 F2100 E42.46793
G1 F1800 X147.300 Y167.972 E45.55553
G1 X120.500 Y183.445 E48.64333
G1 X93.700 Y167.972 E51.73114
G1 X93.700 Y137.028 E54.81874
G1 X120.500 Y121.555 E57.90654
G1 X147.300 Y137.028 E60.99435
G0 F12000 X147.807 Y136.628
;TYPE:WALL-OUTER
G1 F1800 X147.900 Y136.788 E61.01281
G1 X147.900 Y168.212 E64.14831
G1 X147.807 Y168.372 E64.16678
G1 X120.592 Y184.084 E67.30236
G1 X120.408 Y184.084 E67.32072
G1 X93.193 Y168.372 E70.45631
G1 X93.100 Y168.212 E70.47478
G1 X93.100 Y136.788 E73.61028
G1 X93.193 Y136.628 E73.62874
G1 X120.408 Y120.916 E76.76433
G1 X120.592 Y120.916 E76.78269
G1 X147.807 Y136.628 E79.91828
G0 F12000 X147.000 Y137.098
;TYPE:SKIN
G1 F1800 X147.000 Y167.903 E82.99201
G0 F12000 X146.400 Y168.250
G1 F1800 X146.400 Y136.751 E86.13500
G0 F12000 X145.800 Y136.405
G1 F1800 X145.800 Y168.596 E89.34703
G0 F12000 X145.200 Y168.943
G1 F1800 X145.200 Y136.058 E92.62831
G0 F12000 X144.600 Y135.712
G1 F1800 X144.600 Y169.289 E95.97863
G0 F12000 X144.000 Y169.635
G1 F1800 X144.000 Y135.366 E99.39801
G0 F12000 X143.400 Y135.019
G1 F1800 X143.400 Y169.982 E102.88663
G0 F12000 X142.800 Y170.328
G1 F1800 X142.800 Y134.673 E106.44430
G0 F12000 X142.200 Y134.326
G1 F1800 X142.200 Y170.675 E110.07122
G0 F12000 X141.600 Y171.021
G1 F1800 X141.600 Y133.980 E113.76718
G0 F12000 X141.000 Y133.634
G1 F1800 X141.000 Y171.367 E117.53220
G0 F12000 X140.400 Y171.714
G1 F1800 X140.400 Y133.287 E121.36646
G0 F12000 X139.800 Y132.941
G1 F1800 X139.800 Y172.060 E125.26977
G0 F12000 X139.200 Y172.407
G1 F1800 X139.200 Y132.594 E129.24233
G0 F12000 X138.600 Y132.248
G1 F1800 X138.600 Y172.753 E133.28393
G0 F12000 X138.000 Y173.099
G1 F1800 X138.000 Y131.902 E137.39458
G0 F12000 X137.400 Y131.555
G1 F1800 X137.400 Y173.446 E141.57449
G0 F12000 X136.800 Y173.792
G1 F1800 X136.800 Y131.209 E145.82343
G0 F12000 X136.200 Y130.862
G1 F1800 X136.200 Y174.139 E150.14163
G0 F12000 X135.600 Y174.485
G1 F1800 X135.600 Y130.516 E154.52888
G0 F12000 X135.000 Y130.170
G1 F1800 X135.000 Y174.831 E158.98517
G0 F12000 X134.400 Y175.178
G1 F1800 X134.400 Y129.823 E163.51071
G0 F12000 X133.800 Y129.477
G1 F1800 X133.800 Y175.524 E168.10530
G0 F12000 X133.200 Y175.871
G1 F1800 X133.200 Y129.130 E172.76913
G0 F12000 X132.600 Y128.784
G1 F1800 X132.600 Y176.217 E177.50202
G0 F12000 X132.000 Y176.563
G1 F1800 X132.000 Y128.438 E182.30395
G0 F12000 X131.400 Y128.091
G1 F1800 X131.400 Y176.910 E187.17513
G0 F12000 X130.800 Y177.256
G1 F1800 X130.800 Y127.745 E192.11536
G0 F12000 X130.200 Y127.399
G1 F1800 X130.200 Y177.602 E197.12463
G0 F12000 X129.600 Y177.949
G1 F1800 X129.600 Y127.052 E202.20316
G0 F12000 X129.000 Y126.706
G1 F1800 X129.000 Y178.295 E207.35073
G0 F12000 X128.400 Y178.642
G1 F1800 X128.400 Y126.359 E212.56755
G0 F12000 X127.800 Y126.013
G1 F1800 X127.800 Y178.988 E217.85341
G0 F12000 X127.200 Y179.334
G1 F1800 X127.200 Y125.667 E223.20833
G0 F12000 X126.600 Y125.320
G1 F1800 X126.600 Y179.681 E228.63249
G0 F12000 X126.000 Y180.027
G1 F1800 X126.000 Y124.974 E234.12570
G0 F12000 X125.400 Y124.627
G1 F1800 X125.400 Y180.374 E239.68816
G0 F12000 X124.800 Y180.720
G1 F1800 X124.800 Y124.281 E245.31967
G0 F12000 X124.200 Y123.935
G1 F1800 X124.200 Y181.066 E251.02022
G0 F12000 X123.600 Y181.413
G1 F1800 X123.600 Y123.588 E256.79002
G0 F12000 X123.000 Y123.242
G1 F1800 X123.000 Y181.759 E262.62887
G0 F12000 X122.400 Y182.106
G1 F1800 X122.400 Y122.895 E268.53697
G0 F12000 X121.800 Y122.549
G1 F1800 X121.800 Y182.452 E274.51411
G0 F12000 X121.200 Y182.798
G1 F1800 X121.200 Y122.203 E280.56031
G0 F12000 X120.600 Y121.856
G1 F1800 X120.600 Y183.145 E286.67575
G0 F12000 X120.000 Y182.913
G1 F1800 X120.000 Y122.086 E292.74509
G0 F12000 X119.400 Y122.433
G1 F1800 X119.400 Y182.566 E298.74519
G0 F12000 X118.800 Y182.220
G1 F1800 X118.800 Y122.779 E304.67623
G0 F12000 X118.200 Y123.125
G1 F1800 X118.200 Y181.874 E310.53823
G0 F12000 X117.600 Y181.527
G1 F1800 X117.600 Y123.472 E316.33098
G0 F12000 X117.000 Y123.818
G1 F1800 X117.000 Y181.181 E322.05469
G0 F12000 X116.400 Y180.834
G1 F1800 X116.400 Y124.165 E327.70914
G0 F12000 X115.800 Y124.511
G1 F1800 X115.800 Y180.488 E333.29455
G0 F12000 X115.200 Y180.142
G1 F1800 X115.200 Y124.857 E338.81091
G0 F12000 X114.600 Y125.204
G1 F1800 X114.600 Y179.795 E344.25802
G0 F12000 X114.000 Y179.449
G1 F1800 X114.000 Y125.550 E349.63609
G0 F12000 X113.400 Y125.896
G1 F1800 X113.400 Y179.103 E354.94510
G0 F12000 X112.800 Y178.756
G1 F1800 X112.800 Y126.243 E360.18487
G0 F12000 X112.200 Y126.589
G1 F1800 X112.200 Y178.410 E365.35559
G0 F12000 X111.600 Y178.063
G1 F1800 X111.600 Y126.936 E370.45706
G0 F12000 X111.000 Y127.282
G1 F1800 X111.000 Y177.717 E375.48949
G0 F12000 X110.400 Y177.371
G1 F1800 X110.400 Y127.628 E380.45287
G0 F12000 X109.800 Y127.975
G1 F1800 X109.800 Y177.024 E385.34700
G0 F12000 X109.200 Y176.678
G1 F1800 X109.200 Y128.321 E390.17208
G0 F12000 X108.600 Y128.668
G1 F1800 X108.600 Y176.331 E394.92791
G0 F12000 X108.000 Y175.985
G1 F1800 X108.000 Y129.014 E399.61470
G0 F12000 X107.400 Y129.360
G1 F1800 X107.400 Y175.639 E404.23243
G0 F12000 X106.800 Y175.292
G1 F1800 X106.800 Y129.707 E408.78092
G0 F12000 X106.200 Y130.053
G1 F1800 X106.200 Y174.946 E413.26036
G0 F12000 X105.600 Y174.599
G1 F1800 X105.600 Y130.400 E417.67056
G0 F12000 X105.000 Y130.746
G1 F1800 X105.000 Y174.253 E422.01170
G0 F12000 X104.400 Y173.907
G1 F1800 X104.400 Y131.092 E426.28380
G0 F12000 X103.800 Y131.439
G1 F1800 X103.800 Y173.560 E430.48665
G0 F12000 X103.200 Y173.214
G1 F1800 X103.200 Y131.785 E434.62046
G0 F12000 X102.600 Y132.132
G1 F1800 X102.600 Y172.867 E438.68501
G0 F12000 X102.000 Y172.521
G1 F1800 X102.000 Y132.478 E442.68052
G0 F12000 X101.400 Y132.824
G1 F1800 X101.400 Y172.175 E446.60698
G0 F12000 X100.800 Y171.828
G1 F1800 X100.800 Y133.171 E450.46419
G0 F12000 X100.200 Y133.517
G1 F1800 X100.200 Y171.482 E454.25235
G0 F12000 X99.600 Y171.135
G1 F1800 X99.600 Y133.864 E457.97127
G0 F12000 X99.000 Y134.210
G1 F1800 X99.000 Y170.789 E461.62113
G0 F12000 X98.400 Y170.443
G1 F1800 X98.400 Y134.556 E465.20195
G0 F12000 X97.800 Y134.903
G1 F1800 X97.800 Y170.096 E468.71352
G0 F12000 X97.200 Y169.750
G1 F1800 X97.200 Y135.249 E472.15605
G0 F12000 X96.600 Y135.596
G1 F1800 X96.600 Y169.403 E475.52932
G0 F12000 X96.000 Y169.057
G1 F1800 X96.000 Y135.942 E478.83355
G0 F12000 X95.400 Y136.288
G1 F1800 X95.400 Y168.711 E482.06873
G0 F12000 X94.800 Y168.364
G1 F1800 X94.800 Y136.635 E485.23466
G0 F12000 X94.200 Y136.981
G1 F1800 X94.200 Y168.018 E488.33155
G1 F2100 E487.93155
G1 Z0.800
G0 F12000 X157.700 Y167.972
;TYPE:WALL-INNER
G1 Z0.400
G1 F2100 E488.33155
G1 F1800 X157.700 Y137.028 E491.41915
G1 X184.500 Y121.555 E494.50696
G1 X211.300 Y137.028 E497.59476
G1 X211.300 Y167.972 E500.68236
G1 X184.500 Y183.445 E503.77017
G1 X157.700 Y167.972 E506.85797
G0 F12000 X157.193 Y168.372
;TYPE:WALL-OUTER
G1 F1800 X157.100 Y168.212 E506.87643
G1 X157.100 Y136.788 E510.01193
G1 X157.193 Y136.628 E510.03040
G1 X184.408 Y120.916 E513.16599
G1 X184.592 Y120.916 E513.18435
G1 X211.807 Y136.628 E516.31993
G1 X211.900 Y136.788 E516.33840
G1 X211.900 Y168.212 E519.47390
G1 X211.807 Y168.372 E519.49237
G1 X184.592 Y184.084 E522.62795
G1 X184.408 Y184.084 E522.64631
G1 X157.193 Y168.372 E525.78190
G0 F12000 X158.400 Y168.133
;TYPE:SKIN
G1 F1800 X158.400 Y136.866 E528.90173
G0 F12000 X159.000 Y136.519
G1 F1800 X159.000 Y168.480 E532.09082
G0 F12000 X159.600 Y168.826
G1 F1800 X159.600 Y136.173 E535.34894
G0 F12000 X160.200 Y135.826
G1 F1800 X160.200 Y169.173 E538.67632
G0 F12000 X160.800 Y169.519
G1 F1800 X160.800 Y135.480 E542.07275
G0 F12000 X161.400 Y135.134
G1 F1800 X161.400 Y169.865 E545.53822
G0 F12000 X162.000 Y170.212
G1 F1800 X162.000 Y134.787 E549.07294
G0 F12000 X162.600 Y134.441
G1 F1800 X162.600 Y170.558 E552.67671
G0 F12000 X163.200 Y170.905
G1 F1800 X163.200 Y134.094 E556.34973
G0 F12000 X163.800 Y133.748
G1 F1800 X163.800 Y171.251 E560.09179
G0 F12000 X164.400 Y171.597
G1 F1800 X164.400 Y133.402 E563.90290
G0 F12000 X165.000 Y133.055
G1 F1800 X165.000 Y171.944 E567.78326
G0 F12000 X165.600 Y172.290
G1 F1800 X165.600 Y132.709 E571.73267
G0 F12000 X166.200 Y132.362
G1 F1800 X166.200 Y172.637 E575.75133
G0 F12000 X166.800 Y172.983
G1 F1800 X166.800 Y132.016 E579.83903
G0 F12000 X167.400 Y131.670
G1 F1800 X167.400 Y173.329 E583.99578
G0 F12000 X168.000 Y173.676
G1 F1800 X168.000 Y131.323 E588.22178
G0 F12000 X168.600 Y130.977
G1 F1800 X168.600 Y174.022 E592.51683
G0 F12000 X169.200 Y174.368
G1 F1800 X169.200 Y130.631 E596.88093
G0 F12000 X169.800 Y130.284
G1 F1800 X169.800 Y174.715 E601.31427
G0 F12000 X170.400 Y175.061
G1 F1800 X170.400 Y129.938 E605.81666
G0 F12000 X171.000 Y129.591
G1 F1800 X171.000 Y175.408 E610.38830
G0 F12000 X171.600 Y175.754
G1 F1800 X171.600 Y129.245 E615.02899
G0 F12000 X172.200 Y128.899
G1 F1800 X172.200 Y176.100 E619.73872
G0 F12000 X172.800 Y176.447
G1 F1800 X172.800 Y128.552 E624.51770
G0 F12000 X173.400 Y128.206
G1 F1800 X173.400 Y176.793 E629.36573
G0 F12000 X174.000 Y177.140
G1 F1800 X174.000 Y127.859 E634.28301
G0 F12000 X174.600 Y127.513
G1 F1800 X174.600 Y177.486 E639.26934
G0 F12000 X175.200 Y177.832
G1 F1800 X175.200 Y127.167 E644.32471
G0 F12000 X175.800 Y126.820
G1 F1800 X175.800 Y178.179 E649.44933
G0 F12000 X176.400 Y178.525
G1 F1800 X176.400 Y126.474 E654.64300
G0 F12000 X177.000 Y126.127
G1 F1800 X177.000 Y178.872 E659.90592
G0 F12000 X177.600 Y179.218
G1 F1800 X177.600 Y125.781 E665.23789
G0 F12000 X178.200 Y125.435
G1 F1800 X178.200 Y179.564 E670.63890
G0 F12000 X178.800 Y179.911
G1 F1800 X178.800 Y125.088 E676.10916
G0 F12000 X179.400 Y124.742
G1 F1800 X179.400 Y180.257 E681.64847
G0 F12000 X180.000 Y180.604
G1 F1800 X180.000 Y124.395 E687.25703
G0 F12000 X180.600 Y124.049
G1 F1800 X180.600 Y180.950 E692.93463
G0 F12000 X181.200 Y181.296
G1 F1800 X181.200 Y123.703 E698.68129
G0 F12000 X181.800 Y123.356
G1 F1800 X181.800 Y181.643 E704.49719
G0 F12000 X182.400 Y181.989
G1 F1800 X182.400 Y123.010 E710.38213
G0 F12000 X183.000 Y122.663
G1 F1800 X183.000 Y182.336 E716.33633
G0 F12000 X183.600 Y182.682
G1 F1800 X183.600 Y122.317 E722.35958
G0 F12000 X184.200 Y121.971
G1 F1800 X184.200 Y183.028 E728.45187
G0 F12000 X184.800 Y183.029
G1 F1800 X184.800 Y121.972 E734.54416
G0 F12000 X185.400 Y122.318
G1 F1800 X185.400 Y182.683 E740.56740
G0 F12000 X186.000 Y182.337
G1 F1800 X186.000 Y122.664 E746.52160
G0 F12000 X186.600 Y123.011
G1 F1800 X186.600 Y181.990 E752.40655
G0 F12000 X187.200 Y181.644
G1 F1800 X187.200 Y123.357 E758.22245
G0 F12000 X187.800 Y123.704
G1 F1800 X187.800 Y181.297 E763.96910
G0 F12000 X188.400 Y180.951
G1 F1800 X188.400 Y124.050 E769.64671
G0 F12000 X189.000 Y124.396
G1 F1800 X189.000 Y180.605 E775.25526
G0 F12000 X189.600 Y180.258
G1 F1800 X189.600 Y124.743 E780.79457
G0 F12000 X190.200 Y125.089
G1 F1800 X190.200 Y179.912 E786.26483
G0 F12000 X190.800 Y179.565
G1 F1800 X190.800 Y125.436 E791.66585
G0 F12000 X191.400 Y125.782
G1 F1800 X191.400 Y179.219 E796.99781
G0 F12000 X192.000 Y178.873
G1 F1800 X192.000 Y126.128 E802.26073
G0 F12000 X192.600 Y126.475
G1 F1800 X192.600 Y178.526 E807.45440
G0 F12000 X193.200 Y178.180
G1 F1800 X193.200 Y126.821 E812.57902
G0 F12000 X193.800 Y127.168
G1 F1800 X193.800 Y177.833 E817.63440
G0 F12000 X194.400 Y177.487
G1 F1800 X194.400 Y127.514 E822.62072
G0 F12000 X195.000 Y127.860
G1 F1800 X195.000 Y177.141 E827.53800
G0 F12000 X195.600 Y176.794
G1 F1800 X195.600 Y128.207 E832.38603
G0 F12000 X196.200 Y128.553
G1 F1800 X196.200 Y176.448 E837.16501
G0 F12000 X196.800 Y176.101
G1 F1800 X196.800 Y128.900 E841.87475
G0 F12000 X197.400 Y129.246
G1 F1800 X197.400 Y175.755 E846.51544
G0 F12000 X198.000 Y175.409
G1 F1800 X198.000 Y129.592 E851.08707
G0 F12000 X198.600 Y129.939
G1 F1800 X198.600 Y175.062 E855.58947
G0 F12000 X199.200 Y174.716
G1 F1800 X199.200 Y130.285 E860.02281
G0 F12000 X199.800 Y130.632
G1 F1800 X199.800 Y174.369 E864.38690
G0 F12000 X200.400 Y174.023
G1 F1800 X200.400 Y130.978 E868.68195
G0 F12000 X201.000 Y131.324
G1 F1800 X201.000 Y173.677 E872.90795
G0 F12000 X201.600 Y173.330
G1 F1800 X201.600 Y131.671 E877.06470
G0 F12000 X202.200 Y132.017
G1 F1800 X202.200 Y172.984 E881.15241
G0 F12000 X202.800 Y172.638
G1 F1800 X202.800 Y132.363 E885.17106
G0 F12000 X203.400 Y132.710
G1 F1800 X203.400 Y172.291 E889.12047
G0 F12000 X204.000 Y171.945
G1 F1800 X204.000 Y133.056 E893.00083
G0 F12000 X204.600 Y133.403
G1 F1800 X204.600 Y171.598 E896.81194
G0 F12000 X205.200 Y171.252
G1 F1800 X205.200 Y133.749 E900.55401
G0 F12000 X205.800 Y134.095
G1 F1800 X205.800 Y170.906 E904.22702
G0 F12000 X206.400 Y170.559
G1 F1800 X206.400 Y134.442 E907.83079
G0 F12000 X207.000 Y134.788
G1 F1800 X207.000 Y170.213 E911.36551
G0 F12000 X207.600 Y169.866
G1 F1800 X207.600 Y135.135 E914.83099
G0 F12000 X208.200 Y135.481
G1 F1800 X208.200 Y169.520 E918.22741
G0 F12000 X208.800 Y169.174
G1 F1800 X208.800 Y135.827 E921.55479
G0 F12000 X209.400 Y136.174
G1 F1800 X209.400 Y168.827 E924.81292
G0 F12000 X210.000 Y168.481
G1 F1800 X210.000 Y136.520 E928.00200
G0 F12000 X210.600 Y136.867
G1 F1800 X210.600 Y168.134 E931.12184
;LAYER:1
M106 S20
G1 F2100 E930.72184
G1 Z0.800
G0 F12000 X147.700 Y167.882 Z0.800
;TYPE:WALL-INNER
G1 Z0.800
G1 F2100 E931.12184
G1 F1980 X147.421 Y168.365 E931.17749
G1 X120.779 Y183.746 E934.24705
G1 X120.221 Y183.746 E934.30273
G1 X93.579 Y168.365 E937.37229
G1 X93.300 Y167.882 E937.42794
G1 X93.300 Y137.118 E940.49759
G1 X93.579 Y136.635 E940.55325
G1 X120.221 Y121.254 E943.62280
G1 X120.779 Y121.254 E943.67848
G1 X147.421 Y136.635 E946.74804
G1 X147.700 Y137.118 E946.80370
G1 X147.700 Y167.882 E949.87334
G0 F12000 X148.300 Y168.043
;TYPE:WALL-OUTER
G1 F1980 X147.860 Y168.803 E949.96097
G1 X120.938 Y184.346 E953.06281
G1 X120.062 Y184.346 E953.15021
G1 X93.140 Y168.803 E956.25205
G1 X92.700 Y168.043 E956.33968
G1 X92.700 Y136.957 E959.44145
G1 X93.140 Y136.197 E959.52907
G1 X120.062 Y120.654 E962.63091
G1 X120.938 Y120.654 E962.71832
G1 X147.860 Y136.197 E965.82016
G1 X148.300 Y136.957 E965.90778
G1 X148.300 Y168.043 E969.00955
G0 F12000 X147.387 Y168.000
;TYPE:SKIN
G1 F1980 X93.610 Y168.000 E974.37545
G0 F12000 X93.509 Y167.400
G1 F1980 X147.489 Y167.400 E979.76159
G0 F12000 X147.489 Y166.800
G1 F1980 X93.509 Y166.800 E985.14774
G0 F12000 X93.509 Y166.200
G1 F1980 X147.489 Y166.200 E990.53388
G0 F12000 X147.489 Y165.600
G1 F1980 X93.509 Y165.600 E995.92003
G0 F12000 X93.509 Y165.000
G1 F1980 X147.489 Y165.000 E1001.30618
G0 F12000 X147.489 Y164.400
G1 F1980 X93.509 Y164.400 E1006.69232
G0 F12000 X93.509 Y163.800
G1 F1980 X147.489 Y163.800 E1012.07847
G0 F12000 X147.489 Y163.200
G1 F1980 X93.509 Y163.200 E1017.46462
G0 F12000 X93.509 Y162.600
G1 F1980 X147.489 Y162.600 E1022.85076
G0 F12000 X147.489 Y162.000
G1 F1980 X93.509 Y162.000 E1028.23691
G0 F12000 X93.509 Y161.400
G1 F1980 X147.489 Y161.400 E1033.62305
G0 F12000 X147.489 Y160.800
G1 F1980 X93.509 Y160.800 E1039.00920
G0 F12000 X93.509 Y160.200
G1 F1980 X147.489 Y160.200 E1044.39535
G1 F2100 E1043.99535
G1 Z1.200
G0 F12000 X146.590 Y168.600
G1 Z0.800
G1 F2100 E1044.39535
G1 F1980 X94.407 Y168.600 E1049.60219
G0 F12000 X95.446 Y169.200
G1 F1980 X145.551 Y169.200 E1054.60168
G0 F12000 X144.511 Y169.800
G1 F1980 X96.486 Y169.800 E1059.39364
G0 F12000 X97.525 Y170.400
G1 F1980 X143.472 Y170.400 E1063.97825
G0 F12000 X142.433 Y171.000
G1 F1980 X98.564 Y171.000 E1068.35552
G0 F12000 X99.603 Y171.600
G1 F1980 X141.394 Y171.600 E1072.52544
G0 F12000 X140.354 Y172.200
G1 F1980 X100.643 Y172.200 E1076.48782
G0 F12000 X101.682 Y172.800
G1 F1980 X139.315 Y172.800 E1080.24285
G0 F12000 X138.276 Y173.400
G1 F1980 X102.721 Y173.400 E1083.79055
G0 F12000 X103.761 Y174.000
G1 F1980 X137.236 Y174.000 E1087.13070
G0 F12000 X136.197 Y174.600
G1 F1980 X104.800 Y174.600 E1090.26350
G0 F12000 X105.839 Y175.200
G1 F1980 X135.158 Y175.200 E1093.18896
G0 F12000 X134.119 Y175.800
G1 F1980 X106.878 Y175.800 E1095.90708
G0 F12000 X107.918 Y176.400
G1 F1980 X133.079 Y176.400 E1098.41766
G0 F12000 X132.040 Y177.000
G1 F1980 X108.957 Y177.000 E1100.72089
G0 F12000 X109.996 Y177.600
G1 F1980 X131.001 Y177.600 E1102.81677
G0 F12000 X129.961 Y178.200
G1 F1980 X111.036 Y178.200 E1104.70512
G0 F12000 X112.075 Y178.800
G1 F1980 X128.922 Y178.800 E1106.38612
G0 F12000 X127.883 Y179.400
G1 F1980 X113.114 Y179.400 E1107.85978
G0 F12000 X114.153 Y180.000
G1 F1980 X126.844 Y180.000 E1109.12609
G0 F12000 X125.804 Y180.600
G1 F1980 X115.193 Y180.600 E1110.18486
G0 F12000 X116.232 Y181.200
G1 F1980 X124.765 Y181.200 E1111.03628
G0 F12000 X123.726 Y181.800
G1 F1980 X117.271 Y181.800 E1111.68037
G0 F12000 X118.311 Y182.400
G1 F1980 X122.686 Y182.400 E1112.11691
G0 F12000 X121.647 Y183.000
G1 F1980 X119.350 Y183.000 E1112.34610
G1 F2100 E1111.94610
G1 Z1.200
G0 F12000 X93.509 Y159.600
G1 Z0.800
G1 F2100 E1112.34610
G1 F1980 X147.489 Y159.600 E1117.73225
G0 F12000 X147.489 Y159.000
G1 F1980 X93.509 Y159.000 E1123.11839
G0 F12000 X93.509 Y158.400
G1 F1980 X147.489 Y158.400 E1128.50454
G0 F12000 X147.489 Y157.800
G1 F1980 X93.509 Y157.800 E1133.89069
G0 F12000 X93.509 Y157.200
G1 F1980 X147.489 Y157.200 E1139.27683
G0 F12000 X147.489 Y156.600
G1 F1980 X93.509 Y156.600 E1144.66298
G0 F12000 X93.509 Y156.000
G1 F1980 X147.489 Y156.000 E1150.04913
G0 F12000 X147.489 Y155.400
G1 F1980 X93.509 Y155.400 E1155.43527
G0 F12000 X93.509 Y154.800
G1 F1980 X147.489 Y154.800 E1160.82142
G0 F12000 X147.489 Y154.200
G1 F1980 X93.509 Y154.200 E1166.20756
G0 F12000 X93.509 Y153.600
G1 F1980 X147.489 Y153.600 E1171.59371
G0 F12000 X147.489 Y153.000
G1 F1980 X93.509 Y153.000 E1176.97986
G0 F12000 X93.509 Y152.400
G1 F1980 X147.489 Y152.400 E1182.36600
G0 F12000 X147.489 Y151.800
G1 F1980 X93.509 Y151.800 E1187.75215
G0 F12000 X93.509 Y151.200
G1 F1980 X147.489 Y151.200 E1193.13830
G0 F12000 X147.489 Y150.600
G1 F1980 X93.509 Y150.600 E1198.52444
G0 F12000 X93.509 Y150.000
G1 F1980 X147.489 Y150.000 E1203.91059
G0 F12000 X147.489 Y149.400
G1 F1980 X93.509 Y149.400 E1209.29673
G0 F12000 X93.509 Y148.800
G1 F1980 X147.489 Y148.800 E1214.68288
G0 F12000 X147.489 Y148.200
G1 F1980 X93.509 Y148.200 E1220.06903
G0 F12000 X93.509 Y147.600
G1 F1980 X147.489 Y147.600 E1225.45517
G0 F12000 X147.489 Y147.000
G1 F1980 X93.509 Y147.000 E1230.84132
G0 F12000 X93.509 Y146.400
G1 F1980 X147.489 Y146.400 E1236.22747
G0 F12000 X147.489 Y145.800
G1 F1980 X93.509 Y145.800 E1241.61361
G0 F12000 X93.509 Y145.200
G1 F1980 X147.489 Y145.200 E1246.99976
G0 F12000 X147.489 Y144.600
G1 F1980 X93.509 Y144.600 E1252.38591
G0 F12000 X93.509 Y144.000
G1 F1980 X147.489 Y144.000 E1257.77205
G0 F12000 X147.489 Y143.400
G1 F1980 X93.509 Y143.400 E1263.15820
G0 F12000 X93.509 Y142.800
G1 F1980 X147.489 Y142.800 E1268.54434
G0 F12000 X147.489 Y142.200
G1 F1980 X93.509 Y142.200 E1273.93049
G0 F12000 X93.509 Y141.600
G1 F1980 X147.489 Y141.600 E1279.31664
G0 F12000 X147.489 Y141.000
G1 F1980 X93.509 Y141.000 E1284.70278
G0 F12000 X93.509 Y140.400
G1 F1980 X147.489 Y140.400 E1290.08893
G0 F12000 X147.489 Y139.800
G1 F1980 X93.509 Y139.800 E1295.47508
G0 F12000 X93.509 Y139.200
G1 F1980 X147.489 Y139.200 E1300.86122
G0 F12000 X147.489 Y138.600
G1 F1980 X93.509 Y138.600 E1306.24737
G0 F12000 X93.509 Y138.000
G1 F1980 X147.489 Y138.000 E1311.63351
G0 F12000 X147.489 Y137.400
G1 F1980 X93.509 Y137.400 E1317.01966
G0 F12000 X93.726 Y136.800
G1 F1980 X147.273 Y136.800 E1322.36260
G0 F12000 X146.248 Y136.200
G1 F1980 X94.751 Y136.200 E1327.50099
G0 F12000 X95.790 Y135.600
G1 F1980 X145.209 Y135.600 E1332.43204
G0 F12000 X144.169 Y135.000
G1 F1980 X96.830 Y135.000 E1337.15555
G0 F12000 X97.869 Y134.400
G1 F1980 X143.130 Y134.400 E1341.67171
G0 F12000 X142.091 Y133.800
G1 F1980 X98.908 Y133.800 E1345.98052
G0 F12000 X99.947 Y133.200
G1 F1980 X141.052 Y133.200 E1350.08200
G0 F12000 X140.012 Y132.600
G1 F1980 X100.987 Y132.600 E1353.97593
G0 F12000 X102.026 Y132.000
G1 F1980 X138.973 Y132.000 E1357.66251
G0 F12000 X137.934 Y131.400
G1 F1980 X103.065 Y131.400 E1361.14176
G0 F12000 X104.105 Y130.800
G1 F1980 X136.894 Y130.800 E1364.41346
G0 F12000 X135.855 Y130.200
G1 F1980 X105.144 Y130.200 E1367.47781
G0 F12000 X106.183 Y129.600
G1 F1980 X134.816 Y129.600 E1370.33483
G0 F12000 X133.777 Y129.000
G1 F1980 X107.222 Y129.000 E1372.98449
G0 F12000 X108.262 Y128.400
G1 F1980 X132.737 Y128.400 E1375.42662
G0 F12000 X131.698 Y127.800
G1 F1980 X109.301 Y127.800 E1377.66140
G0 F12000 X110.340 Y127.200
G1 F1980 X130.659 Y127.200 E1379.68884
G0 F12000 X129.619 Y126.600
G1 F1980 X111.380 Y126.600 E1381.50873
G0 F12000 X112.419 Y126.000
G1 F1980 X128.580 Y126.000 E1383.12129
G0 F12000 X127.541 Y125.400
G1 F1980 X113.458 Y125.400 E1384.52649
G0 F12000 X114.497 Y124.800
G1 F1980 X126.502 Y124.800 E1385.72436
G0 F12000 X125.462 Y124.200
G1 F1980 X115.537 Y124.200 E1386.71468
G0 F12000 X116.576 Y123.600
G1 F1980 X124.423 Y123.600 E1387.49765
G0 F12000 X123.384 Y123.000
G1 F1980 X117.615 Y123.000 E1388.07329
G0 F12000 X118.654 Y122.400
G1 F1980 X122.345 Y122.400 E1388.44158
G0 F12000 X121.305 Y121.800
G1 F1980 X119.694 Y121.800 E1388.60232
G1 F2100 E1388.20232
G1 Z1.200
G0 F12000 X157.300 Y137.118
;TYPE:WALL-INNER
G1 Z0.800
G1 F2100 E1388.60232
G1 F1980 X157.579 Y136.635 E1388.65798
G1 X184.221 Y121.254 E1391.72754
G1 X184.779 Y121.254 E1391.78322
G1 X211.421 Y136.635 E1394.85278
G1 X211.700 Y137.118 E1394.90843
G1 X211.700 Y167.882 E1397.97808
G1 X211.421 Y168.365 E1398.03373
G1 X184.779 Y183.746 E1401.10329
G1 X184.221 Y183.746 E1401.15897
G1 X157.579 Y168.365 E1404.22853
G1 X157.300 Y167.882 E1404.28419
G1 X157.300 Y137.118 E1407.35383
G0 F12000 X156.700 Y136.957
;TYPE:WALL-OUTER
G1 F1980 X157.140 Y136.197 E1407.44146
G1 X184.062 Y120.654 E1410.54329
G1 X184.938 Y120.654 E1410.63070
G1 X211.860 Y136.197 E1413.73254
G1 X212.300 Y136.957 E1413.82016
G1 X212.300 Y168.043 E1416.92194
G1 X211.860 Y168.803 E1417.00956
G1 X184.938 Y184.346 E1420.11140
G1 X184.062 Y184.346 E1420.19881
G1 X157.140 Y168.803 E1423.30064
G1 X156.700 Y168.043 E1423.38827
G1 X156.700 Y136.957 E1426.49004
G0 F12000 X157.509 Y137.400
;TYPE:SKIN
G1 F1980 X211.489 Y137.400 E1431.87619
G0 F12000 X211.489 Y138.000
G1 F1980 X157.509 Y138.000 E1437.26233
G0 F12000 X157.509 Y138.600
G1 F1980 X211.489 Y138.600 E1442.64848
G0 F12000 X211.489 Y139.200
G1 F1980 X157.509 Y139.200 E1448.03463
G0 F12000 X157.509 Y139.800
G1 F1980 X211.489 Y139.800 E1453.42077
G1 F2100 E1453.02077
G1 Z1.200
G0 F12000 X211.273 Y136.800
G1 Z0.800
G1 F2100 E1453.42077
G1 F1980 X157.726 Y136.800 E1458.76371
G0 F12000 X158.751 Y136.200
G1 F1980 X210.248 Y136.200 E1463.90211
G0 F12000 X209.209 Y135.600
G1 F1980 X159.790 Y135.600 E1468.83315
G0 F12000 X160.830 Y135.000
G1 F1980 X208.169 Y135.000 E1473.55666
G0 F12000 X207.130 Y134.400
G1 F1980 X161.869 Y134.400 E1478.07282
G0 F12000 X162.908 Y133.800
G1 F1980 X206.091 Y133.800 E1482.38164
G0 F12000 X205.052 Y133.200
G1 F1980 X163.947 Y133.200 E1486.48311
G0 F12000 X164.987 Y132.600
G1 F1980 X204.012 Y132.600 E1490.37704
G0 F12000 X202.973 Y132.000
G1 F1980 X166.026 Y132.000 E1494.06363
G0 F12000 X167.065 Y131.400
G1 F1980 X201.934 Y131.400 E1497.54287
G0 F12000 X200.894 Y130.800
G1 F1980 X168.105 Y130.800 E1500.81457
G0 F12000 X169.144 Y130.200
G1 F1980 X199.855 Y130.200 E1503.87893
G0 F12000 X198.816 Y129.600
G1 F1980 X170.183 Y129.600 E1506.73594
G0 F12000 X171.222 Y129.000
G1 F1980 X197.777 Y129.000 E1509.38561
G0 F12000 X196.737 Y128.400
G1 F1980 X172.262 Y128.400 E1511.82773
G0 F12000 X173.301 Y127.800
G1 F1980 X195.698 Y127.800 E1514.06251
G0 F12000 X194.659 Y127.200
G1 F1980 X174.340 Y127.200 E1516.08995
G0 F12000 X175.380 Y126.600
G1 F1980 X193.619 Y126.600 E1517.90985
G0 F12000 X192.580 Y126.000
G1 F1980 X176.419 Y126.000 E1519.52240
G0 F12000 X177.458 Y125.400
G1 F1980 X191.541 Y125.400 E1520.92761
G0 F12000 X190.502 Y124.800
G1 F1980 X178.497 Y124.800 E1522.12547
G0 F12000 X179.537 Y124.200
G1 F1980 X189.462 Y124.200 E1523.11579
G0 F12000 X188.423 Y123.600
G1 F1980 X180.576 Y123.600 E1523.89877
G0 F12000 X181.615 Y123.000
G1 F1980 X187.384 Y123.000 E1524.47440
G0 F12000 X186.345 Y122.400
G1 F1980 X182.654 Y122.400 E1524.84269
G0 F12000 X183.694 Y121.800
G1 F1980 X185.305 Y121.800 E1525.00344
G1 F2100 E1524.60344
G1 Z1.200
G0 F12000 X211.489 Y140.400
G1 Z0.800
G1 F2100 E1525.00344
G1 F1980 X157.509 Y140.400 E1530.38958
G0 F12000 X157.509 Y141.000
G1 F1980 X211.489 Y141.000 E1535.77573
G0 F12000 X211.489 Y141.600
G1 F1980 X157.509 Y141.600 E1541.16187
G0 F12000 X157.509 Y142.200
G1 F1980 X211.489 Y142.200 E1546.54802
G0 F12000 X211.489 Y142.800
G1 F1980 X157.509 Y142.800 E1551.93417
G0 F12000 X157.509 Y143.400
G1 F1980 X211.489 Y143.400 E1557.32031
G0 F12000 X211.489 Y144.000
G1 F1980 X157.509 Y144.000 E1562.70646
G0 F12000 X157.509 Y144.600
G1 F1980 X211.489 Y144.600 E1568.09261
G0 F12000 X211.489 Y145.200
G1 F1980 X157.509 Y145.200 E1573.47875
G0 F12000 X157.509 Y145.800
G1 F1980 X211.489 Y145.800 E1578.86490
G0 F12000 X211.489 Y146.400
G1 F1980 X157.509 Y146.400 E1584.25104
G0 F12000 X157.509 Y147.000
G1 F1980 X211.489 Y147.000 E1589.63719
G0 F12000 X211.489 Y147.600
G1 F1980 X157.509 Y147.600 E1595.02334
G0 F12000 X157.509 Y148.200
G1 F1980 X211.489 Y148.200 E1600.40948
G0 F12000 X211.489 Y148.800
G1 F1980 X157.509 Y148.800 E1605.79563
G0 F12000 X157.509 Y149.400
G1 F1980 X211.489 Y149.400 E1611.18178
G0 F12000 X211.489 Y150.000
G1 F1980 X157.509 Y150.000 E1616.56792
G0 F12000 X157.509 Y150.600
G1 F1980 X211.489 Y150.600 E1621.95407
G0 F12000 X211.489 Y151.200
G1 F1980 X157.509 Y151.200 E1627.34021
G0 F12000 X157.509 Y151.800
G1 F1980 X211.489 Y151.800 E1632.72636
G0 F12000 X211.489 Y152.400
G1 F1980 X157.509 Y152.400 E1638.11251
G0 F12000 X157.509 Y153.000
G1 F1980 X211.489 Y153.000 E1643.49865
G0 F12000 X211.489 Y153.600
G1 F1980 X157.509 Y153.600 E1648.88480
G0 F12000 X157.509 Y154.200
G1 F1980 X211.489 Y154.200 E1654.27095
G0 F12000 X211.489 Y154.800
G1 F1980 X157.509 Y154.800 E1659.65709
G0 F12000 X157.509 Y155.400
G1 F1980 X211.489 Y155.400 E1665.04324
G0 F12000 X211.489 Y156.000
G1 F1980 X157.509 Y156.000 E1670.42938
G0 F12000 X157.509 Y156.600
G1 F1980 X211.489 Y156.600 E1675.81553
G0 F12000 X211.489 Y157.200
G1 F1980 X157.509 Y157.200 E1681.20168
G0 F12000 X157.509 Y157.800
G1 F1980 X211.489 Y157.800 E1686.58782
G0 F12000 X211.489 Y158.400
G1 F1980 X157.509 Y158.400 E1691.97397
G0 F12000 X157.509 Y159.000
G1 F1980 X211.489 Y159.000 E1697.36012
G0 F12000 X211.489 Y159.600
G1 F1980 X157.509 Y159.600 E1702.74626
G0 F12000 X157.509 Y160.200
G1 F1980 X211.489 Y160.200 E1708.13241
G0 F12000 X211.489 Y160.800
G1 F1980 X157.509 Y160.800 E1713.51855
G0 F12000 X157.509 Y161.400
G1 F1980 X211.489 Y161.400 E1718.90470
G0 F12000 X211.489 Y162.000
G1 F1980 X157.509 Y162.000 E1724.29085
G0 F12000 X157.509 Y162.600
G1 F1980 X211.489 Y162.600 E1729.67699
G0 F12000 X211.489 Y163.200
G1 F1980 X157.509 Y163.200 E1735.06314
G0 F12000 X157.509 Y163.800
G1 F1980 X211.489 Y163.800 E1740.44929
G0 F12000 X211.489 Y164.400
G1 F1980 X157.509 Y164.400 E1745.83543
G0 F12000 X157.509 Y165.000
G1 F1980 X211.489 Y165.000 E1751.22158
G0 F12000 X211.489 Y165.600
G1 F1980 X157.509 Y165.600 E1756.60773
G0 F12000 X157.509 Y166.200
G1 F1980 X211.489 Y166.200 E1761.99387
G0 F12000 X211.489 Y166.800
G1 F1980 X157.509 Y166.800 E1767.38002
G0 F12000 X157.509 Y167.400
G1 F1980 X211.489 Y167.400 E1772.76616
G0 F12000 X211.387 Y168.000
G1 F1980 X157.610 Y168.000 E1778.13205
G0 F12000 X158.407 Y168.600
G1 F1980 X210.590 Y168.600 E1783.33890
G0 F12000 X209.551 Y169.200
G1 F1980 X159.446 Y169.200 E1788.33839
G0 F12000 X160.486 Y169.800
G1 F1980 X208.511 Y169.800 E1793.13035
G0 F12000 X207.472 Y170.400
G1 F1980 X161.525 Y170.400 E1797.71496
G0 F12000 X162.564 Y171.000
G1 F1980 X206.433 Y171.000 E1802.09222
G0 F12000 X205.394 Y171.600
G1 F1980 X163.603 Y171.600 E1806.26215
G0 F12000 X164.643 Y172.200
G1 F1980 X204.354 Y172.200 E1810.22453
G0 F12000 X203.315 Y172.800
G1 F1980 X165.682 Y172.800 E1813.97956
G0 F12000 X166.721 Y173.400
G1 F1980 X202.276 Y173.400 E1817.52725
G0 F12000 X201.236 Y174.000
G1 F1980 X167.761 Y174.000 E1820.86740
G0 F12000 X168.800 Y174.600
G1 F1980 X200.197 Y174.600 E1824.00021
G0 F12000 X199.158 Y175.200
G1 F1980 X169.839 Y175.200 E1826.92567
G0 F12000 X170.878 Y175.800
G1 F1980 X198.119 Y175.800 E1829.64379
G0 F12000 X197.079 Y176.400
G1 F1980 X171.918 Y176.400 E1832.15436
G0 F12000 X172.957 Y177.000
G1 F1980 X196.040 Y177.000 E1834.45759
G0 F12000 X195.001 Y177.600
G1 F1980 X173.996 Y177.600 E1836.55348
G0 F12000 X175.036 Y178.200
G1 F1980 X193.961 Y178.200 E1838.44183
G0 F12000 X192.922 Y178.800
G1 F1980 X176.075 Y178.800 E1840.12283
G0 F12000 X177.114 Y179.400
G1 F1980 X191.883 Y179.400 E1841.59648
G0 F12000 X190.844 Y180.000
G1 F1980 X178.153 Y180.000 E1842.86280
G0 F12000 X179.193 Y180.600
G1 F1980 X189.804 Y180.600 E1843.92157
G0 F12000 X188.765 Y181.200
G1 F1980 X180.232 Y181.200 E1844.77299
G0 F12000 X181.271 Y181.800
G1 F1980 X187.726 Y181.800 E1845.41708
G0 F12000 X186.686 Y182.400
G1 F1980 X182.311 Y182.400 E1845.85361
G0 F12000 X183.350 Y183.000
G1 F1980 X185.647 Y183.000 E1846.08281
;LAYER:2
M106 S40
G1 F2100 E1845.68281
G1 Z1.200
G0 F12000 X148.100 Y167.714 Z1.200
;TYPE:WALL-INNER
G1 Z1.200
G1 F2100 E1846.08281
G1 F2220 X147.476 Y168.795 E1846.20735
G1 X121.126 Y184.008 E1849.24330
G1 X119.874 Y184.008 E1849.36822
G1 X93.526 Y168.796 E1852.40395
G1 X92.900 Y167.713 E1852.52876
G1 X92.900 Y137.287 E1855.56468
G1 X93.526 Y136.204 E1855.68950
G1 X119.874 Y120.992 E1858.72522
G1 X121.126 Y120.992 E1858.85014
G1 X147.476 Y136.205 E1861.88609
G1 X148.100 Y137.286 E1862.01063
G1 X148.100 Y167.714 E1865.04675
G0 F12000 X148.700 Y167.874
;TYPE:WALL-OUTER
G1 F2220 X147.914 Y169.234 E1865.20349
G1 X121.285 Y184.608 E1868.27157
G1 X119.715 Y184.608 E1868.42823
G1 X93.087 Y169.234 E1871.49623
G1 X92.300 Y167.874 E1871.65301
G1 X92.300 Y137.126 E1874.72106
G1 X93.087 Y135.766 E1874.87785
G1 X119.715 Y120.392 E1877.94585
G1 X121.285 Y120.392 E1878.10250
G1 X147.914 Y135.766 E1881.17059
G1 X148.700 Y137.126 E1881.32732
G1 X148.700 Y167.874 E1884.39537
G0 F12000 X147.600 Y168.160
;TYPE:SKIN
G1 F2220 X147.600 Y136.841 E1887.52039
G0 F12000 X147.000 Y136.174
G1 F2220 X147.000 Y168.827 E1890.77852
G0 F12000 X146.400 Y169.174
G1 F2220 X146.400 Y135.827 E1894.10590
G0 F12000 X145.800 Y135.481
G1 F2220 X145.800 Y169.520 E1897.50233
G0 F12000 X145.200 Y169.867
G1 F2220 X145.200 Y135.134 E1900.96800
G0 F12000 X144.600 Y134.788
G1 F2220 X144.600 Y170.213 E1904.50272
G0 F12000 X144.000 Y170.559
G1 F2220 X144.000 Y134.442 E1908.10649
G0 F12000 X143.400 Y134.095
G1 F2220 X143.400 Y170.906 E1911.77950
G0 F12000 X142.800 Y171.252
G1 F2220 X142.800 Y133.749 E1915.52157
G0 F12000 X142.200 Y133.402
G1 F2220 X142.200 Y171.599 E1919.33288
G0 F12000 X141.600 Y171.945
G1 F2220 X141.600 Y133.056 E1923.21324
G0 F12000 X141.000 Y132.710
G1 F2220 X141.000 Y172.291 E1927.16265
G0 F12000 X140.400 Y172.638
G1 F2220 X140.400 Y132.363 E1931.18130
G0 F12000 X139.800 Y132.017
G1 F2220 X139.800 Y172.984 E1935.26901
G0 F12000 X139.200 Y173.331
G1 F2220 X139.200 Y131.670 E1939.42596
G0 F12000 X138.600 Y131.324
G1 F2220 X138.600 Y173.677 E1943.65196
G0 F12000 X138.000 Y174.023
G1 F2220 X138.000 Y130.978 E1947.94701
G0 F12000 X137.400 Y130.631
G1 F2220 X137.400 Y174.370 E1952.31130
G0 F12000 X136.800 Y174.716
G1 F2220 X136.800 Y130.285 E1956.74465
G0 F12000 X136.200 Y129.938
G1 F2220 X136.200 Y175.063 E1961.24724
G0 F12000 X135.600 Y175.409
G1 F2220 X135.600 Y129.592 E1965.81888
G0 F12000 X135.000 Y129.245
G1 F2220 X135.000 Y175.756 E1970.45976
G0 F12000 X134.400 Y176.102
G1 F2220 X134.400 Y128.899 E1975.16970
G0 F12000 X133.800 Y128.553
G1 F2220 X133.800 Y176.448 E1979.94868
G0 F12000 X133.200 Y176.795
G1 F2220 X133.200 Y128.206 E1984.79691
G0 F12000 X132.600 Y127.860
G1 F2220 X132.600 Y177.141 E1989.71419
G0 F12000 X132.000 Y177.488
G1 F2220 X132.000 Y127.513 E1994.70071
G0 F12000 X131.400 Y127.167
G1 F2220 X131.400 Y177.834 E1999.75629
G0 F12000 X130.800 Y178.180
G1 F2220 X130.800 Y126.821 E2004.88091
G0 F12000 X130.200 Y126.474
G1 F2220 X130.200 Y178.527 E2010.07478
G0 F12000 X129.600 Y178.873
G1 F2220 X129.600 Y126.128 E2015.33770
G0 F12000 X129.000 Y125.781
G1 F2220 X129.000 Y179.220 E2020.66986
G0 F12000 X128.400 Y179.566
G1 F2220 X128.400 Y125.435 E2026.07107
G0 F12000 X127.800 Y125.089
G1 F2220 X127.800 Y179.912 E2031.54133
G0 F12000 X127.200 Y180.259
G1 F2220 X127.200 Y124.742 E2037.08084
G0 F12000 X126.600 Y124.396
G1 F2220 X126.600 Y180.605 E2042.68940
G0 F12000 X126.000 Y180.952
G1 F2220 X126.000 Y124.049 E2048.36720
G0 F12000 X125.400 Y123.703
G1 F2220 X125.400 Y181.298 E2054.11406
G0 F12000 X124.800 Y181.644
G1 F2220 X124.800 Y123.357 E2059.92996
G0 F12000 X124.200 Y123.010
G1 F2220 X124.200 Y181.991 E2065.81511
G0 F12000 X123.600 Y182.337
G1 F2220 X123.600 Y122.664 E2071.76930
G0 F12000 X123.000 Y122.317
G1 F2220 X123.000 Y182.684 E2077.79275
G0 F12000 X122.400 Y183.030
G1 F2220 X122.400 Y121.971 E2083.88524
G0 F12000 X121.800 Y121.625
G1 F2220 X121.800 Y183.376 E2090.04678
G0 F12000 X121.200 Y183.723
G1 F2220 X121.200 Y121.278 E2096.27756
G0 F12000 X120.600 Y121.202
G1 F2220 X120.600 Y183.798 E2102.52342
G0 F12000 X120.000 Y183.798
G1 F2220 X120.000 Y121.202 E2108.76927
G0 F12000 X119.400 Y121.508
G1 F2220 X119.400 Y183.491 E2114.95396
G0 F12000 X118.800 Y183.145
G1 F2220 X118.800 Y121.854 E2121.06960
G0 F12000 X118.200 Y122.201
G1 F2220 X118.200 Y182.798 E2127.11600
G0 F12000 X117.600 Y182.452
G1 F2220 X117.600 Y122.547 E2133.09334
G0 F12000 X117.000 Y122.894
G1 F2220 X117.000 Y182.105 E2139.00144
G0 F12000 X116.400 Y181.759
G1 F2220 X116.400 Y123.240 E2144.84049
G0 F12000 X115.800 Y123.587
G1 F2220 X115.800 Y181.412 E2150.61029
G0 F12000 X115.200 Y181.066
G1 F2220 X115.200 Y123.933 E2156.31104
G0 F12000 X114.600 Y124.279
G1 F2220 X114.600 Y180.720 E2161.94275
G0 F12000 X114.000 Y180.373
G1 F2220 X114.000 Y124.626 E2167.50521
G0 F12000 X113.400 Y124.972
G1 F2220 X113.400 Y180.027 E2172.99862
G0 F12000 X112.800 Y179.680
G1 F2220 X112.800 Y125.319 E2178.42278
G0 F12000 X112.200 Y125.665
G1 F2220 X112.200 Y179.334 E2183.77790
G0 F12000 X111.600 Y178.988
G1 F2220 X111.600 Y126.011 E2189.06396
G0 F12000 X111.000 Y126.358
G1 F2220 X111.000 Y178.641 E2194.28078
G0 F12000 X110.400 Y178.295
G1 F2220 X110.400 Y126.704 E2199.42855
G0 F12000 X109.800 Y127.051
G1 F2220 X109.800 Y177.948 E2204.50707
G0 F12000 X109.200 Y177.602
G1 F2220 X109.200 Y127.397 E2209.51655
G0 F12000 X108.600 Y127.743
G1 F2220 X108.600 Y177.256 E2214.45698
G0 F12000 X108.000 Y176.909
G1 F2220 X108.000 Y128.090 E2219.32816
G0 F12000 X107.400 Y128.436
G1 F2220 X107.400 Y176.563 E2224.13029
G0 F12000 X106.800 Y176.216
G1 F2220 X106.800 Y128.783 E2228.86317
G0 F12000 X106.200 Y129.129
G1 F2220 X106.200 Y175.870 E2233.52701
G0 F12000 X105.600 Y175.524
G1 F2220 X105.600 Y129.475 E2238.12180
G0 F12000 X105.000 Y129.822
G1 F2220 X105.000 Y175.177 E2242.64734
G0 F12000 X104.400 Y174.831
G1 F2220 X104.400 Y130.168 E2247.10383
G0 F12000 X103.800 Y130.515
G1 F2220 X103.800 Y174.484 E2251.49107
G0 F12000 X103.200 Y174.138
G1 F2220 X103.200 Y130.861 E2255.80927
G0 F12000 X102.600 Y131.208
G1 F2220 X102.600 Y173.791 E2260.05822
G0 F12000 X102.000 Y173.445
G1 F2220 X102.000 Y131.554 E2264.23812
G0 F12000 X101.400 Y131.900
G1 F2220 X101.400 Y173.099 E2268.34897
G0 F12000 X100.800 Y172.752
G1 F2220 X100.800 Y132.247 E2272.39058
G0 F12000 X100.200 Y132.593
G1 F2220 X100.200 Y172.406 E2276.36314
G0 F12000 X99.600 Y172.059
G1 F2220 X99.600 Y132.940 E2280.26644
G0 F12000 X99.000 Y133.286
G1 F2220 X99.000 Y171.713 E2284.10071
G0 F12000 X98.400 Y171.367
G1 F2220 X98.400 Y133.632 E2287.86592
G0 F12000 X97.800 Y133.979
G1 F2220 X97.800 Y171.020 E2291.56189
G0 F12000 X97.200 Y170.674
G1 F2220 X97.200 Y134.325 E2295.18880
G0 F12000 X96.600 Y134.672
G1 F2220 X96.600 Y170.327 E2298.74647
G0 F12000 X96.000 Y169.981
G1 F2220 X96.000 Y135.018 E2302.23510
G0 F12000 X95.400 Y135.364
G1 F2220 X95.400 Y169.635 E2305.65467
G0 F12000 X94.800 Y169.288
G1 F2220 X94.800 Y135.711 E2309.00500
G0 F12000 X94.200 Y136.057
G1 F2220 X94.200 Y168.942 E2312.28628
G0 F12000 X93.600 Y168.503
G1 F2220 X93.600 Y136.496 E2315.47995
G1 F2100 E2315.07995
G1 Z1.600
G0 F12000 X156.900 Y137.286
;TYPE:WALL-INNER
G1 Z1.200
G1 F2100 E2315.47995
G1 F2220 X157.524 Y136.205 E2315.60449
G1 X183.874 Y120.992 E2318.64044
G1 X185.126 Y120.992 E2318.76536
G1 X211.474 Y136.204 E2321.80108
G1 X212.100 Y137.287 E2321.92590
G1 X212.100 Y167.713 E2324.96182
G1 X211.474 Y168.796 E2325.08663
G1 X185.126 Y184.008 E2328.12236
G1 X183.874 Y184.008 E2328.24728
G1 X157.524 Y168.795 E2331.28323
G1 X156.900 Y167.714 E2331.40777
G1 X156.900 Y137.286 E2334.44389
G0 F12000 X156.300 Y137.126
;TYPE:WALL-OUTER
G1 F2220 X157.086 Y135.766 E2334.60062
G1 X183.715 Y120.392 E2337.66871
G1 X185.285 Y120.392 E2337.82537
G1 X211.913 Y135.766 E2340.89337
G1 X212.700 Y137.126 E2341.05015
G1 X212.700 Y167.874 E2344.11820
G1 X211.913 Y169.234 E2344.27498
G1 X185.285 Y184.608 E2347.34298
G1 X183.715 Y184.608 E2347.49964
G1 X157.086 Y169.234 E2350.56773
G1 X156.300 Y167.874 E2350.72446
G1 X156.300 Y137.126 E2353.79251
G0 F12000 X157.200 Y137.187
;TYPE:SKIN
G1 F2220 X157.200 Y167.812 E2356.84828
G0 F12000 X157.800 Y168.711
G1 F2220 X157.800 Y136.288 E2360.08346
G0 F12000 X158.400 Y135.942
G1 F2220 X158.400 Y169.057 E2363.38769
G0 F12000 X159.000 Y169.404
G1 F2220 X159.000 Y135.595 E2366.76117
G0 F12000 X159.600 Y135.249
G1 F2220 X159.600 Y169.750 E2370.20369
G0 F12000 X160.200 Y170.097
G1 F2220 X160.200 Y134.902 E2373.71546
G0 F12000 X160.800 Y134.556
G1 F2220 X160.800 Y170.443 E2377.29628
G0 F12000 X161.400 Y170.789
G1 F2220 X161.400 Y134.210 E2380.94615
G0 F12000 X162.000 Y133.863
G1 F2220 X162.000 Y171.136 E2384.66526
G0 F12000 X162.600 Y171.482
G1 F2220 X162.600 Y133.517 E2388.45343
G0 F12000 X163.200 Y133.170
G1 F2220 X163.200 Y171.829 E2392.31084
G0 F12000 X163.800 Y172.175
G1 F2220 X163.800 Y132.824 E2396.23730
G0 F12000 X164.400 Y132.478
G1 F2220 X164.400 Y172.521 E2400.23280
G0 F12000 X165.000 Y172.868
G1 F2220 X165.000 Y132.131 E2404.29756
G0 F12000 X165.600 Y131.785
G1 F2220 X165.600 Y173.214 E2408.43136
G0 F12000 X166.200 Y173.561
G1 F2220 X166.200 Y131.438 E2412.63441
G0 F12000 X166.800 Y131.092
G1 F2220 X166.800 Y173.907 E2416.90651
G0 F12000 X167.400 Y174.253
G1 F2220 X167.400 Y130.746 E2421.24765
G0 F12000 X168.000 Y130.399
G1 F2220 X168.000 Y174.600 E2425.65805
G0 F12000 X168.600 Y174.946
G1 F2220 X168.600 Y130.053 E2430.13749
G0 F12000 X169.200 Y129.706
G1 F2220 X169.200 Y175.293 E2434.68618
G0 F12000 X169.800 Y175.639
G1 F2220 X169.800 Y129.360 E2439.30392
G0 F12000 X170.400 Y129.014
G1 F2220 X170.400 Y175.985 E2443.99070
G0 F12000 X171.000 Y176.332
G1 F2220 X171.000 Y128.667 E2448.74673
G0 F12000 X171.600 Y128.321
G1 F2220 X171.600 Y176.678 E2453.57182
G0 F12000 X172.200 Y177.025
G1 F2220 X172.200 Y127.974 E2458.46614
G0 F12000 X172.800 Y127.628
G1 F2220 X172.800 Y177.371 E2463.42952
G0 F12000 X173.400 Y177.717
G1 F2220 X173.400 Y127.282 E2468.46195
G0 F12000 X174.000 Y126.935
G1 F2220 X174.000 Y178.064 E2473.56362
G0 F12000 X174.600 Y178.410
G1 F2220 X174.600 Y126.589 E2478.73434
G0 F12000 X175.200 Y126.242
G1 F2220 X175.200 Y178.757 E2483.97431
G0 F12000 X175.800 Y179.103
G1 F2220 X175.800 Y125.896 E2489.28332
G0 F12000 X176.400 Y125.549
G1 F2220 X176.400 Y179.450 E2494.66159
G0 F12000 X177.000 Y179.796
G1 F2220 X177.000 Y125.203 E2500.10890
G0 F12000 X177.600 Y124.857
G1 F2220 X177.600 Y180.142 E2505.62526
G0 F12000 X178.200 Y180.489
G1 F2220 X178.200 Y124.510 E2511.21086
G0 F12000 X178.800 Y124.164
G1 F2220 X178.800 Y180.835 E2516.86552
G0 F12000 X179.400 Y181.182
G1 F2220 X179.400 Y123.817 E2522.58942
G0 F12000 X180.000 Y123.471
G1 F2220 X180.000 Y181.528 E2528.38237
G0 F12000 X180.600 Y181.874
G1 F2220 X180.600 Y123.125 E2534.24437
G0 F12000 X181.200 Y122.778
G1 F2220 X181.200 Y182.221 E2540.17562
G0 F12000 X181.800 Y182.567
G1 F2220 X181.800 Y122.432 E2546.17591
G0 F12000 X182.400 Y122.085
G1 F2220 X182.400 Y182.914 E2552.24546
G0 F12000 X183.000 Y183.260
G1 F2220 X183.000 Y121.739 E2558.38405
G0 F12000 X183.600 Y121.393
G1 F2220 X183.600 Y183.606 E2564.59169
G0 F12000 X184.200 Y183.798
G1 F2220 X184.200 Y121.202 E2570.83754
G0 F12000 X184.800 Y121.202
G1 F2220 X184.800 Y183.798 E2577.08339
G0 F12000 X185.400 Y183.607
G1 F2220 X185.400 Y121.394 E2583.29103
G0 F12000 X186.000 Y121.740
G1 F2220 X186.000 Y183.261 E2589.42962
G0 F12000 X186.600 Y182.915
G1 F2220 X186.600 Y122.086 E2595.49916
G0 F12000 X187.200 Y122.433
G1 F2220 X187.200 Y182.568 E2601.49946
G0 F12000 X187.800 Y182.222
G1 F2220 X187.800 Y122.779 E2607.43071
G0 F12000 X188.400 Y123.126
G1 F2220 X188.400 Y181.875 E2613.29271
G0 F12000 X189.000 Y181.529
G1 F2220 X189.000 Y123.472 E2619.08566
G0 F12000 X189.600 Y123.818
G1 F2220 X189.600 Y181.183 E2624.80956
G0 F12000 X190.200 Y180.836
G1 F2220 X190.200 Y124.165 E2630.46421
G0 F12000 X190.800 Y124.511
G1 F2220 X190.800 Y180.490 E2636.04982
G0 F12000 X191.400 Y180.143
G1 F2220 X191.400 Y124.858 E2641.56618
G0 F12000 X192.000 Y125.204
G1 F2220 X192.000 Y179.797 E2647.01349
G0 F12000 X192.600 Y179.450
G1 F2220 X192.600 Y125.551 E2652.39156
G0 F12000 X193.200 Y125.897
G1 F2220 X193.200 Y179.104 E2657.70057
G0 F12000 X193.800 Y178.758
G1 F2220 X193.800 Y126.243 E2662.94054
G0 F12000 X194.400 Y126.590
G1 F2220 X194.400 Y178.411 E2668.11126
G0 F12000 X195.000 Y178.065
G1 F2220 X195.000 Y126.936 E2673.21293
G0 F12000 X195.600 Y127.283
G1 F2220 X195.600 Y177.718 E2678.24536
G0 F12000 X196.200 Y177.372
G1 F2220 X196.200 Y127.629 E2683.20874
G0 F12000 X196.800 Y127.975
G1 F2220 X196.800 Y177.026 E2688.10306
G0 F12000 X197.400 Y176.679
G1 F2220 X197.400 Y128.322 E2692.92814
G0 F12000 X198.000 Y128.668
G1 F2220 X198.000 Y176.333 E2697.68418
G0 F12000 X198.600 Y175.986
G1 F2220 X198.600 Y129.015 E2702.37096
G0 F12000 X199.200 Y129.361
G1 F2220 X199.200 Y175.640 E2706.98870
G0 F12000 X199.800 Y175.294
G1 F2220 X199.800 Y129.707 E2711.53739
G0 F12000 X200.400 Y130.054
G1 F2220 X200.400 Y174.947 E2716.01683
G0 F12000 X201.000 Y174.601
G1 F2220 X201.000 Y130.400 E2720.42723
G0 F12000 X201.600 Y130.747
G1 F2220 X201.600 Y174.254 E2724.76837
G0 F12000 X202.200 Y173.908
G1 F2220 X202.200 Y131.093 E2729.04047
G0 F12000 X202.800 Y131.439
G1 F2220 X202.800 Y173.562 E2733.24352
G0 F12000 X203.400 Y173.215
G1 F2220 X203.400 Y131.786 E2737.37732
G0 F12000 X204.000 Y132.132
G1 F2220 X204.000 Y172.869 E2741.44208
G0 F12000 X204.600 Y172.522
G1 F2220 X204.600 Y132.479 E2745.43758
G0 F12000 X205.200 Y132.825
G1 F2220 X205.200 Y172.176 E2749.36404
G0 F12000 X205.800 Y171.829
G1 F2220 X205.800 Y133.172 E2753.22125
G0 F12000 X206.400 Y133.518
G1 F2220 X206.400 Y171.483 E2757.00942
G0 F12000 X207.000 Y171.137
G1 F2220 X207.000 Y133.864 E2760.72853
G0 F12000 X207.600 Y134.211
G1 F2220 X207.600 Y170.790 E2764.37840
G0 F12000 X208.200 Y170.444
G1 F2220 X208.200 Y134.557 E2767.95922
G0 F12000 X208.800 Y134.904
G1 F2220 X208.800 Y170.097 E2771.47079
G0 F12000 X209.400 Y169.751
G1 F2220 X209.400 Y135.250 E2774.91331
G0 F12000 X210.000 Y135.596
G1 F2220 X210.000 Y169.405 E2778.28679
G0 F12000 X210.600 Y169.058
G1 F2220 X210.600 Y135.943 E2781.59102
G0 F12000 X211.200 Y136.289
G1 F2220 X211.200 Y168.712 E2784.82620
G0 F12000 X211.800 Y167.812
G1 F2220 X211.800 Y137.189 E2787.88177
;LAYER:3
M106 S63
G1 F2100 E2787.48177
G1 Z1.600
G0 F12000 X148.500 Y137.455 Z1.600
;TYPE:WALL-INNER
G1 Z1.600
G1 F2100 E2787.88177
G1 F2400 X148.500 Y167.545 E2790.88417
G1 X147.529 Y169.226 E2791.07787
G1 X121.472 Y184.270 E2794.08006
G1 X119.528 Y184.270 E2794.27404
G1 X93.471 Y169.226 E2797.27623
G1 X92.500 Y167.545 E2797.46993
G1 X92.500 Y137.455 E2800.47233
G1 X93.471 Y135.774 E2800.66603
G1 X119.528 Y120.730 E2803.66822
G1 X121.472 Y120.730 E2803.86220
G1 X147.529 Y135.774 E2806.86439
G1 X148.500 Y137.455 E2807.05809
G0 F12000 X149.100 Y137.295
;TYPE:WALL-OUTER
G1 F2400 X149.100 Y167.705 E2810.09242
G1 X147.967 Y169.665 E2810.31831
G1 X121.631 Y184.870 E2813.35265
G1 X119.369 Y184.870 E2813.57835
G1 X93.033 Y169.665 E2816.61269
G1 X91.900 Y167.705 E2816.83858
G1 X91.900 Y137.295 E2819.87290
G1 X93.033 Y135.335 E2820.09880
G1 X119.369 Y120.130 E2823.13313
G1 X121.631 Y120.130 E2823.35884
G1 X147.967 Y135.335 E2826.39317
G1 X149.100 Y137.295 E2826.61907
G1 F2100 E2826.21907
G1 Z2.000
G0 F12000 X147.204 Y136.174
;TYPE:FILL
G1 Z1.600
G1 F2100 E2826.61907
G1 F2400 X93.010 Y167.463 E2832.86311
G1 F2100 E2832.46311
G1 Z2.000
G0 F12000 X93.009 Y160.169
G1 Z1.600
G1 F2100 E2832.86311
G1 F2400 X127.600 Y180.140 E2836.84856
G1 F2100 E2836.44856
G1 Z2.000
G0 F12000 X121.283 Y183.789
G1 Z1.600
G1 F2100 E2836.84856
G1 F2400 X121.283 Y121.212 E2843.09252
G1 F2100 E2842.69252
G1 Z2.000
G0 F12000 X127.599 Y124.856
G1 Z1.600
G1 F2100 E2843.09252
G1 F2400 X93.010 Y144.826 E2847.07774
G1 F2100 E2846.67774
G1 Z2.000
G0 F12000 X93.009 Y148.850
G1 Z1.600
G1 F2100 E2847.07774
G1 F2400 X137.402 Y174.481 E2852.19258
G1 F2100 E2851.79258
G1 Z2.000
G0 F12000 X131.085 Y178.130
G1 Z1.600
G1 F2100 E2852.19258
G1 F2400 X131.085 Y126.871 E2857.30723
G1 F2100 E2856.90723
G1 Z2.000
G0 F12000 X137.401 Y130.516
G1 Z1.600
G1 F2100 E2857.30723
G1 F2400 X93.010 Y156.145 E2862.42180
G1 F2100 E2862.02180
G1 Z2.000
G0 F12000 X93.009 Y137.532
G1 Z1.600
G1 F2100 E2862.42180
G1 F2400 X147.204 Y168.822 E2868.66598
G1 F2100 E2868.26598
G1 Z2.000
G0 F12000 X140.887 Y172.471
G1 Z1.600
G1 F2100 E2868.66598
G1 F2400 X140.887 Y132.530 E2872.65131
G1 F2100 E2872.25131
G1 Z2.000
G0 F12000 X147.990 Y146.639
G1 Z1.600
G1 F2100 E2872.65131
G1 F2400 X111.832 Y125.763 E2876.81731
G0 F12000 X111.481 Y125.966
G1 F2400 X111.481 Y179.033 E2882.11236
G0 F12000 X111.828 Y179.235
G1 F2400 X147.989 Y158.358 E2886.27868
G0 F12000 X147.990 Y157.957
G1 F2400 X102.030 Y131.422 E2891.57402
G0 F12000 X101.679 Y131.625
G1 F2400 X101.679 Y173.374 E2895.73976
G0 F12000 X102.027 Y173.576
G1 F2400 X147.988 Y147.040 E2901.03524
G0 F12000 X148.289 Y147.000
;TYPE:SKIN
G1 F2400 X147.209 Y147.300 E2901.14298
G1 X148.289 Y147.900 E2901.25064
G1 X147.209 Y148.500 E2901.35831
G1 X148.289 Y149.100 E2901.46597
G1 X147.209 Y149.700 E2901.57363
G1 X148.289 Y150.300 E2901.68129
G1 X147.209 Y150.900 E2901.78895
G1 X148.289 Y151.500 E2901.89661
G1 X147.209 Y152.100 E2902.00427
G1 X148.289 Y152.700 E2902.11194
G1 X147.209 Y153.300 E2902.21960
G1 X148.289 Y153.900 E2902.32726
G1 X147.209 Y154.500 E2902.43492
G1 X148.289 Y155.100 E2902.54258
G1 X147.209 Y155.700 E2902.65024
G1 X148.289 Y156.300 E2902.75790
G1 X147.209 Y156.900 E2902.86556
G1 X148.289 Y157.500 E2902.97323
G1 X147.209 Y158.100 E2903.08089
G1 X148.289 Y158.700 E2903.18855
G1 X147.209 Y159.300 E2903.29621
G1 X148.289 Y159.600 E2903.40805
G1 F2100 E2903.00805
G1 Z2.000
G0 F12000 X148.289 Y146.400
G1 Z1.600
G1 F2100 E2903.40805
G1 F2400 X147.209 Y146.100 E2903.51579
G1 X148.289 Y145.500 E2903.62346
G1 X147.209 Y144.900 E2903.73112
G1 X148.289 Y144.300 E2903.83878
G1 X147.209 Y143.700 E2903.94644
G1 X148.289 Y143.100 E2904.05410
G1 X147.209 Y142.500 E2904.16176
G1 X148.289 Y141.900 E2904.26942
G1 X147.209 Y141.300 E2904.37708
G1 X148.289 Y140.700 E2904.48475
G1 X147.209 Y140.100 E2904.59241
G1 X148.289 Y139.500 E2904.70007
G1 X147.209 Y138.900 E2904.80773
G1 X148.289 Y138.300 E2904.91539
G1 X147.209 Y137.700 E2905.02305
G1 X148.052 Y137.100 E2905.12440
G1 X146.725 Y136.800 E2905.26015
G0 F12000 X147.532 Y136.200
G1 F2400 X145.686 Y136.200 E2905.44435
G0 F12000 X144.647 Y135.600
G1 F2400 X146.808 Y135.600 E2905.65997
G0 F12000 X145.769 Y135.000
G1 F2400 X143.608 Y135.000 E2905.87560
G0 F12000 X142.568 Y134.400
G1 F2400 X144.730 Y134.400 E2906.09132
G0 F12000 X143.690 Y133.800
G1 F2400 X141.529 Y133.800 E2906.30695
G0 F12000 X140.490 Y133.200
G1 F2400 X142.651 Y133.200 E2906.52258
G0 F12000 X141.612 Y132.600
G1 F2400 X139.451 Y132.600 E2906.73820
G0 F12000 X138.411 Y132.000
G1 F2400 X140.573 Y132.000 E2906.95393
G0 F12000 X139.533 Y131.400
G1 F2400 X137.372 Y131.400 E2907.16955
G0 F12000 X136.333 Y130.800
G1 F2400 X138.494 Y130.800 E2907.38518
G0 F12000 X137.455 Y130.200
G1 F2400 X135.294 Y130.200 E2907.60080
G0 F12000 X134.254 Y129.600
G1 F2400 X136.416 Y129.600 E2907.81653
G0 F12000 X135.377 Y129.000
G1 F2400 X133.215 Y129.000 E2908.03225
G0 F12000 X132.176 Y128.400
G1 F2400 X134.337 Y128.400 E2908.24788
G0 F12000 X133.298 Y127.800
G1 F2400 X131.137 Y127.800 E2908.46350
G0 F12000 X130.098 Y127.200
G1 F2400 X132.259 Y127.200 E2908.67913
G0 F12000 X131.220 Y126.600
G1 F2400 X129.058 Y126.600 E2908.89485
G0 F12000 X128.019 Y126.000
G1 F2400 X130.180 Y126.000 E2909.11048
G0 F12000 X129.141 Y125.400
G1 F2400 X126.980 Y125.400 E2909.32611
G0 F12000 X125.941 Y124.800
G1 F2400 X128.102 Y124.800 E2909.54173
G0 F12000 X127.063 Y124.200
G1 F2400 X124.901 Y124.200 E2909.75746
G0 F12000 X123.862 Y123.600
G1 F2400 X126.023 Y123.600 E2909.97308
G0 F12000 X124.984 Y123.000
G1 F2400 X122.823 Y123.000 E2910.18871
G0 F12000 X121.784 Y122.400
G1 F2400 X123.945 Y122.400 E2910.40433
G0 F12000 X122.906 Y121.800
G1 F2400 X120.744 Y121.800 E2910.62006
G0 F12000 X120.253 Y121.800
G1 F2400 X118.093 Y121.800 E2910.83558
G0 F12000 X117.054 Y122.400
G1 F2400 X119.213 Y122.400 E2911.05101
G0 F12000 X118.174 Y123.000
G1 F2400 X116.015 Y123.000 E2911.26644
G0 F12000 X114.976 Y123.600
G1 F2400 X117.135 Y123.600 E2911.48186
G0 F12000 X116.096 Y124.200
G1 F2400 X113.936 Y124.200 E2911.69739
G0 F12000 X112.897 Y124.800
G1 F2400 X115.056 Y124.800 E2911.91281
G0 F12000 X114.017 Y125.400
G1 F2400 X111.858 Y125.400 E2912.12824
G0 F12000 X110.819 Y126.000
G1 F2400 X112.978 Y126.000 E2912.34366
G0 F12000 X111.939 Y126.600
G1 F2400 X109.779 Y126.600 E2912.55919
G0 F12000 X108.740 Y127.200
G1 F2400 X110.899 Y127.200 E2912.77462
G0 F12000 X109.860 Y127.800
G1 F2400 X107.701 Y127.800 E2912.99004
G0 F12000 X106.662 Y128.400
G1 F2400 X108.821 Y128.400 E2913.20547
G0 F12000 X107.782 Y129.000
G1 F2400 X105.622 Y129.000 E2913.42099
G0 F12000 X104.583 Y129.600
G1 F2400 X106.743 Y129.600 E2913.63652
G0 F12000 X105.703 Y130.200
G1 F2400 X103.544 Y130.200 E2913.85195
G0 F12000 X102.505 Y130.800
G1 F2400 X104.664 Y130.800 E2914.06737
G0 F12000 X103.625 Y131.400
G1 F2400 X101.466 Y131.400 E2914.28280
G0 F12000 X100.426 Y132.000
G1 F2400 X102.586 Y132.000 E2914.49832
G0 F12000 X101.546 Y132.600
G1 F2400 X99.387 Y132.600 E2914.71375
G0 F12000 X98.348 Y133.200
G1 F2400 X100.507 Y133.200 E2914.92917
G1 F2100 E2914.52917
G1 Z2.000
G0 F12000 X119.132 Y121.200
G1 Z1.600
G1 F2100 E2914.92917
G1 F2400 X121.867 Y121.200 E2915.20207
G1 F2100 E2914.80207
G1 Z2.000
G0 F12000 X99.468 Y133.800
G1 Z1.600
G1 F2100 E2915.20207
G1 F2400 X97.309 Y133.800 E2915.41750
G0 F12000 X96.269 Y134.400
G1 F2400 X98.429 Y134.400 E2915.63303
G0 F12000 X97.389 Y135.000
G1 F2400 X95.230 Y135.000 E2915.84845
G0 F12000 X94.191 Y135.600
G1 F2400 X96.350 Y135.600 E2916.06388
G0 F12000 X95.311 Y136.200
G1 F2400 X93.467 Y136.200 E2916.24787
G0 F12000 X93.120 Y136.800
G1 F2400 X94.030 Y137.100 E2916.36276
G1 X92.741 Y137.700 E2916.46396
G1 X93.789 Y138.300 E2916.57160
G1 X92.709 Y138.900 E2916.67926
G1 X93.789 Y139.500 E2916.78692
G1 X92.709 Y140.100 E2916.89459
G1 X93.789 Y140.700 E2917.00225
G1 X92.709 Y141.300 E2917.10991
G1 X93.789 Y141.900 E2917.21757
G1 X92.709 Y142.500 E2917.32523
G1 X93.789 Y143.100 E2917.43289
G1 X92.709 Y143.700 E2917.54055
G1 X93.789 Y144.300 E2917.64821
G1 X92.709 Y144.900 E2917.75588
G1 X93.789 Y145.500 E2917.86354
G1 X92.709 Y146.100 E2917.97120
G1 X93.789 Y146.700 E2918.07886
G1 X92.709 Y147.300 E2918.18652
G1 X93.789 Y147.900 E2918.29418
G1 X92.709 Y148.500 E2918.40184
G1 X93.789 Y149.100 E2918.50950
G1 X92.709 Y149.700 E2918.61717
G1 X93.789 Y150.300 E2918.72483
G1 X92.709 Y150.900 E2918.83249
G1 X93.789 Y151.500 E2918.94015
G1 X92.709 Y152.100 E2919.04781
G1 X93.789 Y152.700 E2919.15547
G1 X92.709 Y153.300 E2919.26313
G1 X93.789 Y153.900 E2919.37079
G1 X92.709 Y154.500 E2919.47846
G1 X93.789 Y155.100 E2919.58612
G1 X92.709 Y155.700 E2919.69378
G1 X93.789 Y156.300 E2919.80144
G1 X92.709 Y156.900 E2919.90910
G1 X93.789 Y157.500 E2920.01676
G1 X92.709 Y158.100 E2920.12442
G1 X93.789 Y158.700 E2920.23208
G1 X92.709 Y159.300 E2920.33975
G1 X93.789 Y159.900 E2920.44741
G1 X92.709 Y160.500 E2920.55507
G1 X93.789 Y161.100 E2920.66273
G1 X92.709 Y161.700 E2920.77039
G1 X93.789 Y162.300 E2920.87805
G1 X92.709 Y162.900 E2920.98571
G1 X93.789 Y163.500 E2921.09338
G1 X92.709 Y164.100 E2921.20104
G1 X93.789 Y164.700 E2921.30870
G1 X92.709 Y165.300 E2921.41636
G1 X93.789 Y165.900 E2921.52402
G1 X92.709 Y166.500 E2921.63168
G1 X93.789 Y167.100 E2921.73934
G1 X92.857 Y167.700 E2921.84699
G1 X93.930 Y168.000 E2921.95816
G0 F12000 X93.351 Y168.600
G1 F2400 X94.969 Y168.600 E2922.11961
G0 F12000 X96.008 Y169.200
G1 F2400 X93.847 Y169.200 E2922.33523
G0 F12000 X94.886 Y169.800
G1 F2400 X97.047 Y169.800 E2922.55086
G0 F12000 X98.087 Y170.400
G1 F2400 X95.925 Y170.400 E2922.76658
G0 F12000 X96.965 Y171.000
G1 F2400 X99.126 Y171.000 E2922.98221
G0 F12000 X100.165 Y171.600
G1 F2400 X98.004 Y171.600 E2923.19784
G0 F12000 X99.043 Y172.200
G1 F2400 X101.204 Y172.200 E2923.41346
G0 F12000 X102.244 Y172.800
G1 F2400 X100.082 Y172.800 E2923.62919
G0 F12000 X101.122 Y173.400
G1 F2400 X103.283 Y173.400 E2923.84481
G0 F12000 X104.322 Y174.000
G1 F2400 X102.161 Y174.000 E2924.06044
G0 F12000 X103.200 Y174.600
G1 F2400 X105.361 Y174.600 E2924.27606
G0 F12000 X106.401 Y175.200
G1 F2400 X104.239 Y175.200 E2924.49179
G0 F12000 X105.278 Y175.800
G1 F2400 X107.440 Y175.800 E2924.70751
G0 F12000 X108.479 Y176.400
G1 F2400 X106.318 Y176.400 E2924.92314
G0 F12000 X107.357 Y177.000
G1 F2400 X109.518 Y177.000 E2925.13876
G0 F12000 X110.558 Y177.600
G1 F2400 X108.396 Y177.600 E2925.35449
G0 F12000 X109.435 Y178.200
G1 F2400 X111.597 Y178.200 E2925.57021
G0 F12000 X112.636 Y178.800
G1 F2400 X110.475 Y178.800 E2925.78584
G0 F12000 X111.514 Y179.400
G1 F2400 X113.675 Y179.400 E2926.00147
G0 F12000 X114.714 Y180.000
G1 F2400 X112.553 Y180.000 E2926.21709
G0 F12000 X113.592 Y180.600
G1 F2400 X115.754 Y180.600 E2926.43282
G0 F12000 X116.793 Y181.200
G1 F2400 X114.632 Y181.200 E2926.64844
G0 F12000 X115.671 Y181.800
G1 F2400 X117.832 Y181.800 E2926.86407
G0 F12000 X118.871 Y182.400
G1 F2400 X116.710 Y182.400 E2927.07969
G0 F12000 X117.749 Y183.000
G1 F2400 X119.911 Y183.000 E2927.29542
G0 F12000 X118.788 Y183.600
G1 F2400 X122.209 Y183.600 E2927.63677
G0 F12000 X123.248 Y183.000
G1 F2400 X121.088 Y183.000 E2927.85229
G0 F12000 X122.128 Y182.400
G1 F2400 X124.287 Y182.400 E2928.06772
G0 F12000 X125.326 Y181.800
G1 F2400 X123.167 Y181.800 E2928.28314
G0 F12000 X124.206 Y181.200
G1 F2400 X126.365 Y181.200 E2928.49857
G0 F12000 X127.405 Y180.600
G1 F2400 X125.245 Y180.600 E2928.71410
G0 F12000 X126.285 Y180.000
G1 F2400 X128.444 Y180.000 E2928.92952
G0 F12000 X129.483 Y179.400
G1 F2400 X127.324 Y179.400 E2929.14495
G0 F12000 X128.363 Y178.800
G1 F2400 X130.522 Y178.800 E2929.36037
G0 F12000 X131.562 Y178.200
G1 F2400 X129.402 Y178.200 E2929.57590
G0 F12000 X130.441 Y177.600
G1 F2400 X132.601 Y177.600 E2929.79142
G0 F12000 X133.640 Y177.000
G1 F2400 X131.481 Y177.000 E2930.00685
G0 F12000 X132.520 Y176.400
G1 F2400 X134.679 Y176.400 E2930.22228
G0 F12000 X135.719 Y175.800
G1 F2400 X133.559 Y175.800 E2930.43780
G0 F12000 X134.598 Y175.200
G1 F2400 X136.758 Y175.200 E2930.65333
G0 F12000 X137.797 Y174.600
G1 F2400 X135.638 Y174.600 E2930.86875
G0 F12000 X136.677 Y174.000
G1 F2400 X138.836 Y174.000 E2931.08418
G0 F12000 X139.875 Y173.400
G1 F2400 X137.716 Y173.400 E2931.29961
G0 F12000 X138.755 Y172.800
G1 F2400 X140.915 Y172.800 E2931.51513
G0 F12000 X141.954 Y172.200
G1 F2400 X139.795 Y172.200 E2931.73056
G0 F12000 X140.834 Y171.600
G1 F2400 X142.993 Y171.600 E2931.94598
G0 F12000 X144.032 Y171.000
G1 F2400 X141.873 Y171.000 E2932.16141
G0 F12000 X142.912 Y170.400
G1 F2400 X145.072 Y170.400 E2932.37693
G0 F12000 X146.111 Y169.800
G1 F2400 X143.952 Y169.800 E2932.59236
G0 F12000 X144.991 Y169.200
G1 F2400 X147.150 Y169.200 E2932.80779
G0 F12000 X147.646 Y168.600
G1 F2400 X146.030 Y168.600 E2932.96903
G0 F12000 X147.069 Y168.000
G1 F2400 X148.140 Y167.700 E2933.06114
G1 X147.209 Y167.100 E2933.16890
G1 X148.289 Y166.500 E2933.27656
G1 X147.209 Y165.900 E2933.38422
G1 X148.289 Y165.300 E2933.49188
G1 X147.209 Y164.700 E2933.59954
G1 X148.289 Y164.100 E2933.70720
G1 X147.209 Y163.500 E2933.81486
G1 X148.289 Y162.900 E2933.92252
G1 X147.209 Y162.300 E2934.03019
G1 X148.289 Y161.700 E2934.13785
G1 X147.209 Y161.100 E2934.24551
G1 X148.289 Y160.500 E2934.35317
G1 X147.209 Y160.200 E2934.46501
G1 F2100 E2934.06501
G1 Z2.000
G0 F12000 X156.500 Y167.545
;TYPE:WALL-INNER
G1 Z1.600
G1 F2100 E2934.46501
G1 F2400 X156.500 Y137.455 E2937.46741
G1 X157.471 Y135.774 E2937.66111
G1 X183.528 Y120.730 E2940.66330
G1 X185.472 Y120.730 E2940.85728
G1 X211.529 Y135.774 E2943.85947
G1 X212.500 Y137.455 E2944.05317
G1 X212.500 Y167.545 E2947.05557
G1 X211.529 Y169.226 E2947.24927
G1 X185.472 Y184.270 E2950.25146
G1 X183.528 Y184.270 E2950.44544
G1 X157.471 Y169.226 E2953.44763
G1 X156.500 Y167.545 E2953.64134
G0 F12000 X155.900 Y167.705
;TYPE:WALL-OUTER
G1 F2400 X155.900 Y137.295 E2956.67566
G1 X157.033 Y135.335 E2956.90155
G1 X183.369 Y120.130 E2959.93589
G1 X185.631 Y120.130 E2960.16159
G1 X211.967 Y135.335 E2963.19593
G1 X213.100 Y137.295 E2963.42182
G1 X213.100 Y167.705 E2966.45614
G1 X211.967 Y169.665 E2966.68204
G1 X185.631 Y184.870 E2969.71637
G1 X183.369 Y184.870 E2969.94208
G1 X157.033 Y169.665 E2972.97641
G1 X155.900 Y167.705 E2973.20231
G0 F12000 X157.010 Y167.463
;TYPE:FILL
G1 F2400 X211.203 Y136.175 E2979.44622
G1 F2100 E2979.04622
G1 Z2.000
G0 F12000 X204.887 Y132.530
G1 Z1.600
G1 F2100 E2979.44622
G1 F2400 X204.887 Y172.471 E2983.43155
G1 F2100 E2983.03155
G1 Z2.000
G0 F12000 X201.400 Y174.481
G1 Z1.600
G1 F2100 E2983.43155
G1 F2400 X157.009 Y148.852 E2988.54611
G1 F2100 E2988.14611
G1 Z2.000
G0 F12000 X157.009 Y144.827
G1 Z1.600
G1 F2100 E2988.54611
G1 F2400 X191.598 Y124.857 E2992.53134
G1 F2100 E2992.13134
G1 Z2.000
G0 F12000 X195.085 Y126.871
G1 Z1.600
G1 F2100 E2992.53134
G1 F2400 X195.085 Y178.130 E2997.64598
G1 F2100 E2997.24598
G1 Z2.000
G0 F12000 X191.599 Y180.140
G1 Z1.600
G1 F2100 E2997.64598
G1 F2400 X157.009 Y160.170 E3001.63129
G1 F2100 E3001.23129
G1 Z2.000
G0 F12000 X157.010 Y156.145
G1 Z1.600
G1 F2100 E3001.63129
G1 F2400 X201.400 Y130.516 E3006.74577
G1 F2100 E3006.34577
G1 Z2.000
G0 F12000 X185.283 Y121.212
G1 Z1.600
G1 F2100 E3006.74577
G1 F2400 X185.283 Y183.789 E3012.98973
G1 F2100 E3012.58973
G1 Z2.000
G0 F12000 X175.829 Y179.235
G1 Z1.600
G1 F2100 E3012.98973
G1 F2400 X211.989 Y158.358 E3017.15596
G0 F12000 X211.990 Y157.958
G1 F2400 X166.029 Y131.422 E3022.45145
G0 F12000 X165.679 Y131.625
G1 F2400 X165.679 Y173.374 E3026.61718
G0 F12000 X166.026 Y173.576
G1 F2400 X211.989 Y147.040 E3031.91284
G0 F12000 X211.990 Y146.640
G1 F2400 X175.831 Y125.763 E3036.07898
G0 F12000 X175.481 Y125.966
G1 F2400 X175.481 Y179.033 E3041.37403
G1 F2100 E3040.97403
G1 Z2.000
G0 F12000 X211.203 Y168.822
G1 Z1.600
G1 F2100 E3041.37403
G1 F2400 X157.009 Y137.533 E3047.61807
G0 F12000 X156.774 Y137.400
;TYPE:SKIN
G1 F2400 X157.789 Y137.700 E3047.71928
G1 X156.709 Y138.300 E3047.82694
G1 X157.789 Y138.900 E3047.93460
G1 X156.709 Y139.500 E3048.04226
G1 X157.789 Y139.800 E3048.15411
G1 F2100 E3047.75411
G1 Z2.000
G0 F12000 X158.272 Y136.800
G1 Z1.600
G1 F2100 E3048.15411
G1 F2400 X157.120 Y136.800 E3048.26905
G0 F12000 X157.467 Y136.200
G1 F2400 X159.311 Y136.200 E3048.45305
G0 F12000 X160.350 Y135.600
G1 F2400 X158.191 Y135.600 E3048.66848
G0 F12000 X159.230 Y135.000
G1 F2400 X161.389 Y135.000 E3048.88390
G0 F12000 X162.429 Y134.400
G1 F2400 X160.269 Y134.400 E3049.09943
G0 F12000 X161.309 Y133.800
G1 F2400 X163.468 Y133.800 E3049.31485
G0 F12000 X164.507 Y133.200
G1 F2400 X162.348 Y133.200 E3049.53028
G0 F12000 X163.387 Y132.600
G1 F2400 X165.546 Y132.600 E3049.74570
G0 F12000 X166.586 Y132.000
G1 F2400 X164.426 Y132.000 E3049.96123
G0 F12000 X165.466 Y131.400
G1 F2400 X167.625 Y131.400 E3050.17666
G0 F12000 X168.664 Y130.800
G1 F2400 X166.505 Y130.800 E3050.39208
G0 F12000 X167.544 Y130.200
G1 F2400 X169.703 Y130.200 E3050.60751
G0 F12000 X170.743 Y129.600
G1 F2400 X168.583 Y129.600 E3050.82303
G0 F12000 X169.622 Y129.000
G1 F2400 X171.782 Y129.000 E3051.03856
G0 F12000 X172.821 Y128.400
G1 F2400 X170.662 Y128.400 E3051.25399
G0 F12000 X171.701 Y127.800
G1 F2400 X173.860 Y127.800 E3051.46941
G0 F12000 X174.899 Y127.200
G1 F2400 X172.740 Y127.200 E3051.68484
G0 F12000 X173.779 Y126.600
G1 F2400 X175.939 Y126.600 E3051.90036
G0 F12000 X176.978 Y126.000
G1 F2400 X174.819 Y126.000 E3052.11579
G0 F12000 X175.858 Y125.400
G1 F2400 X178.017 Y125.400 E3052.33121
G0 F12000 X179.056 Y124.800
G1 F2400 X176.897 Y124.800 E3052.54664
G0 F12000 X177.936 Y124.200
G1 F2400 X180.096 Y124.200 E3052.76217
G0 F12000 X181.135 Y123.600
G1 F2400 X178.976 Y123.600 E3052.97759
G0 F12000 X180.015 Y123.000
G1 F2400 X182.174 Y123.000 E3053.19302
G0 F12000 X183.213 Y122.400
G1 F2400 X181.054 Y122.400 E3053.40844
G0 F12000 X182.093 Y121.800
G1 F2400 X184.253 Y121.800 E3053.62397
G0 F12000 X184.744 Y121.800
G1 F2400 X186.906 Y121.800 E3053.83969
G0 F12000 X187.945 Y122.400
G1 F2400 X185.784 Y122.400 E3054.05532
G0 F12000 X186.823 Y123.000
G1 F2400 X188.984 Y123.000 E3054.27095
G0 F12000 X190.023 Y123.600
G1 F2400 X187.862 Y123.600 E3054.48657
G0 F12000 X188.901 Y124.200
G1 F2400 X191.063 Y124.200 E3054.70230
G0 F12000 X192.102 Y124.800
G1 F2400 X189.941 Y124.800 E3054.91792
G0 F12000 X190.980 Y125.400
G1 F2400 X193.141 Y125.400 E3055.13355
G0 F12000 X194.180 Y126.000
G1 F2400 X192.019 Y126.000 E3055.34917
G0 F12000 X193.058 Y126.600
G1 F2400 X195.220 Y126.600 E3055.56490
G0 F12000 X196.259 Y127.200
G1 F2400 X194.098 Y127.200 E3055.78052
G0 F12000 X195.137 Y127.800
G1 F2400 X197.298 Y127.800 E3055.99615
G0 F12000 X198.337 Y128.400
G1 F2400 X196.176 Y128.400 E3056.21177
G0 F12000 X197.215 Y129.000
G1 F2400 X199.377 Y129.000 E3056.42750
G0 F12000 X200.416 Y129.600
G1 F2400 X198.254 Y129.600 E3056.64322
G0 F12000 X199.294 Y130.200
G1 F2400 X201.455 Y130.200 E3056.85885
G0 F12000 X202.494 Y130.800
G1 F2400 X200.333 Y130.800 E3057.07448
G0 F12000 X201.372 Y131.400
G1 F2400 X203.533 Y131.400 E3057.29010
G0 F12000 X204.573 Y132.000
G1 F2400 X202.411 Y132.000 E3057.50583
G0 F12000 X203.451 Y132.600
G1 F2400 X205.612 Y132.600 E3057.72145
G0 F12000 X206.651 Y133.200
G1 F2400 X204.490 Y133.200 E3057.93708
G0 F12000 X205.529 Y133.800
G1 F2400 X207.690 Y133.800 E3058.15270
G0 F12000 X208.730 Y134.400
G1 F2400 X206.568 Y134.400 E3058.36843
G0 F12000 X207.608 Y135.000
G1 F2400 X209.769 Y135.000 E3058.58405
G0 F12000 X210.808 Y135.600
G1 F2400 X208.647 Y135.600 E3058.79968
G0 F12000 X209.686 Y136.200
G1 F2400 X211.532 Y136.200 E3058.98387
G0 F12000 X211.879 Y136.800
G1 F2400 X210.967 Y137.100 E3059.09899
G1 X212.257 Y137.700 E3059.20025
G1 X211.209 Y138.300 E3059.30790
G1 X212.289 Y138.900 E3059.41556
G1 X211.209 Y139.500 E3059.52322
G1 X212.289 Y140.100 E3059.63088
G1 X211.209 Y140.700 E3059.73854
G1 X212.289 Y141.300 E3059.84620
G1 X211.209 Y141.900 E3059.95386
G1 X212.289 Y142.500 E3060.06152
G1 X211.209 Y143.100 E3060.16919
G1 X212.289 Y143.700 E3060.27685
G1 X211.209 Y144.300 E3060.38451
G1 X212.289 Y144.900 E3060.49217
G1 X211.209 Y145.500 E3060.59983
G1 X212.289 Y146.100 E3060.70749
G1 X211.209 Y146.700 E3060.81515
G1 X212.289 Y147.300 E3060.92281
G1 X211.209 Y147.900 E3061.03048
G1 X212.289 Y148.500 E3061.13814
G1 X211.209 Y149.100 E3061.24580
G1 X212.289 Y149.700 E3061.35346
G1 X211.209 Y150.300 E3061.46112
G1 X212.289 Y150.900 E3061.56878
G1 X211.209 Y151.500 E3061.67644
G1 X212.289 Y152.100 E3061.78410
G1 X211.209 Y152.700 E3061.89177
G1 X212.289 Y153.300 E3061.99943
G1 X211.209 Y153.900 E3062.10709
G1 X212.289 Y154.500 E3062.21475
G1 X211.209 Y155.100 E3062.32241
G1 X212.289 Y155.700 E3062.43007
G1 X211.209 Y156.300 E3062.53773
G1 X212.289 Y156.900 E3062.64539
G1 X211.209 Y157.500 E3062.75306
G1 X212.289 Y158.100 E3062.86072
G1 X211.209 Y158.700 E3062.96838
G1 X212.289 Y159.300 E3063.07604
G1 X211.209 Y159.900 E3063.18370
G1 X212.289 Y160.500 E3063.29136
G1 X211.209 Y161.100 E3063.39902
G1 X212.289 Y161.700 E3063.50668
G1 X211.209 Y162.300 E3063.61435
G1 X212.289 Y162.900 E3063.72201
G1 X211.209 Y163.500 E3063.82967
G1 X212.289 Y164.100 E3063.93733
G1 X211.209 Y164.700 E3064.04499
G1 X212.289 Y165.300 E3064.15265
G1 X211.209 Y165.900 E3064.26031
G1 X212.289 Y166.500 E3064.36797
G1 X211.209 Y167.100 E3064.47564
G1 X212.140 Y167.700 E3064.58339
G1 X211.069 Y168.000 E3064.69437
G0 F12000 X211.646 Y168.600
G1 F2400 X210.030 Y168.600 E3064.85561
G0 F12000 X208.991 Y169.200
G1 F2400 X211.150 Y169.200 E3065.07104
G0 F12000 X210.111 Y169.800
G1 F2400 X207.952 Y169.800 E3065.28646
G0 F12000 X206.912 Y170.400
G1 F2400 X209.072 Y170.400 E3065.50199
G0 F12000 X208.032 Y171.000
G1 F2400 X205.873 Y171.000 E3065.71742
G0 F12000 X204.834 Y171.600
G1 F2400 X206.993 Y171.600 E3065.93284
G0 F12000 X205.954 Y172.200
G1 F2400 X203.795 Y172.200 E3066.14827
G0 F12000 X202.755 Y172.800
G1 F2400 X204.915 Y172.800 E3066.36379
G0 F12000 X203.875 Y173.400
G1 F2400 X201.716 Y173.400 E3066.57922
G0 F12000 X200.677 Y174.000
G1 F2400 X202.836 Y174.000 E3066.79465
G0 F12000 X201.797 Y174.600
G1 F2400 X199.638 Y174.600 E3067.01007
G0 F12000 X198.598 Y175.200
G1 F2400 X200.758 Y175.200 E3067.22560
G0 F12000 X199.719 Y175.800
G1 F2400 X197.559 Y175.800 E3067.44112
G0 F12000 X196.520 Y176.400
G1 F2400 X198.679 Y176.400 E3067.65655
G0 F12000 X197.640 Y177.000
G1 F2400 X195.481 Y177.000 E3067.87197
G0 F12000 X194.441 Y177.600
G1 F2400 X196.601 Y177.600 E3068.08750
G0 F12000 X195.562 Y178.200
G1 F2400 X193.402 Y178.200 E3068.30303
G0 F12000 X192.363 Y178.800
G1 F2400 X194.522 Y178.800 E3068.51845
G0 F12000 X193.483 Y179.400
G1 F2400 X191.324 Y179.400 E3068.73388
G0 F12000 X190.285 Y180.000
G1 F2400 X192.444 Y180.000 E3068.94930
G0 F12000 X191.405 Y180.600
G1 F2400 X189.245 Y180.600 E3069.16483
G0 F12000 X188.206 Y181.200
G1 F2400 X190.365 Y181.200 E3069.38025
G0 F12000 X189.326 Y181.800
G1 F2400 X187.167 Y181.800 E3069.59568
G0 F12000 X186.128 Y182.400
G1 F2400 X188.287 Y182.400 E3069.81111
G0 F12000 X187.248 Y183.000
G1 F2400 X185.088 Y183.000 E3070.02663
G0 F12000 X183.911 Y183.000
G1 F2400 X181.749 Y183.000 E3070.24236
G0 F12000 X182.788 Y183.600
G1 F2400 X186.209 Y183.600 E3070.58371
G1 F2100 E3070.18371
G1 Z2.000
G0 F12000 X182.871 Y182.400
G1 Z1.600
G1 F2100 E3070.58371
G1 F2400 X180.710 Y182.400 E3070.79933
G0 F12000 X179.671 Y181.800
G1 F2400 X181.832 Y181.800 E3071.01496
G0 F12000 X180.793 Y181.200
G1 F2400 X178.632 Y181.200 E3071.23058
G0 F12000 X177.592 Y180.600
G1 F2400 X179.754 Y180.600 E3071.44631
G0 F12000 X178.714 Y180.000
G1 F2400 X176.553 Y180.000 E3071.66193
G0 F12000 X175.514 Y179.400
G1 F2400 X177.675 Y179.400 E3071.87756
G0 F12000 X176.636 Y178.800
G1 F2400 X174.475 Y178.800 E3072.09318
G0 F12000 X173.435 Y178.200
G1 F2400 X175.597 Y178.200 E3072.30891
G0 F12000 X174.558 Y177.600
G1 F2400 X172.396 Y177.600 E3072.52463
G0 F12000 X171.357 Y177.000
G1 F2400 X173.518 Y177.000 E3072.74026
G0 F12000 X172.479 Y176.400
G1 F2400 X170.318 Y176.400 E3072.95589
G0 F12000 X169.278 Y175.800
G1 F2400 X171.440 Y175.800 E3073.17161
G0 F12000 X170.401 Y175.200
G1 F2400 X168.239 Y175.200 E3073.38734
G0 F12000 X167.200 Y174.600
G1 F2400 X169.361 Y174.600 E3073.60296
G0 F12000 X168.322 Y174.000
G1 F2400 X166.161 Y174.000 E3073.81859
G0 F12000 X165.122 Y173.400
G1 F2400 X167.283 Y173.400 E3074.03421
G0 F12000 X166.244 Y172.800
G1 F2400 X164.082 Y172.800 E3074.24994
G0 F12000 X163.043 Y172.200
G1 F2400 X165.204 Y172.200 E3074.46556
G0 F12000 X164.165 Y171.600
G1 F2400 X162.004 Y171.600 E3074.68119
G0 F12000 X160.965 Y171.000
G1 F2400 X163.126 Y171.000 E3074.89681
G0 F12000 X162.087 Y170.400
G1 F2400 X159.925 Y170.400 E3075.11254
G0 F12000 X158.886 Y169.800
G1 F2400 X161.047 Y169.800 E3075.32816
G0 F12000 X160.008 Y169.200
G1 F2400 X157.847 Y169.200 E3075.54379
G0 F12000 X157.351 Y168.600
G1 F2400 X158.969 Y168.600 E3075.70523
G0 F12000 X157.930 Y168.000
G1 F2400 X156.857 Y167.700 E3075.79751
G1 X157.789 Y167.100 E3075.90516
G1 X156.709 Y166.500 E3076.01282
G1 X157.789 Y165.900 E3076.12048
G1 X156.709 Y165.300 E3076.22814
G1 X157.789 Y164.700 E3076.33580
G1 X156.709 Y164.100 E3076.44346
G1 X157.789 Y163.500 E3076.55112
G1 X156.709 Y162.900 E3076.65879
G1 X157.789 Y162.300 E3076.76645
G1 X156.709 Y161.700 E3076.87411
G1 X157.789 Y161.100 E3076.98177
G1 X156.709 Y160.500 E3077.08943
G1 X157.789 Y159.900 E3077.19709
G1 X156.709 Y159.300 E3077.30475
G1 X157.789 Y158.700 E3077.41241
G1 X156.709 Y158.100 E3077.52008
G1 X157.789 Y157.500 E3077.62774
G1 X156.709 Y156.900 E3077.73540
G1 X157.789 Y156.300 E3077.84306
G1 X156.709 Y155.700 E3077.95072
G1 X157.789 Y155.100 E3078.05838
G1 X156.709 Y154.500 E3078.16604
G1 X157.789 Y153.900 E3078.27370
G1 X156.709 Y153.300 E3078.38137
G1 X157.789 Y152.700 E3078.48903
G1 X156.709 Y152.100 E3078.59669
G1 X157.789 Y151.500 E3078.70435
G1 X156.709 Y150.900 E3078.81201
G1 X157.789 Y150.300 E3078.91967
G1 X156.709 Y149.700 E3079.02733
G1 X157.789 Y149.100 E3079.13499
G1 X156.709 Y148.500 E3079.24266
G1 X157.789 Y147.900 E3079.35032
G1 X156.709 Y147.300 E3079.45798
G1 X157.789 Y146.700 E3079.56564
G1 X156.709 Y146.100 E3079.67330
G1 X157.789 Y145.500 E3079.78096
G1 X156.709 Y144.900 E3079.88862
G1 X157.789 Y144.300 E3079.99628
G1 X156.709 Y143.700 E3080.10395
G1 X157.789 Y143.100 E3080.21161
G1 X156.709 Y142.500 E3080.31927
G1 X157.789 Y141.900 E3080.42693
G1 X156.709 Y141.300 E3080.53459
G1 X157.789 Y140.700 E3080.64225
G1 X156.709 Y140.400 E3080.75410
G1 F2100 E3080.35410
G1 Z2.000
G0 F12000 X183.132 Y121.200
G1 Z1.600
G1 F2100 E3080.75410
G1 F2400 X185.867 Y121.200 E3081.02699
;LAYER:4
M106 S84
G1 F2100 E3080.62699
G1 Z2.000
G0 F12000 X148.900 Y137.625 Z2.000
;TYPE:WALL-INNER
G1 Z2.000
G1 F2100 E3081.02699
G1 F2700 X148.900 Y167.375 E3083.99546
G1 X147.583 Y169.656 E3084.25827
G1 X121.819 Y184.532 E3087.22677
G1 X119.182 Y184.532 E3087.48989
G1 X93.418 Y169.656 E3090.45838
G1 X92.100 Y167.375 E3090.72125
G1 X92.100 Y137.625 E3093.68971
G1 X93.418 Y135.344 E3093.95258
G1 X119.182 Y120.468 E3096.92107
G1 X121.819 Y120.468 E3097.18419
G1 X147.583 Y135.344 E3100.15269
G1 X148.900 Y137.625 E3100.41550
G0 F12000 X149.500 Y137.465
;TYPE:WALL-OUTER
G1 F2700 X149.500 Y167.535 E3103.41589
G1 X148.021 Y170.095 E3103.71090
G1 X121.978 Y185.132 E3106.71153
G1 X119.023 Y185.132 E3107.00639
G1 X92.980 Y170.095 E3110.00702
G1 X91.500 Y167.535 E3110.30207
G1 X91.500 Y137.465 E3113.30247
G1 X92.980 Y134.905 E3113.59752
G1 X119.023 Y119.868 E3116.59816
G1 X121.978 Y119.868 E3116.89301
G1 X148.021 Y134.905 E3119.89365
G1 X149.500 Y137.465 E3120.18865
G1 F2100 E3119.78865
G1 Z2.400
G0 F12000 X148.008 Y136.501
;TYPE:FILL
G1 Z2.000
G1 F2100 E3120.18865
G1 F2700 X92.891 Y168.323 E3126.53905
G1 F2100 E3126.13905
G1 Z2.400
G0 F12000 X92.609 Y159.148
G1 Z2.000
G1 F2100 E3126.53905
G1 F2700 X128.684 Y179.976 E3130.69549
G1 F2100 E3130.29549
G1 Z2.400
G0 F12000 X130.401 Y178.987
G1 Z2.000
G1 F2100 E3130.69549
G1 F2700 X130.401 Y126.014 E3135.98115
G1 F2100 E3135.58115
G1 Z2.400
G0 F12000 X128.683 Y125.022
G1 Z2.000
G1 F2100 E3135.98115
G1 F2700 X92.610 Y145.848 E3140.13732
G1 F2100 E3139.73732
G1 Z2.400
G0 F12000 X92.609 Y147.830
G1 Z2.000
G1 F2100 E3140.13732
G1 F2700 X138.486 Y174.317 E3145.42310
G1 F2100 E3145.02310
G1 Z2.400
G0 F12000 X140.203 Y173.328
G1 Z2.000
G1 F2100 E3145.42310
G1 F2700 X140.203 Y131.673 E3149.57946
G1 F2100 E3149.17946
G1 Z2.400
G0 F12000 X138.486 Y130.680
G1 Z2.000
G1 F2100 E3149.57946
G1 F2700 X92.610 Y157.166 E3154.86510
G1 F2100 E3154.46510
G1 Z2.400
G0 F12000 X100.995 Y173.442
G1 Z2.000
G1 F2100 E3154.86510
G1 F2700 X100.995 Y131.557 E3159.04440
G1 F2100 E3158.64440
G1 Z2.400
G0 F12000 X102.313 Y130.796
G1 Z2.000
G1 F2100 E3159.04440
G1 F2700 X148.390 Y157.398 E3164.35321
G1 F2100 E3163.95321
G1 Z2.400
G0 F12000 X148.389 Y158.918
G1 Z2.000
G1 F2100 E3164.35321
G1 F2700 X112.114 Y179.861 E3168.53266
G1 F2100 E3168.13266
G1 Z2.400
G0 F12000 X110.797 Y179.101
G1 Z2.000
G1 F2100 E3168.53266
G1 F2700 X110.797 Y125.898 E3173.84128
G1 F2100 E3173.44128
G1 Z2.400
G0 F12000 X112.116 Y125.137
G1 Z2.000
G1 F2100 E3173.84128
G1 F2700 X148.390 Y146.080 E3178.02065
G1 F2100 E3177.62065
G1 Z2.400
G0 F12000 X148.389 Y147.599
G1 Z2.000
G1 F2100 E3178.02065
G1 F2700 X102.311 Y174.202 E3183.32959
G1 F2100 E3182.92959
G1 Z2.400
G0 F12000 X120.599 Y184.322
G1 Z2.000
G1 F2100 E3183.32959
G1 F2700 X120.599 Y120.678 E3189.68002
G1 F2100 E3189.28002
G1 Z2.400
G0 F12000 X93.047 Y136.764
G1 Z2.000
G1 F2100 E3189.68002
G1 F2700 X148.009 Y168.496 E3196.01253
G0 F12000 X148.200 Y168.167
;TYPE:SKIN
G1 F2700 X148.200 Y136.834 E3199.13895
G0 F12000 X147.600 Y137.124
G1 F2700 X147.600 Y135.795 E3199.27156
G0 F12000 X147.000 Y135.251
G1 F2700 X147.000 Y136.496 E3199.39578
G0 F12000 X146.400 Y136.149
G1 F2700 X146.400 Y134.904 E3199.52001
G0 F12000 X145.800 Y134.558
G1 F2700 X145.800 Y135.803 E3199.64424
G0 F12000 X145.200 Y135.456
G1 F2700 X145.200 Y134.211 E3199.76846
G0 F12000 X144.600 Y133.865
G1 F2700 X144.600 Y135.110 E3199.89269
G0 F12000 X144.000 Y134.764
G1 F2700 X144.000 Y133.519 E3200.01692
G0 F12000 X143.400 Y133.172
G1 F2700 X143.400 Y134.417 E3200.14114
G0 F12000 X142.800 Y134.071
G1 F2700 X142.800 Y132.826 E3200.26537
G0 F12000 X142.200 Y132.479
G1 F2700 X142.200 Y133.724 E3200.38960
G0 F12000 X141.600 Y133.378
G1 F2700 X141.600 Y132.133 E3200.51382
G0 F12000 X141.000 Y131.786
G1 F2700 X141.000 Y133.032 E3200.63815
G0 F12000 X140.400 Y132.685
G1 F2700 X140.400 Y131.440 E3200.76238
G0 F12000 X139.800 Y131.094
G1 F2700 X139.800 Y132.339 E3200.88660
G0 F12000 X139.200 Y131.992
G1 F2700 X139.200 Y130.747 E3201.01083
G0 F12000 X138.600 Y130.401
G1 F2700 X138.600 Y131.646 E3201.13506
G0 F12000 X138.000 Y131.300
G1 F2700 X138.000 Y130.054 E3201.25938
G0 F12000 X137.400 Y129.708
G1 F2700 X137.400 Y130.953 E3201.38361
G0 F12000 X136.800 Y130.607
G1 F2700 X136.800 Y129.361 E3201.50793
G0 F12000 X136.200 Y129.015
G1 F2700 X136.200 Y130.260 E3201.63216
G0 F12000 X135.600 Y129.914
G1 F2700 X135.600 Y128.668 E3201.75649
G0 F12000 X135.000 Y128.322
G1 F2700 X135.000 Y129.568 E3201.88081
G0 F12000 X134.400 Y129.221
G1 F2700 X134.400 Y127.976 E3202.00504
G0 F12000 X133.800 Y127.629
G1 F2700 X133.800 Y128.875 E3202.12937
G0 F12000 X133.200 Y128.528
G1 F2700 X133.200 Y127.283 E3202.25359
G0 F12000 X132.600 Y126.936
G1 F2700 X132.600 Y128.182 E3202.37792
G0 F12000 X132.000 Y127.836
G1 F2700 X132.000 Y126.590 E3202.50225
G0 F12000 X131.400 Y126.243
G1 F2700 X131.400 Y127.489 E3202.62657
G0 F12000 X130.800 Y127.143
G1 F2700 X130.800 Y125.897 E3202.75090
G0 F12000 X130.200 Y125.551
G1 F2700 X130.200 Y126.796 E3202.87513
G0 F12000 X129.600 Y126.450
G1 F2700 X129.600 Y125.204 E3202.99945
G0 F12000 X129.000 Y124.858
G1 F2700 X129.000 Y126.104 E3203.12378
G0 F12000 X128.400 Y125.757
G1 F2700 X128.400 Y124.511 E3203.24810
G0 F12000 X127.800 Y124.165
G1 F2700 X127.800 Y125.411 E3203.37243
G0 F12000 X127.200 Y125.064
G1 F2700 X127.200 Y123.818 E3203.49676
G0 F12000 X126.600 Y123.472
G1 F2700 X126.600 Y124.718 E3203.62108
G0 F12000 X126.000 Y124.372
G1 F2700 X126.000 Y123.126 E3203.74541
G0 F12000 X125.400 Y122.779
G1 F2700 X125.400 Y124.025 E3203.86974
G0 F12000 X124.800 Y123.679
G1 F2700 X124.800 Y122.433 E3203.99406
G0 F12000 X124.200 Y122.086
G1 F2700 X124.200 Y123.332 E3204.11839
G0 F12000 X123.600 Y122.986
G1 F2700 X123.600 Y121.740 E3204.24272
G0 F12000 X123.000 Y121.393
G1 F2700 X123.000 Y122.640 E3204.36714
G0 F12000 X122.400 Y122.293
G1 F2700 X122.400 Y121.047 E3204.49147
G0 F12000 X121.800 Y120.700
G1 F2700 X121.800 Y121.947 E3204.61589
G0 F12000 X121.200 Y121.600
G1 F2700 X120.900 Y120.678 E3204.70780
G1 X120.300 Y121.415 E3204.77418
G1 X119.700 Y120.678 E3204.85478
G1 X119.400 Y121.832 E3204.97376
G0 F12000 X118.800 Y122.179
G1 F2700 X118.800 Y120.931 E3205.09828
G0 F12000 X118.200 Y121.277
G1 F2700 X118.200 Y122.525 E3205.22281
G0 F12000 X117.600 Y122.872
G1 F2700 X117.600 Y121.624 E3205.34734
G0 F12000 X117.000 Y121.970
G1 F2700 X117.000 Y123.218 E3205.47186
G0 F12000 X116.400 Y123.564
G1 F2700 X116.400 Y122.317 E3205.59629
G0 F12000 X115.800 Y122.663
G1 F2700 X115.800 Y123.911 E3205.72081
G0 F12000 X115.200 Y124.257
G1 F2700 X115.200 Y123.010 E3205.84524
G0 F12000 X114.600 Y123.356
G1 F2700 X114.600 Y124.604 E3205.96977
G0 F12000 X114.000 Y124.950
G1 F2700 X114.000 Y123.702 E3206.09429
G0 F12000 X113.400 Y124.049
G1 F2700 X113.400 Y125.296 E3206.21872
G0 F12000 X112.800 Y125.643
G1 F2700 X112.800 Y124.395 E3206.34324
G0 F12000 X112.200 Y124.742
G1 F2700 X112.200 Y125.989 E3206.46767
G0 F12000 X111.600 Y126.336
G1 F2700 X111.600 Y125.088 E3206.59220
G0 F12000 X111.000 Y125.435
G1 F2700 X111.000 Y126.682 E3206.71662
G0 F12000 X110.400 Y127.028
G1 F2700 X110.400 Y125.781 E3206.84105
G0 F12000 X109.800 Y126.128
G1 F2700 X109.800 Y127.375 E3206.96547
G0 F12000 X109.200 Y127.721
G1 F2700 X109.200 Y126.474 E3207.08990
G0 F12000 X108.600 Y126.820
G1 F2700 X108.600 Y128.068 E3207.21443
G0 F12000 X108.000 Y128.414
G1 F2700 X108.000 Y127.167 E3207.33885
G0 F12000 X107.400 Y127.513
G1 F2700 X107.400 Y128.760 E3207.46328
G0 F12000 X106.800 Y129.107
G1 F2700 X106.800 Y127.860 E3207.58770
G0 F12000 X106.200 Y128.206
G1 F2700 X106.200 Y129.453 E3207.71213
G0 F12000 X105.600 Y129.800
G1 F2700 X105.600 Y128.553 E3207.83656
G0 F12000 X105.000 Y128.899
G1 F2700 X105.000 Y130.146 E3207.96098
G0 F12000 X104.400 Y130.492
G1 F2700 X104.400 Y129.245 E3208.08541
G0 F12000 X103.800 Y129.592
G1 F2700 X103.800 Y130.839 E3208.20984
G0 F12000 X103.200 Y131.185
G1 F2700 X103.200 Y129.938 E3208.33426
G0 F12000 X102.600 Y130.285
G1 F2700 X102.600 Y131.532 E3208.45869
G0 F12000 X102.000 Y131.878
G1 F2700 X102.000 Y130.631 E3208.58311
G0 F12000 X101.400 Y130.978
G1 F2700 X101.400 Y132.224 E3208.70744
G0 F12000 X100.800 Y132.571
G1 F2700 X100.800 Y131.324 E3208.83187
G0 F12000 X100.200 Y131.671
G1 F2700 X100.200 Y132.917 E3208.95619
G0 F12000 X99.600 Y133.263
G1 F2700 X99.600 Y132.017 E3209.08052
G0 F12000 X99.000 Y132.363
G1 F2700 X99.000 Y133.610 E3209.20495
G0 F12000 X98.400 Y133.956
G1 F2700 X98.400 Y132.710 E3209.32927
G0 F12000 X97.800 Y133.056
G1 F2700 X97.800 Y134.303 E3209.45370
G0 F12000 X97.200 Y134.649
G1 F2700 X97.200 Y133.403 E3209.57802
G0 F12000 X96.600 Y133.749
G1 F2700 X96.600 Y134.995 E3209.70235
G0 F12000 X96.000 Y135.342
G1 F2700 X96.000 Y134.096 E3209.82668
G0 F12000 X95.400 Y134.442
G1 F2700 X95.400 Y135.688 E3209.95100
G0 F12000 X94.800 Y136.035
G1 F2700 X94.800 Y134.788 E3210.07543
G0 F12000 X94.200 Y135.135
G1 F2700 X94.200 Y136.381 E3210.19976
G0 F12000 X93.600 Y136.779
G1 F2700 X93.600 Y135.481 E3210.32927
G0 F12000 X93.000 Y136.487
G1 F2700 X93.000 Y168.512 E3213.52474
G0 F12000 X93.600 Y168.222
G1 F2700 X93.600 Y169.518 E3213.65405
G0 F12000 X94.200 Y169.864
G1 F2700 X94.200 Y168.620 E3213.77818
G0 F12000 X94.800 Y168.966
G1 F2700 X94.800 Y170.211 E3213.90241
G0 F12000 X95.400 Y170.557
G1 F2700 X95.400 Y169.313 E3214.02653
G0 F12000 X96.000 Y169.659
G1 F2700 X96.000 Y170.903 E3214.15066
G0 F12000 X96.600 Y171.250
G1 F2700 X96.600 Y170.006 E3214.27479
G0 F12000 X97.200 Y170.352
G1 F2700 X97.200 Y171.596 E3214.39891
G0 F12000 X97.800 Y171.943
G1 F2700 X97.800 Y170.698 E3214.52314
G0 F12000 X98.400 Y171.045
G1 F2700 X98.400 Y172.289 E3214.64727
G0 F12000 X99.000 Y172.636
G1 F2700 X99.000 Y171.391 E3214.77149
G0 F12000 X99.600 Y171.738
G1 F2700 X99.600 Y172.982 E3214.89562
G1 F2100 E3214.49562
G1 Z2.400
G0 F12000 X92.400 Y167.473
G1 Z2.000
G1 F2100 E3214.89562
G1 F2700 X92.400 Y137.526 E3217.88375
G1 F2100 E3217.48375
G1 Z2.400
G0 F12000 X100.200 Y172.084
G1 Z2.000
G1 F2100 E3217.88375
G1 F2700 X100.200 Y173.328 E3218.00787
G0 F12000 X100.800 Y173.675
G1 F2700 X100.800 Y172.430 E3218.13210
G0 F12000 X101.400 Y172.777
G1 F2700 X101.400 Y174.021 E3218.25623
G0 F12000 X102.000 Y174.368
G1 F2700 X102.000 Y173.123 E3218.38045
G0 F12000 X102.600 Y173.469
G1 F2700 X102.600 Y174.714 E3218.50468
G0 F12000 X103.200 Y175.061
G1 F2700 X103.200 Y173.816 E3218.62891
G0 F12000 X103.800 Y174.162
G1 F2700 X103.800 Y175.407 E3218.75313
G0 F12000 X104.400 Y175.754
G1 F2700 X104.400 Y174.509 E3218.87736
G0 F12000 X105.000 Y174.855
G1 F2700 X105.000 Y176.100 E3219.00159
G0 F12000 X105.600 Y176.446
G1 F2700 X105.600 Y175.201 E3219.12581
G0 F12000 X106.200 Y175.548
G1 F2700 X106.200 Y176.793 E3219.25004
G0 F12000 X106.800 Y177.139
G1 F2700 X106.800 Y175.894 E3219.37426
G0 F12000 X107.400 Y176.241
G1 F2700 X107.400 Y177.486 E3219.49849
G0 F12000 X108.000 Y177.832
G1 F2700 X108.000 Y176.587 E3219.62272
G0 F12000 X108.600 Y176.933
G1 F2700 X108.600 Y178.179 E3219.74704
G0 F12000 X109.200 Y178.525
G1 F2700 X109.200 Y177.280 E3219.87127
G0 F12000 X109.800 Y177.626
G1 F2700 X109.800 Y178.871 E3219.99550
G0 F12000 X110.400 Y179.218
G1 F2700 X110.400 Y177.973 E3220.11972
G0 F12000 X111.000 Y178.319
G1 F2700 X111.000 Y179.564 E3220.24395
G0 F12000 X111.600 Y179.911
G1 F2700 X111.600 Y178.665 E3220.36828
G0 F12000 X112.200 Y179.012
G1 F2700 X112.200 Y180.257 E3220.49250
G0 F12000 X112.800 Y180.604
G1 F2700 X112.800 Y179.358 E3220.61683
G0 F12000 X113.400 Y179.705
G1 F2700 X113.400 Y180.950 E3220.74106
G0 F12000 X114.000 Y181.297
G1 F2700 X114.000 Y180.051 E3220.86538
G0 F12000 X114.600 Y180.397
G1 F2700 X114.600 Y181.643 E3220.98971
G0 F12000 X115.200 Y181.989
G1 F2700 X115.200 Y180.744 E3221.11394
G0 F12000 X115.800 Y181.090
G1 F2700 X115.800 Y182.336 E3221.23826
G0 F12000 X116.400 Y182.682
G1 F2700 X116.400 Y181.437 E3221.36249
G0 F12000 X117.000 Y181.783
G1 F2700 X117.000 Y183.029 E3221.48682
G0 F12000 X117.600 Y183.375
G1 F2700 X117.600 Y182.129 E3221.61114
G0 F12000 X118.200 Y182.476
G1 F2700 X118.200 Y183.722 E3221.73547
G0 F12000 X118.800 Y184.068
G1 F2700 X118.800 Y182.822 E3221.85979
G0 F12000 X119.400 Y183.169
G1 F2700 X119.700 Y184.322 E3221.97471
G1 X120.300 Y183.585 E3222.05515
G1 X120.900 Y184.322 E3222.12153
G1 X121.200 Y183.399 E3222.21837
G0 F12000 X121.800 Y183.052
G1 F2700 X121.800 Y184.301 E3222.34300
G0 F12000 X122.400 Y183.954
G1 F2700 X122.400 Y182.706 E3222.46752
G0 F12000 X123.000 Y182.359
G1 F2700 X123.000 Y183.608 E3222.59215
G0 F12000 X123.600 Y183.261
G1 F2700 X123.600 Y182.013 E3222.71668
G0 F12000 X124.200 Y181.667
G1 F2700 X124.200 Y182.915 E3222.84120
G0 F12000 X124.800 Y182.568
G1 F2700 X124.800 Y181.320 E3222.96573
G0 F12000 X125.400 Y180.974
G1 F2700 X125.400 Y182.222 E3223.09025
G0 F12000 X126.000 Y181.875
G1 F2700 X126.000 Y180.627 E3223.21478
G0 F12000 X126.600 Y180.281
G1 F2700 X126.600 Y181.529 E3223.33931
G0 F12000 X127.200 Y181.183
G1 F2700 X127.200 Y179.935 E3223.46383
G0 F12000 X127.800 Y179.588
G1 F2700 X127.800 Y180.836 E3223.58836
G0 F12000 X128.400 Y180.490
G1 F2700 X128.400 Y179.242 E3223.71288
G0 F12000 X129.000 Y178.895
G1 F2700 X129.000 Y180.143 E3223.83741
G0 F12000 X129.600 Y179.797
G1 F2700 X129.600 Y178.549 E3223.96194
G0 F12000 X130.200 Y178.203
G1 F2700 X130.200 Y179.450 E3224.08636
G0 F12000 X130.800 Y179.104
G1 F2700 X130.800 Y177.856 E3224.21089
G0 F12000 X131.400 Y177.510
G1 F2700 X131.400 Y178.758 E3224.33541
G0 F12000 X132.000 Y178.411
G1 F2700 X132.000 Y177.163 E3224.45994
G0 F12000 X132.600 Y176.817
G1 F2700 X132.600 Y178.065 E3224.58447
G0 F12000 X133.200 Y177.718
G1 F2700 X133.200 Y176.471 E3224.70889
G0 F12000 X133.800 Y176.124
G1 F2700 X133.800 Y177.372 E3224.83342
G0 F12000 X134.400 Y177.025
G1 F2700 X134.400 Y175.778 E3224.95784
G0 F12000 X135.000 Y175.431
G1 F2700 X135.000 Y176.679 E3225.08237
G0 F12000 X135.600 Y176.333
G1 F2700 X135.600 Y175.085 E3225.20690
G0 F12000 X136.200 Y174.739
G1 F2700 X136.200 Y175.986 E3225.33132
G0 F12000 X136.800 Y175.640
G1 F2700 X136.800 Y174.392 E3225.45585
G0 F12000 X137.400 Y174.046
G1 F2700 X137.400 Y175.293 E3225.58027
G0 F12000 X138.000 Y174.947
G1 F2700 X138.000 Y173.699 E3225.70480
G0 F12000 X138.600 Y173.353
G1 F2700 X138.600 Y174.600 E3225.82923
G0 F12000 X139.200 Y174.254
G1 F2700 X139.200 Y173.007 E3225.95365
G0 F12000 X139.800 Y172.660
G1 F2700 X139.800 Y173.907 E3226.07808
G0 F12000 X140.400 Y173.561
G1 F2700 X140.400 Y172.314 E3226.20250
G0 F12000 X141.000 Y171.967
G1 F2700 X141.000 Y173.215 E3226.32703
G0 F12000 X141.600 Y172.868
G1 F2700 X141.600 Y171.621 E3226.45146
G0 F12000 X142.200 Y171.275
G1 F2700 X142.200 Y172.522 E3226.57588
G0 F12000 X142.800 Y172.175
G1 F2700 X142.800 Y170.928 E3226.70031
G0 F12000 X143.400 Y170.582
G1 F2700 X143.400 Y171.829 E3226.82473
G0 F12000 X144.000 Y171.482
G1 F2700 X144.000 Y170.235 E3226.94916
G0 F12000 X144.600 Y169.889
G1 F2700 X144.600 Y171.136 E3227.07359
G0 F12000 X145.200 Y170.790
G1 F2700 X145.200 Y169.543 E3227.19801
G0 F12000 X145.800 Y169.196
G1 F2700 X145.800 Y170.443 E3227.32244
G0 F12000 X146.400 Y170.097
G1 F2700 X146.400 Y168.850 E3227.44687
G0 F12000 X147.000 Y168.503
G1 F2700 X147.000 Y169.750 E3227.57129
G0 F12000 X147.600 Y169.206
G1 F2700 X147.600 Y167.875 E3227.70410
G1 F2100 E3227.30410
G1 Z2.400
G0 F12000 X156.100 Y167.375
;TYPE:WALL-INNER
G1 Z2.000
G1 F2100 E3227.70410
G1 F2700 X156.100 Y137.625 E3230.67257
G1 X157.417 Y135.344 E3230.93538
G1 X183.181 Y120.468 E3233.90387
G1 X185.818 Y120.468 E3234.16699
G1 X211.582 Y135.344 E3237.13549
G1 X212.900 Y137.625 E3237.39835
G1 X212.900 Y167.375 E3240.36682
G1 X211.582 Y169.656 E3240.62968
G1 X185.818 Y184.532 E3243.59817
G1 X183.181 Y184.532 E3243.86130
G1 X157.417 Y169.656 E3246.82979
G1 X156.100 Y167.375 E3247.09260
G0 F12000 X155.500 Y167.535
;TYPE:WALL-OUTER
G1 F2700 X155.500 Y137.465 E3250.09300
G1 X156.979 Y134.905 E3250.38800
G1 X183.022 Y119.868 E3253.38864
G1 X185.977 Y119.868 E3253.68349
G1 X212.020 Y134.905 E3256.68413
G1 X213.500 Y137.465 E3256.97918
G1 X213.500 Y167.535 E3259.97958
G1 X212.020 Y170.095 E3260.27463
G1 X185.977 Y185.132 E3263.27527
G1 X183.022 Y185.132 E3263.57012
G1 X156.979 Y170.095 E3266.57075
G1 X155.500 Y167.535 E3266.86576
G1 F2100 E3266.46576
G1 Z2.400
G0 F12000 X156.890 Y168.323
;TYPE:FILL
G1 Z2.000
G1 F2100 E3266.86576
G1 F2700 X212.007 Y136.501 E3273.21615
G1 F2100 E3272.81615
G1 Z2.400
G0 F12000 X204.203 Y131.672
G1 Z2.000
G1 F2100 E3273.21615
G1 F2700 X204.203 Y173.329 E3277.37271
G1 F2100 E3276.97271
G1 Z2.400
G0 F12000 X202.487 Y174.317
G1 Z2.000
G1 F2100 E3277.37271
G1 F2700 X156.608 Y147.829 E3282.65871
G1 F2100 E3282.25871
G1 Z2.400
G0 F12000 X156.609 Y145.849
G1 Z2.000
G1 F2100 E3282.65871
G1 F2700 X192.684 Y125.021 E3286.81515
G1 F2100 E3286.41515
G1 Z2.400
G0 F12000 X194.401 Y126.014
G1 Z2.000
G1 F2100 E3286.81515
G1 F2700 X194.401 Y178.987 E3292.10082
G1 F2100 E3291.70082
G1 Z2.400
G0 F12000 X192.684 Y179.976
G1 Z2.000
G1 F2100 E3292.10082
G1 F2700 X156.609 Y159.148 E3296.25726
G1 F2100 E3295.85726
G1 Z2.400
G0 F12000 X156.609 Y157.167
G1 Z2.000
G1 F2100 E3296.25726
G1 F2700 X202.487 Y130.680 E3301.54312
G1 F2100 E3301.14312
G1 Z2.400
G0 F12000 X212.389 Y146.079
G1 Z2.000
G1 F2100 E3301.54312
G1 F2700 X176.115 Y125.136 E3305.72250
G1 F2100 E3305.32250
G1 Z2.400
G0 F12000 X174.797 Y125.899
G1 Z2.000
G1 F2100 E3305.72250
G1 F2700 X174.797 Y179.100 E3311.03091
G1 F2100 E3310.63091
G1 Z2.400
G0 F12000 X176.113 Y179.862
G1 Z2.000
G1 F2100 E3311.03091
G1 F2700 X212.389 Y158.918 E3315.21051
G1 F2100 E3314.81051
G1 Z2.400
G0 F12000 X212.389 Y157.398
G1 Z2.000
G1 F2100 E3315.21051
G1 F2700 X166.313 Y130.796 E3320.51922
G1 F2100 E3320.11922
G1 Z2.400
G0 F12000 X164.995 Y131.557
G1 Z2.000
G1 F2100 E3320.51922
G1 F2700 X164.995 Y173.442 E3324.69853
G1 F2100 E3324.29853
G1 Z2.400
G0 F12000 X166.311 Y174.203
G1 Z2.000
G1 F2100 E3324.69853
G1 F2700 X212.388 Y147.600 E3330.00738
G1 F2100 E3329.60738
G1 Z2.400
G0 F12000 X212.008 Y168.496
G1 Z2.000
G1 F2100 E3330.00738
G1 F2700 X157.047 Y136.764 E3336.33980
G1 F2100 E3335.93980
G1 Z2.400
G0 F12000 X184.599 Y120.678
G1 Z2.000
G1 F2100 E3336.33980
G1 F2700 X184.599 Y184.322 E3342.69023
G0 F12000 X184.800 Y184.322
;TYPE:SKIN
G1 F2700 X184.500 Y183.630 E3342.75921
G1 X183.900 Y184.322 E3342.82821
G1 X183.600 Y183.284 E3342.93602
G0 F12000 X183.000 Y182.938
G1 F2700 X183.000 Y184.184 E3343.06035
G0 F12000 X182.400 Y183.838
G1 F2700 X182.400 Y182.591 E3343.18478
G0 F12000 X181.800 Y182.245
G1 F2700 X181.800 Y183.491 E3343.30910
G0 F12000 X181.200 Y183.145
G1 F2700 X181.200 Y181.899 E3343.43343
G0 F12000 X180.600 Y181.552
G1 F2700 X180.600 Y182.798 E3343.55776
G0 F12000 X180.000 Y182.452
G1 F2700 X180.000 Y181.206 E3343.68208
G1 F2100 E3343.28208
G1 Z2.400
G0 F12000 X185.400 Y183.283
G1 Z2.000
G1 F2100 E3343.68208
G1 F2700 X185.400 Y184.322 E3343.78575
G0 F12000 X186.000 Y184.185
G1 F2700 X186.000 Y182.937 E3343.91028
G0 F12000 X186.600 Y182.590
G1 F2700 X186.600 Y183.838 E3344.03481
G0 F12000 X187.200 Y183.492
G1 F2700 X187.200 Y182.244 E3344.15933
G0 F12000 X187.800 Y181.898
G1 F2700 X187.800 Y183.145 E3344.28376
G0 F12000 X188.400 Y182.799
G1 F2700 X188.400 Y181.551 E3344.40828
G0 F12000 X189.000 Y181.205
G1 F2700 X189.000 Y182.452 E3344.53271
G0 F12000 X189.600 Y182.106
G1 F2700 X189.600 Y180.858 E3344.65724
G0 F12000 X190.200 Y180.512
G1 F2700 X190.200 Y181.759 E3344.78166
G0 F12000 X190.800 Y181.413
G1 F2700 X190.800 Y180.166 E3344.90609
G0 F12000 X191.400 Y179.819
G1 F2700 X191.400 Y181.067 E3345.03061
G0 F12000 X192.000 Y180.720
G1 F2700 X192.000 Y179.473 E3345.15504
G0 F12000 X192.600 Y179.126
G1 F2700 X192.600 Y180.374 E3345.27957
G0 F12000 X193.200 Y180.027
G1 F2700 X193.200 Y178.780 E3345.40399
G0 F12000 X193.800 Y178.434
G1 F2700 X193.800 Y179.681 E3345.52842
G0 F12000 X194.400 Y179.334
G1 F2700 X194.400 Y178.087 E3345.65284
G0 F12000 X195.000 Y177.741
G1 F2700 X195.000 Y178.988 E3345.77727
G0 F12000 X195.600 Y178.642
G1 F2700 X195.600 Y177.394 E3345.90180
G0 F12000 X196.200 Y177.048
G1 F2700 X196.200 Y178.295 E3346.02622
G0 F12000 X196.800 Y177.949
G1 F2700 X196.800 Y176.702 E3346.15065
G0 F12000 X197.400 Y176.355
G1 F2700 X197.400 Y177.602 E3346.27508
G0 F12000 X198.000 Y177.256
G1 F2700 X198.000 Y176.009 E3346.39950
G0 F12000 X198.600 Y175.662
G1 F2700 X198.600 Y176.909 E3346.52393
G0 F12000 X199.200 Y176.563
G1 F2700 X199.200 Y175.316 E3346.64835
G0 F12000 X199.800 Y174.970
G1 F2700 X199.800 Y176.216 E3346.77268
G0 F12000 X200.400 Y175.870
G1 F2700 X200.400 Y174.623 E3346.89711
G0 F12000 X201.000 Y174.277
G1 F2700 X201.000 Y175.524 E3347.02153
G0 F12000 X201.600 Y175.177
G1 F2700 X201.600 Y173.930 E3347.14596
G0 F12000 X202.200 Y173.584
G1 F2700 X202.200 Y174.831 E3347.27038
G0 F12000 X202.800 Y174.484
G1 F2700 X202.800 Y173.238 E3347.39471
G0 F12000 X203.400 Y172.891
G1 F2700 X203.400 Y174.138 E3347.51914
G0 F12000 X204.000 Y173.791
G1 F2700 X204.000 Y172.545 E3347.64346
G0 F12000 X204.600 Y172.198
G1 F2700 X204.600 Y173.445 E3347.76789
G0 F12000 X205.200 Y173.099
G1 F2700 X205.200 Y171.852 E3347.89232
G0 F12000 X205.800 Y171.506
G1 F2700 X205.800 Y172.752 E3348.01664
G0 F12000 X206.400 Y172.406
G1 F2700 X206.400 Y171.159 E3348.14107
G0 F12000 X207.000 Y170.813
G1 F2700 X207.000 Y172.059 E3348.26539
G0 F12000 X207.600 Y171.713
G1 F2700 X207.600 Y170.466 E3348.38982
G0 F12000 X208.200 Y170.120
G1 F2700 X208.200 Y171.366 E3348.51415
G0 F12000 X208.800 Y171.020
G1 F2700 X208.800 Y169.774 E3348.63847
G0 F12000 X209.400 Y169.427
G1 F2700 X209.400 Y170.673 E3348.76280
G0 F12000 X210.000 Y170.327
G1 F2700 X210.000 Y169.081 E3348.88713
G0 F12000 X210.600 Y168.734
G1 F2700 X210.600 Y169.981 E3349.01155
G0 F12000 X211.200 Y169.634
G1 F2700 X211.200 Y168.388 E3349.13588
G0 F12000 X211.800 Y168.859
G1 F2700 X211.800 Y136.142 E3352.40039
G0 F12000 X211.200 Y136.611
G1 F2700 X211.200 Y135.367 E3352.52452
G0 F12000 X210.600 Y135.020
G1 F2700 X210.600 Y136.265 E3352.64875
G0 F12000 X210.000 Y135.918
G1 F2700 X210.000 Y134.674 E3352.77288
G0 F12000 X209.400 Y134.328
G1 F2700 X209.400 Y135.572 E3352.89700
G0 F12000 X208.800 Y135.225
G1 F2700 X208.800 Y133.981 E3353.02113
G0 F12000 X208.200 Y133.635
G1 F2700 X208.200 Y134.879 E3353.14526
G0 F12000 X207.600 Y134.533
G1 F2700 X207.600 Y133.288 E3353.26948
G0 F12000 X207.000 Y132.942
G1 F2700 X207.000 Y134.186 E3353.39361
G0 F12000 X206.400 Y133.840
G1 F2700 X206.400 Y132.595 E3353.51784
G0 F12000 X205.800 Y132.249
G1 F2700 X205.800 Y133.493 E3353.64196
G0 F12000 X205.200 Y133.147
G1 F2700 X205.200 Y131.902 E3353.76619
G0 F12000 X204.600 Y131.556
G1 F2700 X204.600 Y132.801 E3353.89042
G0 F12000 X204.000 Y132.454
G1 F2700 X204.000 Y131.210 E3354.01454
G0 F12000 X203.400 Y130.863
G1 F2700 X203.400 Y132.108 E3354.13877
G0 F12000 X202.800 Y131.761
G1 F2700 X202.800 Y130.517 E3354.26290
G0 F12000 X202.200 Y130.170
G1 F2700 X202.200 Y131.415 E3354.38712
G0 F12000 X201.600 Y131.069
G1 F2700 X201.600 Y129.824 E3354.51135
G0 F12000 X201.000 Y129.477
G1 F2700 X201.000 Y130.722 E3354.63558
G0 F12000 X200.400 Y130.376
G1 F2700 X200.400 Y129.131 E3354.75980
G1 F2100 E3354.35980
G1 Z2.400
G0 F12000 X212.400 Y137.181
G1 Z2.000
G1 F2100 E3354.75980
G1 F2700 X212.400 Y167.820 E3357.81697
G1 F2100 E3357.41697
G1 Z2.400
G0 F12000 X179.400 Y180.859
G1 Z2.000
G1 F2100 E3357.81697
G1 F2700 X179.400 Y182.105 E3357.94130
G0 F12000 X178.800 Y181.759
G1 F2700 X178.800 Y180.513 E3358.06563
G0 F12000 X178.200 Y180.167
G1 F2700 X178.200 Y181.413 E3358.18995
G0 F12000 X177.600 Y181.066
G1 F2700 X177.600 Y179.820 E3358.31428
G0 F12000 X177.000 Y179.474
G1 F2700 X177.000 Y180.720 E3358.43861
G0 F12000 X176.400 Y180.373
G1 F2700 X176.400 Y179.127 E3358.56293
G0 F12000 X175.800 Y178.781
G1 F2700 X175.800 Y180.027 E3358.68726
G0 F12000 X175.200 Y179.680
G1 F2700 X175.200 Y178.435 E3358.81149
G0 F12000 X174.600 Y178.088
G1 F2700 X174.600 Y179.334 E3358.93581
G0 F12000 X174.000 Y178.988
G1 F2700 X174.000 Y177.742 E3359.06014
G0 F12000 X173.400 Y177.395
G1 F2700 X173.400 Y178.641 E3359.18446
G0 F12000 X172.800 Y178.295
G1 F2700 X172.800 Y177.049 E3359.30879
G0 F12000 X172.200 Y176.703
G1 F2700 X172.200 Y177.948 E3359.43302
G0 F12000 X171.600 Y177.602
G1 F2700 X171.600 Y176.356 E3359.55734
G0 F12000 X171.000 Y176.010
G1 F2700 X171.000 Y177.255 E3359.68157
G0 F12000 X170.400 Y176.909
G1 F2700 X170.400 Y175.663 E3359.80590
G0 F12000 X169.800 Y175.317
G1 F2700 X169.800 Y176.562 E3359.93012
G0 F12000 X169.200 Y176.216
G1 F2700 X169.200 Y174.971 E3360.05435
G0 F12000 X168.600 Y174.624
G1 F2700 X168.600 Y175.870 E3360.17868
G0 F12000 X168.000 Y175.523
G1 F2700 X168.000 Y174.278 E3360.30290
G0 F12000 X167.400 Y173.931
G1 F2700 X167.400 Y175.177 E3360.42723
G0 F12000 X166.800 Y174.830
G1 F2700 X166.800 Y173.585 E3360.55146
G0 F12000 X166.200 Y173.239
G1 F2700 X166.200 Y174.484 E3360.67568
G0 F12000 X165.600 Y174.137
G1 F2700 X165.600 Y172.892 E3360.79991
G0 F12000 X165.000 Y172.546
G1 F2700 X165.000 Y173.791 E3360.92414
G0 F12000 X164.400 Y173.445
G1 F2700 X164.400 Y172.199 E3361.04846
G0 F12000 X163.800 Y171.853
G1 F2700 X163.800 Y173.098 E3361.17269
G0 F12000 X163.200 Y172.752
G1 F2700 X163.200 Y171.507 E3361.29692
G0 F12000 X162.600 Y171.160
G1 F2700 X162.600 Y172.405 E3361.42114
G0 F12000 X162.000 Y172.059
G1 F2700 X162.000 Y170.814 E3361.54537
G0 F12000 X161.400 Y170.467
G1 F2700 X161.400 Y171.712 E3361.66960
G0 F12000 X160.800 Y171.366
G1 F2700 X160.800 Y170.121 E3361.79382
G0 F12000 X160.200 Y169.775
G1 F2700 X160.200 Y171.019 E3361.91795
G0 F12000 X159.600 Y170.673
G1 F2700 X159.600 Y169.428 E3362.04218
G0 F12000 X159.000 Y169.082
G1 F2700 X159.000 Y170.327 E3362.16640
G0 F12000 X158.400 Y169.980
G1 F2700 X158.400 Y168.735 E3362.29063
G0 F12000 X157.800 Y168.389
G1 F2700 X157.800 Y169.634 E3362.41486
G0 F12000 X157.200 Y168.859
G1 F2700 X157.200 Y136.140 E3365.67957
G0 F12000 X157.800 Y136.612
G1 F2700 X157.800 Y135.365 E3365.80400
G0 F12000 X158.400 Y135.019
G1 F2700 X158.400 Y136.266 E3365.92842
G0 F12000 X159.000 Y135.919
G1 F2700 X159.000 Y134.672 E3366.05285
G0 F12000 X159.600 Y134.326
G1 F2700 X159.600 Y135.573 E3366.17727
G1 F2100 E3365.77727
G1 Z2.400
G0 F12000 X156.600 Y137.179
G1 Z2.000
G1 F2100 E3366.17727
G1 F2700 X156.600 Y167.820 E3369.23465
G1 F2100 E3368.83465
G1 Z2.400
G0 F12000 X160.200 Y135.226
G1 Z2.000
G1 F2100 E3369.23465
G1 F2700 X160.200 Y133.980 E3369.35897
G0 F12000 X160.800 Y133.633
G1 F2700 X160.800 Y134.880 E3369.48340
G0 F12000 X161.400 Y134.534
G1 F2700 X161.400 Y133.287 E3369.60782
G0 F12000 X162.000 Y132.940
G1 F2700 X162.000 Y134.187 E3369.73225
G0 F12000 X162.600 Y133.841
G1 F2700 X162.600 Y132.594 E3369.85668
G0 F12000 X163.200 Y132.247
G1 F2700 X163.200 Y133.494 E3369.98110
G0 F12000 X163.800 Y133.148
G1 F2700 X163.800 Y131.901 E3370.10553
G0 F12000 X164.400 Y131.554
G1 F2700 X164.400 Y132.802 E3370.23006
G0 F12000 X165.000 Y132.455
G1 F2700 X165.000 Y131.208 E3370.35448
G0 F12000 X165.600 Y130.862
G1 F2700 X165.600 Y132.109 E3370.47891
G0 F12000 X166.200 Y131.762
G1 F2700 X166.200 Y130.515 E3370.60333
G0 F12000 X166.800 Y130.169
G1 F2700 X166.800 Y131.416 E3370.72776
G0 F12000 X167.400 Y131.070
G1 F2700 X167.400 Y129.822 E3370.85229
G0 F12000 X168.000 Y129.476
G1 F2700 X168.000 Y130.723 E3370.97671
G0 F12000 X168.600 Y130.377
G1 F2700 X168.600 Y129.129 E3371.10124
G0 F12000 X169.200 Y128.783
G1 F2700 X169.200 Y130.030 E3371.22566
G0 F12000 X169.800 Y129.684
G1 F2700 X169.800 Y128.437 E3371.35009
G0 F12000 X170.400 Y128.090
G1 F2700 X170.400 Y129.338 E3371.47462
G0 F12000 X171.000 Y128.991
G1 F2700 X171.000 Y127.744 E3371.59904
G0 F12000 X171.600 Y127.397
G1 F2700 X171.600 Y128.645 E3371.72357
G0 F12000 X172.200 Y128.298
G1 F2700 X172.200 Y127.051 E3371.84799
G0 F12000 X172.800 Y126.704
G1 F2700 X172.800 Y127.952 E3371.97252
G0 F12000 X173.400 Y127.606
G1 F2700 X173.400 Y126.358 E3372.09705
G0 F12000 X174.000 Y126.011
G1 F2700 X174.000 Y127.259 E3372.22157
G0 F12000 X174.600 Y126.913
G1 F2700 X174.600 Y125.665 E3372.34610
G0 F12000 X175.200 Y125.319
G1 F2700 X175.200 Y126.566 E3372.47052
G0 F12000 X175.800 Y126.220
G1 F2700 X175.800 Y124.972 E3372.59505
G0 F12000 X176.400 Y124.626
G1 F2700 X176.400 Y125.874 E3372.71958
G0 F12000 X177.000 Y125.527
G1 F2700 X177.000 Y124.279 E3372.84410
G0 F12000 X177.600 Y123.933
G1 F2700 X177.600 Y125.181 E3372.96863
G0 F12000 X178.200 Y124.834
G1 F2700 X178.200 Y123.586 E3373.09315
G0 F12000 X178.800 Y123.240
G1 F2700 X178.800 Y124.488 E3373.21768
G0 F12000 X179.400 Y124.142
G1 F2700 X179.400 Y122.894 E3373.34221
G0 F12000 X180.000 Y122.547
G1 F2700 X180.000 Y123.795 E3373.46673
G0 F12000 X180.600 Y123.449
