;-- START GCODE --
;Sliced for Type A Machines Series 1
;Sliced at: Tue 06-12-2016 10:41:53
;Basic settings:
; Layer height: 0.4
; Walls: 1.2
; Fill: 8
; Print Speed: 45
; Support: 0
; Retraction Speed: 35
; Retraction Distance: 0.4
;Print time: 1 hour 46 minutes
;Filament used: 12.487m 37.0g
;Settings based on: Type A Machines Everyday PLA
G21        ;metric values
G90        ;absolute positioning
G28     ;move to endstops
G1 Z15.0 F12000 ;move the platform down 15mm
G1 X150 Y5 F12000 ;center
M140 S50 ;Prep Heat Bed
M109 S215 ;Heat To temp
M190 S50 ;Heat Bed to temp
G1 X150 Y5 Z0.3 ;move the platform to purge extrusion
G92 E0 ;zero the extruded length
G1 F200 X250 E30 ;extrude 30mm of feed stock
G92 E0 ;zero the extruded length again
G1 X150 Y150  Z25 F12000 ;recenter and begin
G1 F12000

;Layer count: 200
;LAYER:0
M107
G0 F12000 X132.871 Y148.343 Z0.400
G0 X132.936 Y148.288
;TYPE:SKIRT
G1 F1800 X132.871 Y148.343 E0.00850
G1 X132.433 Y148.808 E0.07224
G1 X132.059 Y149.305 E0.13430
G1 X131.743 Y149.840 E0.19630
G1 X131.734 Y149.856 E0.19813
G1 X131.520 Y150.331 E0.25011
G1 X131.276 Y151.047 E0.32559
G1 X131.176 Y151.539 E0.37569
G1 X131.105 Y152.295 E0.45145
G1 X131.105 Y152.298 E0.45175
G1 X131.118 Y152.924 E0.51423
G1 X131.117 Y152.954 E0.51722
G1 X131.182 Y153.502 E0.57229
G1 X131.344 Y154.192 E0.64301
G1 X131.530 Y154.699 E0.69689
G1 X131.826 Y155.306 E0.76428
G1 X132.194 Y155.886 E0.83282
G1 X132.558 Y156.332 E0.89026
G1 X133.015 Y156.788 E0.95467
G1 X133.526 Y157.194 E1.01980
G1 X134.067 Y157.532 E1.08345
G1 X134.642 Y157.808 E1.14709
G1 X135.240 Y158.018 E1.21033
G1 X135.872 Y158.162 E1.27501
G1 X136.510 Y158.234 E1.33907
G1 X137.145 Y158.236 E1.40243
G1 X137.152 Y158.236 E1.40313
G1 X137.778 Y158.167 E1.46597
G1 X137.787 Y158.166 E1.46687
G1 X138.404 Y158.027 E1.52998
G1 X138.413 Y158.025 E1.53090
G1 X138.999 Y157.822 E1.59278
G1 X139.012 Y157.817 E1.59417
G1 X139.585 Y157.545 E1.65746
G1 X140.109 Y157.223 E1.71883
G1 X140.127 Y157.211 E1.72099
G1 X140.592 Y156.847 E1.77991
G1 X140.626 Y156.819 E1.78430
G1 X141.079 Y156.376 E1.84753
G1 X141.078 Y156.376 E1.84763
G1 X141.412 Y155.970 E1.90008
G1 X141.781 Y155.418 E1.96634
G1 X142.134 Y154.736 E2.04296
G1 X143.225 Y152.459 E2.29489
G1 X141.835 Y149.666 E2.60619
G1 X141.820 Y149.638 E2.60936
G1 X141.551 Y149.219 E2.65904
G1 X141.158 Y148.718 E2.72257
G1 X140.740 Y148.290 E2.78227
G1 X140.679 Y148.422 E2.79678
G1 X139.981 Y149.279 E2.90706
G1 X139.103 Y149.946 E3.01708
G1 X138.084 Y150.376 E3.12744
G1 X137.126 Y150.529 E3.22424
G1 X136.516 Y150.522 E3.28511
G1 X135.591 Y150.377 E3.37854
G1 X134.572 Y149.945 E3.48897
G1 X133.688 Y149.278 E3.59947
G1 X132.999 Y148.423 E3.70903
G1 X132.936 Y148.288 E3.72390
G0 F12000 X124.462 Y139.149
G1 F1800 X125.667 Y138.127 E3.88156
G1 X126.953 Y137.214 E4.03892
G1 X128.315 Y136.415 E4.19648
G1 X129.742 Y135.738 E4.35408
G1 X131.218 Y135.187 E4.51128
G1 X132.738 Y134.765 E4.66869
G1 X134.291 Y134.476 E4.82631
G1 X135.860 Y134.325 E4.98358
G1 X137.438 Y134.307 E5.14105
G1 X139.012 Y134.428 E5.29857
G1 X140.570 Y134.684 E5.45611
G1 X142.098 Y135.075 E5.61349
G1 X143.587 Y135.595 E5.77086
G1 X145.025 Y136.244 E5.92828
G1 X146.404 Y137.014 E6.08587
G1 X147.709 Y137.902 E6.24337
G1 X148.932 Y138.896 E6.40063
G1 X150.064 Y139.996 E6.55812
G1 X151.099 Y141.188 E6.71564
G1 X152.025 Y142.467 E6.87320
G1 X152.837 Y143.821 E7.03073
G1 X153.114 Y144.390 E7.09388
G1 X153.224 Y144.152 E7.12004
G1 X154.008 Y142.781 E7.27762
G1 X154.909 Y141.483 E7.43528
G1 X155.917 Y140.271 E7.59258
G1 X157.026 Y139.149 E7.74999
G1 X158.230 Y138.127 E7.90757
G1 X159.516 Y137.214 E8.06494
G1 X160.878 Y136.415 E8.22250
G1 X162.305 Y135.738 E8.38009
G1 X163.781 Y135.187 E8.53730
G1 X165.301 Y134.765 E8.69470
G1 X166.855 Y134.476 E8.85242
G1 X168.423 Y134.325 E9.00960
G1 X170.001 Y134.307 E9.16706
G1 X171.577 Y134.428 E9.32478
G1 X173.134 Y134.684 E9.48222
G1 X174.661 Y135.075 E9.63950
G1 X176.150 Y135.595 E9.79687
G1 X177.588 Y136.244 E9.95429
G1 X178.967 Y137.014 E10.11189
G1 X180.272 Y137.902 E10.26939
G1 X181.495 Y138.896 E10.42664
G1 X182.627 Y139.996 E10.58414
G1 X183.661 Y141.187 E10.74151
G1 X184.589 Y142.467 E10.89927
G1 X185.400 Y143.821 E11.05675
G1 X187.538 Y148.206 E11.54353
G1 X179.213 Y151.832 E12.44957
G1 X177.684 Y152.500 E12.61606
G1 X179.204 Y153.164 E12.78157
G1 X187.539 Y156.788 E13.68845
G1 X185.406 Y161.168 E14.17455
G1 X184.595 Y162.523 E14.33212
G1 X183.669 Y163.801 E14.48960
G1 X182.637 Y164.995 E14.64707
G1 X181.505 Y166.094 E14.80449
G1 X180.283 Y167.090 E14.96180
G1 X178.977 Y167.980 E15.11949
G1 X177.600 Y168.749 E15.27686
G1 X176.163 Y169.398 E15.43419
G1 X174.673 Y169.921 E15.59176
G1 X173.145 Y170.312 E15.74914
G1 X171.589 Y170.570 E15.90651
G1 X170.222 Y170.675 E16.04332
G1 X170.043 Y170.693 E16.06127
G1 X168.437 Y170.678 E16.22152
G1 X166.866 Y170.526 E16.37901
G1 X165.314 Y170.239 E16.53649
G1 X163.793 Y169.817 E16.69399
G1 X162.316 Y169.268 E16.85122
G1 X160.890 Y168.591 E17.00873
G1 X159.528 Y167.793 E17.16624
G1 X158.239 Y166.880 E17.32385
G1 X157.037 Y165.860 E17.48115
G1 X155.927 Y164.740 E17.63849
G1 X154.918 Y163.528 E17.79584
G1 X154.015 Y162.231 E17.95353
G1 X153.230 Y160.859 E18.11126
G1 X153.115 Y160.610 E18.13862
G1 X152.844 Y161.168 E18.20052
G1 X152.031 Y162.523 E18.35819
G1 X151.107 Y163.801 E18.51555
G1 X150.074 Y164.995 E18.67309
G1 X148.942 Y166.094 E18.83051
G1 X147.720 Y167.090 E18.98782
G1 X146.414 Y167.980 E19.14551
G1 X145.037 Y168.749 E19.30288
G1 X143.600 Y169.398 E19.46021
G1 X142.110 Y169.921 E19.61778
G1 X140.582 Y170.312 E19.77515
G1 X139.025 Y170.570 E19.93263
G1 X137.659 Y170.675 E20.06933
G1 X137.480 Y170.693 E20.08728
G1 X135.874 Y170.678 E20.24754
G1 X134.302 Y170.526 E20.40512
G1 X132.751 Y170.239 E20.56251
G1 X131.230 Y169.817 E20.72001
G1 X129.753 Y169.268 E20.87724
G1 X128.327 Y168.591 E21.03475
G1 X126.965 Y167.793 E21.19225
G1 X125.677 Y166.881 E21.34973
G1 X124.473 Y165.860 E21.50724
G1 X123.363 Y164.739 E21.66465
G1 X122.355 Y163.528 E21.82187
G1 X121.452 Y162.231 E21.97956
G1 X120.668 Y160.860 E22.13715
G1 X120.005 Y159.430 E22.29442
G1 X119.467 Y157.945 E22.45202
G1 X119.062 Y156.421 E22.60937
G1 X118.788 Y154.867 E22.76682
G1 X118.651 Y153.296 E22.92417
G1 X118.649 Y151.719 E23.08152
G1 X118.786 Y150.144 E23.23927
G1 X119.058 Y148.592 E23.39649
G1 X119.462 Y147.067 E23.55390
G1 X119.999 Y145.582 E23.71147
G1 X120.661 Y144.151 E23.86879
G1 X121.445 Y142.780 E24.02638
G1 X122.346 Y141.483 E24.18395
G1 X123.354 Y140.272 E24.34117
G1 X124.462 Y139.149 E24.49858
G0 F12000 X163.839 Y151.048
G1 F1800 X163.738 Y151.541 E24.54880
G1 X163.669 Y152.293 E24.62415
G1 X163.668 Y152.298 E24.62466
G1 X163.681 Y152.926 E24.68733
G1 X163.680 Y152.954 E24.69013
G1 X163.745 Y153.502 E24.74519
G1 X163.890 Y154.121 E24.80863
G1 X164.102 Y154.717 E24.87175
G1 X164.389 Y155.306 E24.93712
G1 X164.757 Y155.886 E25.00566
G1 X165.121 Y156.332 E25.06310
G1 X165.584 Y156.793 E25.12830
G1 X166.084 Y157.190 E25.19200
G1 X166.632 Y157.534 E25.25656
G1 X167.205 Y157.808 E25.31993
G1 X167.805 Y158.018 E25.38336
G1 X168.434 Y158.162 E25.44775
G1 X169.074 Y158.234 E25.51201
G1 X169.708 Y158.236 E25.57527
G1 X169.715 Y158.236 E25.57597
G1 X170.341 Y158.167 E25.63881
G1 X170.352 Y158.166 E25.63991
G1 X170.966 Y158.027 E25.70273
G1 X170.977 Y158.024 E25.70387
G1 X171.562 Y157.822 E25.76562
G1 X171.576 Y157.817 E25.76710
G1 X172.147 Y157.546 E25.83017
G1 X172.679 Y157.218 E25.89253
G1 X172.690 Y157.211 E25.89383
G1 X173.155 Y156.847 E25.95276
G1 X173.189 Y156.819 E25.95715
G1 X173.642 Y156.376 E26.02037
G1 X173.641 Y156.376 E26.02047
G1 X173.975 Y155.970 E26.07293
G1 X174.344 Y155.418 E26.13918
G1 X174.697 Y154.736 E26.21581
G1 X175.788 Y152.459 E26.46774
G1 X174.398 Y149.666 E26.77903
G1 X174.383 Y149.638 E26.78220
G1 X174.114 Y149.219 E26.83188
G1 X173.721 Y148.718 E26.89542
G1 X173.302 Y148.289 E26.95525
G1 X173.239 Y148.426 E26.97030
G1 X172.544 Y149.279 E27.08009
G1 X171.666 Y149.946 E27.19011
G1 X170.647 Y150.376 E27.30046
G1 X169.689 Y150.529 E27.39727
G1 X169.079 Y150.522 E27.45814
G1 X168.154 Y150.377 E27.55156
G1 X167.135 Y149.945 E27.66200
G1 X166.251 Y149.278 E27.77249
G1 X165.562 Y148.423 E27.88206
G1 X165.499 Y148.288 E27.89692
G1 X165.434 Y148.343 E27.90542
G1 X164.996 Y148.808 E27.96916
G1 X164.700 Y149.202 E28.01833
G1 X164.295 Y149.863 E28.09568
G1 X164.083 Y150.332 E28.14704
G1 X163.839 Y151.048 E28.22251
G1 F2100 E27.82251
G1 Z0.800
G0 F12000 X149.143 Y145.828
;TYPE:WALL-INNER
G1 Z0.400
G1 F2100 E28.22251
G1 F1800 X149.278 Y146.106 E28.25335
G1 X145.561 Y147.725 E28.65789
G1 X145.442 Y147.507 E28.68267
G1 X144.977 Y146.783 E28.76853
G1 X144.319 Y145.944 E28.87492
G1 X143.572 Y145.177 E28.98175
G1 X142.744 Y144.494 E29.08885
G1 X141.848 Y143.904 E29.19589
G1 X140.895 Y143.415 E29.30277
G1 X139.894 Y143.031 E29.40975
G1 X138.267 Y142.600 E29.57769
G1 X137.251 Y145.721 E29.90519
G1 X137.136 Y146.073 E29.94214
G1 X137.085 Y146.185 E29.95442
G1 X137.041 Y146.238 E29.96129
G1 X136.983 Y146.282 E29.96856
G1 X136.922 Y146.308 E29.97518
G1 X136.837 Y146.321 E29.98376
G1 X136.755 Y146.309 E29.99202
G1 X136.686 Y146.280 E29.99949
G1 X136.635 Y146.241 E30.00590
G1 X136.587 Y146.180 E30.01364
G1 X136.535 Y146.070 E30.02578
G1 X135.406 Y142.599 E30.38998
G1 X133.742 Y143.042 E30.56180
G1 X132.709 Y143.446 E30.67248
G1 X131.942 Y143.848 E30.75888
G1 X131.727 Y143.960 E30.78307
G1 X130.807 Y144.583 E30.89394
G1 X130.144 Y145.148 E30.98085
G1 X129.963 Y145.304 E31.00470
G1 X129.366 Y145.939 E31.09166
G1 X129.204 Y146.115 E31.11553
G1 X128.678 Y146.813 E31.20274
G1 X128.539 Y147.009 E31.22671
G1 X128.096 Y147.757 E31.31346
G1 X127.978 Y147.968 E31.33758
G1 X127.609 Y148.787 E31.42721
G1 X127.263 Y149.805 E31.53449
G1 X127.195 Y150.043 E31.55919
G1 X127.014 Y150.927 E31.64923
G1 X126.937 Y151.759 E31.73260
G1 X126.897 Y151.999 E31.75688
G1 X126.915 Y152.870 E31.84381
G1 X126.904 Y153.102 E31.86698
G1 X127.038 Y154.228 E31.98013
G1 X127.287 Y155.288 E32.08877
G1 X127.666 Y156.358 E32.20204
G1 X128.150 Y157.351 E32.31226
G1 X128.736 Y158.276 E32.42152
G1 X129.441 Y159.156 E32.53403
G1 X130.225 Y159.936 E32.64438
G1 X131.094 Y160.626 E32.75510
G1 X132.035 Y161.216 E32.86592
G1 X133.035 Y161.695 E32.97656
G1 X134.082 Y162.062 E33.08726
G1 X135.164 Y162.309 E33.19800
G1 X136.266 Y162.434 E33.30866
G1 X137.136 Y162.436 E33.39547
G1 X137.377 Y162.436 E33.41952
G1 X138.479 Y162.315 E33.53014
G1 X139.563 Y162.071 E33.64101
G1 X140.385 Y161.787 E33.72778
G1 X140.612 Y161.708 E33.75177
G1 X141.399 Y161.333 E33.83875
G1 X141.614 Y161.228 E33.86263
G1 X142.356 Y160.772 E33.94953
G1 X143.243 Y160.105 E34.06026
G1 X143.430 Y159.952 E34.08437
G1 X144.053 Y159.342 E34.17137
G1 X144.219 Y159.170 E34.19522
G1 X144.789 Y158.475 E34.28491
G1 X145.402 Y157.559 E34.39489
G1 X145.552 Y157.270 E34.42738
G1 X149.281 Y158.892 E34.83313
G1 X149.151 Y159.158 E34.86267
G1 X148.522 Y160.208 E34.98480
G1 X147.812 Y161.188 E35.10556
G1 X147.016 Y162.109 E35.22702
G1 X146.142 Y162.958 E35.34860
G1 X145.206 Y163.721 E35.46909
G1 X144.208 Y164.401 E35.58959
G1 X143.137 Y164.999 E35.71199
G1 X142.039 Y165.495 E35.83220
G1 X140.895 Y165.897 E35.95320
G1 X139.717 Y166.198 E36.07451
G1 X138.515 Y166.397 E36.19608
G1 X137.294 Y166.491 E36.31828
G1 X136.096 Y166.479 E36.43782
G1 X134.887 Y166.363 E36.55901
G1 X133.690 Y166.141 E36.68048
G1 X132.536 Y165.821 E36.79997
G1 X131.383 Y165.393 E36.92269
G1 X130.297 Y164.877 E37.04266
G1 X129.236 Y164.256 E37.16533
G1 X128.262 Y163.565 E37.28449
G1 X127.327 Y162.773 E37.40675
G1 X126.477 Y161.914 E37.52733
G1 X125.698 Y160.978 E37.64884
G1 X125.004 Y159.981 E37.77005
G1 X124.404 Y158.934 E37.89046
G1 X123.889 Y157.823 E38.01265
G1 X123.480 Y156.693 E38.13256
G1 X123.165 Y155.509 E38.25481
G1 X122.957 Y154.328 E38.37446
G1 X122.851 Y153.102 E38.49725
G1 X122.849 Y151.903 E38.61689
G1 X122.956 Y150.679 E38.73948
G1 X123.162 Y149.502 E38.85871
G1 X123.476 Y148.316 E38.98113
G1 X123.885 Y147.186 E39.10104
G1 X124.398 Y146.076 E39.22305
G1 X125.001 Y145.022 E39.34421
G1 X125.687 Y144.035 E39.46415
G1 X126.470 Y143.094 E39.58629
G1 X127.319 Y142.234 E39.70688
G1 X128.248 Y141.446 E39.82843
G1 X129.237 Y140.744 E39.94944
G1 X130.283 Y140.130 E40.07047
G1 X131.383 Y139.608 E40.19196
G1 X132.513 Y139.187 E40.31228
G1 X133.682 Y138.862 E40.43335
G1 X134.879 Y138.639 E40.55484
G1 X136.087 Y138.523 E40.67593
G1 X137.305 Y138.508 E40.79747
G1 X138.506 Y138.601 E40.91766
G1 X139.705 Y138.798 E41.03891
G1 X140.879 Y139.098 E41.15981
G1 X142.036 Y139.503 E41.28213
G1 X143.128 Y139.995 E41.40163
G1 X144.199 Y140.594 E41.52408
G1 X145.197 Y141.272 E41.64447
G1 X146.136 Y142.036 E41.76525
G1 X147.009 Y142.884 E41.88669
G1 X147.806 Y143.802 E42.00800
G1 X148.516 Y144.783 E42.12883
G1 X149.143 Y145.828 E42.25043
G0 F12000 X149.666 Y145.533
;TYPE:WALL-OUTER
G1 F1800 X150.091 Y146.406 E42.34731
G1 X145.277 Y148.502 E42.87121
G1 X145.024 Y147.995 E42.92774
G1 X144.925 Y147.812 E42.94850
G1 X144.488 Y147.131 E43.02924
G1 X143.867 Y146.340 E43.12959
G1 X143.165 Y145.619 E43.23000
G1 X142.387 Y144.977 E43.33064
G1 X141.545 Y144.423 E43.43121
G1 X140.650 Y143.964 E43.53157
G1 X139.709 Y143.603 E43.63214
G1 X138.662 Y143.325 E43.74023
G1 X137.700 Y146.281 E44.05041
G1 X137.598 Y146.505 E44.07497
G1 X137.460 Y146.673 E44.09666
G1 X137.287 Y146.805 E44.11837
G1 X137.087 Y146.890 E44.14006
G1 X136.862 Y146.926 E44.16279
G1 X136.813 Y146.925 E44.16768
G1 X136.588 Y146.890 E44.19040
G1 X136.386 Y146.804 E44.21231
G1 X136.213 Y146.674 E44.23390
G1 X136.076 Y146.503 E44.25577
G1 X135.972 Y146.281 E44.28023
G1 X135.011 Y143.325 E44.59037
G1 X133.929 Y143.613 E44.70209
G1 X132.958 Y143.993 E44.80614
G1 X132.035 Y144.476 E44.91008
G1 X131.171 Y145.061 E45.01419
G1 X130.535 Y145.603 E45.09757
G1 X130.378 Y145.738 E45.11823
G1 X129.805 Y146.348 E45.20174
G1 X129.665 Y146.500 E45.22236
G1 X129.162 Y147.168 E45.30580
G1 X129.042 Y147.337 E45.32648
G1 X128.616 Y148.056 E45.40987
G1 X128.515 Y148.237 E45.43055
G1 X128.168 Y149.008 E45.51491
G1 X127.836 Y149.984 E45.61778
G1 X127.778 Y150.185 E45.63865
G1 X127.609 Y151.015 E45.72317
G1 X127.532 Y151.839 E45.80575
G1 X127.498 Y152.042 E45.82628
G1 X127.516 Y152.866 E45.90852
G1 X127.506 Y153.081 E45.93000
G1 X127.630 Y154.123 E46.03470
G1 X127.867 Y155.132 E46.13812
G1 X128.219 Y156.123 E46.24306
G1 X128.675 Y157.058 E46.34686
G1 X129.230 Y157.935 E46.45041
G1 X129.886 Y158.753 E46.55504
G1 X130.624 Y159.487 E46.65890
G1 X131.441 Y160.135 E46.76295
G1 X132.325 Y160.689 E46.86704
G1 X133.264 Y161.140 E46.97098
G1 X134.249 Y161.485 E47.07512
G1 X135.265 Y161.716 E47.17908
G1 X136.301 Y161.834 E47.28312
G1 X137.344 Y161.836 E47.38720
G1 X138.380 Y161.722 E47.49119
G1 X139.398 Y161.493 E47.59531
G1 X140.188 Y161.220 E47.67871
G1 X140.383 Y161.152 E47.69931
G1 X141.138 Y160.793 E47.78273
G1 X141.324 Y160.702 E47.80339
G1 X142.036 Y160.264 E47.88680
G1 X142.868 Y159.636 E47.99081
G1 X143.029 Y159.505 E48.01152
G1 X143.627 Y158.919 E48.09507
G1 X144.306 Y158.117 E48.19992
G1 X144.885 Y157.253 E48.30370
G1 X145.277 Y156.497 E48.38867
G1 X150.093 Y158.591 E48.91267
G1 X149.672 Y159.457 E49.00875
G1 X149.026 Y160.535 E49.13415
G1 X148.281 Y161.565 E49.26099
G1 X147.453 Y162.521 E49.38718
G1 X146.546 Y163.403 E49.51342
G1 X145.568 Y164.201 E49.63937
G1 X144.517 Y164.916 E49.76620
G1 X143.410 Y165.535 E49.89275
G1 X142.265 Y166.052 E50.01811
G1 X141.071 Y166.471 E50.14437
G1 X139.838 Y166.787 E50.27138
G1 X138.590 Y166.993 E50.39759
G1 X137.317 Y167.091 E50.52498
G1 X136.068 Y167.079 E50.64961
G1 X134.800 Y166.957 E50.77672
G1 X133.558 Y166.727 E50.90275
G1 X132.342 Y166.390 E51.02866
G1 X131.157 Y165.949 E51.15482
G1 X130.013 Y165.406 E51.28118
G1 X128.915 Y164.763 E51.40814
G1 X127.888 Y164.035 E51.53375
G1 X126.918 Y163.213 E51.66061
G1 X126.035 Y162.321 E51.78585
G1 X125.213 Y161.334 E51.91402
G1 X124.498 Y160.305 E52.03904
G1 X123.869 Y159.207 E52.16531
G1 X123.337 Y158.059 E52.29156
G1 X122.906 Y156.869 E52.41784
G1 X122.579 Y155.639 E52.54484
G1 X122.361 Y154.405 E52.66987
G1 X122.251 Y153.135 E52.79707
G1 X122.249 Y151.874 E52.92289
G1 X122.359 Y150.605 E53.04999
G1 X122.576 Y149.371 E53.17501
G1 X122.902 Y148.141 E53.30197
G1 X123.332 Y146.951 E53.42823
G1 X123.863 Y145.803 E53.55443
G1 X124.492 Y144.703 E53.68087
G1 X125.206 Y143.675 E53.80576
G1 X126.023 Y142.693 E53.93322
G1 X126.916 Y141.788 E54.06008
G1 X127.874 Y140.976 E54.18539
G1 X128.912 Y140.239 E54.31241
G1 X130.003 Y139.599 E54.43862
G1 X131.147 Y139.056 E54.56497
G1 X132.332 Y138.614 E54.69117
G1 X133.548 Y138.276 E54.81710
G1 X134.790 Y138.045 E54.94316
G1 X136.059 Y137.923 E55.07036
G1 X137.322 Y137.908 E55.19639
G1 X138.579 Y138.005 E55.32219
G1 X139.828 Y138.210 E55.44848
G1 X141.061 Y138.526 E55.57549
G1 X142.255 Y138.943 E55.70168
G1 X143.400 Y139.459 E55.82700
G1 X144.508 Y140.078 E55.95364
G1 X145.557 Y140.793 E56.08031
G1 X146.539 Y141.591 E56.20657
G1 X147.440 Y142.465 E56.33182
G1 X148.279 Y143.432 E56.45956
G1 X149.020 Y144.457 E56.58576
G1 X149.666 Y145.533 E56.71099
G0 F12000 X148.800 Y145.664
;TYPE:SKIN
G1 F1800 X148.800 Y146.086 E56.75310
G0 F12000 X148.200 Y146.347
G1 F1800 X148.200 Y144.706 E56.91684
G0 F12000 X147.600 Y143.886
G1 F1800 X147.600 Y146.609 E57.18854
G0 F12000 X147.000 Y146.870
G1 F1800 X147.000 Y143.195 E57.55523
G0 F12000 X146.400 Y142.586
G1 F1800 X146.400 Y147.131 E58.00873
G0 F12000 X145.800 Y147.393
G1 F1800 X145.800 Y142.034 E58.54346
G0 F12000 X145.200 Y141.546
G1 F1800 X145.200 Y146.741 E59.06181
G0 F12000 X144.600 Y145.962
G1 F1800 X144.600 Y141.121 E59.54485
G0 F12000 X144.000 Y140.723
G1 F1800 X144.000 Y145.314 E60.00294
G0 F12000 X143.400 Y144.762
G1 F1800 X143.400 Y140.388 E60.43938
G0 F12000 X142.800 Y140.078
G1 F1800 X142.800 Y144.279 E60.85856
G0 F12000 X142.200 Y143.884
G1 F1800 X142.200 Y139.808 E61.26527
G0 F12000 X141.600 Y139.573
G1 F1800 X141.600 Y143.541 E61.66119
G0 F12000 X141.000 Y143.232
G1 F1800 X141.000 Y139.363 E62.04724
G0 F12000 X140.400 Y139.193
G1 F1800 X140.400 Y143.000 E62.42711
G1 F2100 E62.02711
G1 Z0.800
G0 F12000 X145.800 Y157.608
G1 Z0.400
G1 F2100 E62.42711
G1 F1800 X145.800 Y162.965 E62.96163
G0 F12000 X145.200 Y163.455
G1 F1800 X145.200 Y158.238 E63.48219
G0 F12000 X144.600 Y159.036
G1 F1800 X144.600 Y163.880 E63.96552
G0 F12000 X144.000 Y164.277
G1 F1800 X144.000 Y159.687 E64.42351
G1 F2100 E64.02351
G1 Z0.800
G0 F12000 X146.400 Y157.869
G1 Z0.400
G1 F2100 E64.42351
G1 F1800 X146.400 Y162.416 E64.87722
G0 F12000 X147.000 Y161.808
G1 F1800 X147.000 Y158.129 E65.24431
G0 F12000 X147.600 Y158.390
G1 F1800 X147.600 Y161.114 E65.51611
G0 F12000 X148.200 Y160.295
G1 F1800 X148.200 Y158.651 E65.68015
G0 F12000 X148.800 Y158.912
G1 F1800 X148.800 Y159.337 E65.72256
G1 F2100 E65.32256
G1 Z0.800
G0 F12000 X143.400 Y160.247
G1 Z0.400
G1 F2100 E65.72256
G1 F1800 X143.400 Y164.612 E66.15810
G0 F12000 X142.800 Y164.921
G1 F1800 X142.800 Y160.700 E66.57927
G0 F12000 X142.200 Y161.113
G1 F1800 X142.200 Y165.193 E66.98637
G0 F12000 X141.600 Y165.428
G1 F1800 X141.600 Y161.467 E67.38160
G0 F12000 X141.000 Y161.754
G1 F1800 X141.000 Y165.638 E67.76915
G0 F12000 X140.400 Y165.807
G1 F1800 X140.400 Y162.003 E68.14872
G0 F12000 X139.800 Y162.211
G1 F1800 X139.800 Y165.961 E68.52289
G0 F12000 X139.200 Y166.071
G1 F1800 X139.200 Y162.367 E68.89248
G0 F12000 X138.600 Y162.502
G1 F1800 X138.600 Y166.170 E69.25847
G0 F12000 X138.000 Y166.226
G1 F1800 X138.000 Y162.578 E69.62247
G0 F12000 X137.400 Y162.645
G1 F1800 X137.400 Y166.273 E69.98448
G0 F12000 X136.800 Y166.276
G1 F1800 X136.800 Y162.645 E70.34678
G0 F12000 X136.200 Y162.639
G1 F1800 X136.200 Y166.269 E70.70898
G0 F12000 X135.600 Y166.219
G1 F1800 X135.600 Y162.571 E71.07298
G0 F12000 X135.000 Y162.487
G1 F1800 X135.000 Y166.162 E71.43967
G0 F12000 X134.400 Y166.059
G1 F1800 X134.400 Y162.350 E71.80976
G0 F12000 X133.800 Y162.186
G1 F1800 X133.800 Y165.948 E72.18513
G0 F12000 X133.200 Y165.787
G1 F1800 X133.200 Y161.976 E72.56540
G0 F12000 X132.600 Y161.721
G1 F1800 X132.600 Y165.621 E72.95454
G0 F12000 X132.000 Y165.398
G1 F1800 X132.000 Y161.433 E73.35017
G0 F12000 X131.400 Y161.066
G1 F1800 X131.400 Y165.168 E73.75947
G0 F12000 X130.800 Y164.883
G1 F1800 X130.800 Y160.660 E74.18084
G0 F12000 X130.200 Y160.185
G1 F1800 X130.200 Y164.576 E74.61898
G0 F12000 X129.600 Y164.226
G1 F1800 X129.600 Y159.612 E75.07936
G0 F12000 X129.000 Y158.944
G1 F1800 X129.000 Y163.830 E75.56689
G0 F12000 X128.400 Y163.404
G1 F1800 X128.400 Y158.140 E76.09213
G0 F12000 X127.800 Y157.111
G1 F1800 X127.800 Y162.898 E76.66956
G0 F12000 X127.200 Y162.346
G1 F1800 X127.200 Y155.670 E77.33570
G1 F2100 E76.93570
G1 Z0.800
G0 F12000 X123.600 Y156.327
G1 Z0.400
G1 F2100 E77.33570
G1 F1800 X123.600 Y148.668 E78.09992
G1 F2100 E77.69992
G1 Z0.800
G0 F12000 X124.200 Y147.005
G1 Z0.400
G1 F2100 E78.09992
G1 F1800 X124.200 Y157.994 E79.19640
G0 F12000 X124.800 Y159.202
G1 F1800 X124.800 Y145.796 E80.53406
G0 F12000 X125.400 Y144.815
G1 F1800 X125.400 Y160.182 E82.06738
G0 F12000 X126.000 Y161.012
G1 F1800 X126.000 Y143.986 E83.76625
G0 F12000 X126.600 Y143.266
G1 F1800 X126.600 Y161.733 E85.60889
G1 F2100 E85.20889
G1 Z0.800
G0 F12000 X127.200 Y149.338
G1 Z0.400
G1 F2100 E85.60889
G1 F1800 X127.200 Y142.653 E86.27592
G0 F12000 X127.800 Y142.102
G1 F1800 X127.800 Y147.858 E86.85026
G0 F12000 X128.400 Y146.842
G1 F1800 X128.400 Y141.596 E87.37371
G0 F12000 X129.000 Y141.169
G1 F1800 X129.000 Y146.037 E87.85944
G0 F12000 X129.600 Y145.386
G1 F1800 X129.600 Y140.774 E88.31962
G0 F12000 X130.200 Y140.422
G1 F1800 X130.200 Y144.826 E88.75906
G0 F12000 X130.800 Y144.335
G1 F1800 X130.800 Y140.117 E89.17993
G0 F12000 X131.400 Y139.832
G1 F1800 X131.400 Y143.929 E89.58873
G0 F12000 X132.000 Y143.581
G1 F1800 X132.000 Y139.602 E89.98576
G0 F12000 X132.600 Y139.380
G1 F1800 X132.600 Y143.267 E90.37360
G0 F12000 X133.200 Y143.029
G1 F1800 X133.200 Y139.213 E90.75437
G0 F12000 X133.800 Y139.053
G1 F1800 X133.800 Y142.809 E91.12914
G0 F12000 X134.400 Y142.649
G1 F1800 X134.400 Y138.941 E91.49913
G0 F12000 X135.000 Y138.838
G1 F1800 X135.000 Y142.490 E91.86353
G0 F12000 X135.600 Y142.520
G1 F1800 X135.600 Y138.781 E92.23660
G0 F12000 X136.200 Y138.731
G1 F1800 X136.200 Y144.364 E92.79867
G0 F12000 X137.400 Y144.586
G1 F1800 X137.400 Y138.726 E93.38338
G0 F12000 X136.800 Y138.724
G1 F1800 X136.800 Y146.098 E94.11916
G1 F2100 E93.71916
G1 Z0.800
G0 F12000 X138.000 Y142.745
G1 Z0.400
G1 F2100 E94.11916
G1 F1800 X138.000 Y138.773 E94.51549
G0 F12000 X138.600 Y138.830
G1 F1800 X138.600 Y142.470 E94.87869
G0 F12000 X139.200 Y142.629
G1 F1800 X139.200 Y138.928 E95.24798
G0 F12000 X139.800 Y139.040
G1 F1800 X139.800 Y142.788 E95.62195
G1 F2100 E95.22195
G1 Z0.800
G0 F12000 X156.039 Y148.317
;TYPE:WALL-INNER
G1 Z0.400
G1 F2100 E95.62195
G1 F1800 X156.448 Y147.187 E95.74186
G1 X156.965 Y146.070 E95.86468
G1 X157.561 Y145.027 E95.98454
G1 X158.250 Y144.035 E96.10506
G1 X159.033 Y143.094 E96.22720
G1 X159.889 Y142.227 E96.34877
G1 X160.804 Y141.451 E96.46849
G1 X161.800 Y140.744 E96.59036
G1 X162.846 Y140.130 E96.71138
G1 X163.946 Y139.608 E96.83287
G1 X165.076 Y139.187 E96.95320
G1 X166.247 Y138.861 E97.07448
G1 X167.441 Y138.639 E97.19566
G1 X168.650 Y138.523 E97.31685
G1 X169.868 Y138.508 E97.43839
G1 X171.070 Y138.601 E97.55869
G1 X172.268 Y138.798 E97.67983
G1 X173.442 Y139.098 E97.80073
G1 X174.599 Y139.503 E97.92305
G1 X175.691 Y139.995 E98.04256
G1 X176.762 Y140.594 E98.16500
G1 X177.760 Y141.272 E98.28539
G1 X178.699 Y142.036 E98.40618
G1 X179.572 Y142.884 E98.52761
G1 X180.369 Y143.803 E98.64899
G1 X181.080 Y144.783 E98.76980
G1 X181.706 Y145.828 E98.89135
G1 X181.842 Y146.106 E98.92223
G1 X178.124 Y147.725 E99.32686
G1 X178.005 Y147.507 E99.35164
G1 X177.540 Y146.783 E99.43750
G1 X176.882 Y145.944 E99.54389
G1 X176.135 Y145.177 E99.65072
G1 X175.308 Y144.494 E99.75774
G1 X174.412 Y143.905 E99.86473
G1 X173.459 Y143.415 E99.97166
G1 X172.457 Y143.031 E100.07873
G1 X170.829 Y142.600 E100.24677
G1 X169.815 Y145.721 E100.57421
G1 X169.701 Y146.069 E100.61074
G1 X169.648 Y146.185 E100.62347
G1 X169.604 Y146.238 E100.63034
G1 X169.546 Y146.282 E100.63761
G1 X169.485 Y146.308 E100.64422
G1 X169.400 Y146.321 E100.65280
G1 X169.318 Y146.309 E100.66107
G1 X169.249 Y146.280 E100.66854
G1 X169.198 Y146.241 E100.67495
G1 X169.150 Y146.180 E100.68269
G1 X169.098 Y146.070 E100.69483
G1 X167.969 Y142.599 E101.05903
G1 X166.305 Y143.042 E101.23085
G1 X165.272 Y143.446 E101.34152
G1 X164.505 Y143.848 E101.42793
G1 X164.290 Y143.960 E101.45212
G1 X163.370 Y144.583 E101.56299
G1 X162.707 Y145.148 E101.64990
G1 X162.526 Y145.304 E101.67375
G1 X161.929 Y145.939 E101.76071
G1 X161.767 Y146.115 E101.78458
G1 X161.222 Y146.839 E101.87500
G1 X160.663 Y147.751 E101.98173
G1 X160.542 Y147.968 E102.00652
G1 X160.173 Y148.787 E102.09616
G1 X159.826 Y149.804 E102.20338
G1 X159.758 Y150.043 E102.22817
G1 X159.577 Y150.927 E102.31821
G1 X159.501 Y151.758 E102.40147
G1 X159.462 Y151.998 E102.42573
G1 X159.478 Y152.869 E102.51266
G1 X159.467 Y153.102 E102.53593
G1 X159.601 Y154.228 E102.64908
G1 X159.855 Y155.308 E102.75978
G1 X160.227 Y156.354 E102.87055
G1 X160.713 Y157.351 E102.98122
G1 X161.299 Y158.276 E103.09048
G1 X162.004 Y159.156 E103.20299
G1 X162.788 Y159.937 E103.31341
G1 X163.658 Y160.626 E103.42415
G1 X164.598 Y161.216 E103.53489
G1 X165.598 Y161.695 E103.64552
G1 X166.645 Y162.062 E103.75622
G1 X167.728 Y162.309 E103.86706
G1 X168.830 Y162.434 E103.97772
G1 X169.699 Y162.436 E104.06443
G1 X169.940 Y162.436 E104.08848
G1 X171.042 Y162.315 E104.19910
G1 X172.126 Y162.071 E104.30997
G1 X172.948 Y161.787 E104.39674
G1 X173.174 Y161.708 E104.42063
G1 X173.963 Y161.334 E104.50776
G1 X174.179 Y161.228 E104.53176
G1 X174.919 Y160.772 E104.61850
G1 X175.806 Y160.105 E104.72923
G1 X175.993 Y159.952 E104.75334
G1 X176.616 Y159.342 E104.84034
G1 X176.782 Y159.170 E104.86419
G1 X177.352 Y158.475 E104.95388
G1 X177.965 Y157.559 E105.06386
G1 X178.115 Y157.270 E105.09635
G1 X181.844 Y158.892 E105.50210
G1 X181.709 Y159.168 E105.53276
G1 X181.089 Y160.204 E105.65323
G1 X180.376 Y161.188 E105.77448
G1 X179.579 Y162.109 E105.89601
G1 X178.705 Y162.958 E106.01759
G1 X177.769 Y163.721 E106.13808
G1 X176.771 Y164.401 E106.25858
G1 X175.700 Y164.999 E106.38097
G1 X174.602 Y165.495 E106.50119
G1 X173.458 Y165.897 E106.62218
G1 X172.280 Y166.198 E106.74350
G1 X171.079 Y166.397 E106.86497
G1 X169.857 Y166.491 E106.98726
G1 X168.659 Y166.479 E107.10681
G1 X167.451 Y166.363 E107.22790
G1 X166.253 Y166.141 E107.34947
G1 X165.099 Y165.821 E107.46896
G1 X163.946 Y165.393 E107.59168
G1 X162.860 Y164.877 E107.71165
G1 X161.799 Y164.256 E107.83432
G1 X160.818 Y163.560 E107.95433
G1 X159.897 Y162.779 E108.07482
G1 X159.039 Y161.914 E108.19639
G1 X158.261 Y160.978 E108.31784
G1 X157.567 Y159.981 E108.43905
G1 X156.967 Y158.934 E108.55946
G1 X156.455 Y157.826 E108.68125
G1 X156.042 Y156.689 E108.80195
G1 X155.728 Y155.509 E108.92379
G1 X155.520 Y154.328 E109.04344
G1 X155.415 Y153.102 E109.16622
G1 X155.413 Y151.901 E109.28606
G1 X155.518 Y150.680 E109.40834
G1 X155.725 Y149.502 E109.52768
G1 X156.039 Y148.317 E109.65000
G0 F12000 X155.465 Y148.141
;TYPE:WALL-OUTER
G1 F1800 X155.896 Y146.951 E109.77629
G1 X156.427 Y145.802 E109.90258
G1 X157.055 Y144.703 E110.02888
G1 X157.769 Y143.675 E110.15377
G1 X158.591 Y142.687 E110.28201
G1 X159.474 Y141.794 E110.40732
G1 X160.437 Y140.976 E110.53340
G1 X161.475 Y140.239 E110.66042
G1 X162.566 Y139.599 E110.78663
G1 X163.710 Y139.056 E110.91298
G1 X164.895 Y138.614 E111.03918
G1 X166.111 Y138.276 E111.16511
G1 X167.354 Y138.045 E111.29127
G1 X168.622 Y137.923 E111.41837
G1 X169.885 Y137.908 E111.54440
G1 X171.143 Y138.005 E111.67030
G1 X172.391 Y138.210 E111.79649
G1 X173.624 Y138.526 E111.92350
G1 X174.818 Y138.943 E112.04969
G1 X175.963 Y139.459 E112.17501
G1 X177.071 Y140.078 E112.30165
G1 X178.120 Y140.793 E112.42832
G1 X179.102 Y141.591 E112.55458
G1 X180.003 Y142.465 E112.67983
G1 X180.842 Y143.433 E112.80764
G1 X181.584 Y144.456 E112.93374
G1 X182.229 Y145.533 E113.05900
G1 X182.655 Y146.406 E113.15593
G1 X177.840 Y148.502 E113.67992
G1 X177.587 Y147.995 E113.73646
G1 X177.488 Y147.812 E113.75722
G1 X177.051 Y147.131 E113.83796
G1 X176.430 Y146.340 E113.93830
G1 X175.728 Y145.619 E114.03871
G1 X174.951 Y144.977 E114.13928
G1 X174.109 Y144.424 E114.23979
G1 X173.214 Y143.964 E114.34020
G1 X172.272 Y143.603 E114.44086
G1 X171.224 Y143.325 E114.54905
G1 X170.261 Y146.289 E114.86001
G1 X170.162 Y146.503 E114.88354
G1 X170.023 Y146.673 E114.90545
G1 X169.850 Y146.805 E114.92717
G1 X169.650 Y146.890 E114.94885
G1 X169.425 Y146.926 E114.97158
G1 X169.376 Y146.925 E114.97648
G1 X169.151 Y146.890 E114.99920
G1 X168.949 Y146.804 E115.02110
G1 X168.776 Y146.674 E115.04269
G1 X168.639 Y146.503 E115.06456
G1 X168.535 Y146.281 E115.08902
G1 X167.574 Y143.325 E115.39917
G1 X166.492 Y143.613 E115.51089
G1 X165.521 Y143.993 E115.61493
G1 X164.598 Y144.476 E115.71887
G1 X163.734 Y145.061 E115.82299
G1 X163.098 Y145.603 E115.90636
G1 X162.941 Y145.738 E115.92703
G1 X162.368 Y146.348 E116.01053
G1 X162.228 Y146.500 E116.03115
G1 X161.719 Y147.177 E116.11567
G1 X161.181 Y148.054 E116.21833
G1 X161.079 Y148.237 E116.23923
G1 X160.732 Y149.008 E116.32360
G1 X160.399 Y149.983 E116.42640
G1 X160.341 Y150.185 E116.44737
G1 X160.172 Y151.015 E116.53189
G1 X160.096 Y151.839 E116.61445
G1 X160.063 Y152.041 E116.63488
G1 X160.079 Y152.866 E116.71721
G1 X160.069 Y153.081 E116.73869
G1 X160.193 Y154.123 E116.84339
G1 X160.432 Y155.139 E116.94754
G1 X160.781 Y156.121 E117.05152
G1 X161.238 Y157.058 E117.15555
G1 X161.793 Y157.935 E117.25910
G1 X162.449 Y158.753 E117.36373
G1 X163.187 Y159.488 E117.46766
G1 X164.005 Y160.135 E117.57172
G1 X164.888 Y160.689 E117.67573
G1 X165.827 Y161.140 E117.77968
G1 X166.812 Y161.485 E117.88381
G1 X167.829 Y161.716 E117.98787
G1 X168.865 Y161.834 E118.09192
G1 X169.907 Y161.836 E118.19589
G1 X170.943 Y161.722 E118.29988
G1 X171.961 Y161.493 E118.40400
G1 X172.751 Y161.220 E118.48740
G1 X172.946 Y161.152 E118.50800
G1 X173.702 Y160.793 E118.59151
G1 X173.888 Y160.702 E118.61217
G1 X174.599 Y160.264 E118.69550
G1 X175.431 Y159.636 E118.79951
G1 X175.592 Y159.505 E118.82022
G1 X176.190 Y158.919 E118.90376
G1 X176.869 Y158.117 E119.00861
G1 X177.448 Y157.253 E119.11239
G1 X177.840 Y156.497 E119.19736
G1 X182.657 Y158.591 E119.72146
G1 X182.235 Y159.457 E119.81758
G1 X181.590 Y160.535 E119.94293
G1 X180.844 Y161.565 E120.06983
G1 X180.016 Y162.521 E120.19602
G1 X179.109 Y163.403 E120.32226
G1 X178.131 Y164.201 E120.44820
G1 X177.080 Y164.916 E120.57504
G1 X175.973 Y165.535 E120.70159
G1 X174.828 Y166.052 E120.82695
G1 X173.634 Y166.471 E120.95321
G1 X172.401 Y166.787 E121.08021
G1 X171.154 Y166.993 E121.20633
G1 X169.880 Y167.091 E121.33382
G1 X168.631 Y167.079 E121.45845
G1 X167.364 Y166.957 E121.58546
G1 X166.121 Y166.727 E121.71159
G1 X164.905 Y166.390 E121.83750
G1 X163.720 Y165.949 E121.96366
G1 X162.576 Y165.406 E122.09002
G1 X161.478 Y164.763 E122.21698
G1 X160.451 Y164.035 E122.34259
G1 X159.482 Y163.213 E122.46938
G1 X158.598 Y162.321 E122.59468
G1 X157.776 Y161.334 E122.72285
G1 X157.061 Y160.305 E122.84788
G1 X156.432 Y159.207 E122.97414
G1 X155.901 Y158.059 E123.10035
G1 X155.469 Y156.869 E123.22667
G1 X155.142 Y155.639 E123.35366
G1 X154.924 Y154.405 E123.47870
G1 X154.815 Y153.135 E123.60588
G1 X154.813 Y151.874 E123.73171
G1 X154.922 Y150.605 E123.85879
G1 X155.139 Y149.371 E123.98381
G1 X155.465 Y148.141 E124.11078
G0 F12000 X156.000 Y149.284
;TYPE:SKIN
G1 F1800 X156.000 Y155.713 E124.75227
G1 F2100 E124.35227
G1 Z0.800
G0 F12000 X156.600 Y157.608
G1 Z0.400
G1 F2100 E124.75227
G1 F1800 X156.600 Y147.384 E125.77242
G0 F12000 X157.200 Y146.081
G1 F1800 X157.200 Y158.918 E127.05330
G0 F12000 X157.800 Y159.948
G1 F1800 X157.800 Y145.050 E128.53983
G0 F12000 X158.400 Y144.184
G1 F1800 X158.400 Y160.812 E130.19898
G0 F12000 X159.000 Y161.538
G1 F1800 X159.000 Y143.461 E132.00271
G0 F12000 X159.600 Y142.818
G1 F1800 X159.600 Y149.834 E132.70277
G1 F2100 E132.30277
G1 Z0.800
G0 F12000 X159.600 Y155.137
G1 Z0.400
G1 F2100 E132.70277
G1 F1800 X159.600 Y162.181 E133.40562
G0 F12000 X160.200 Y162.760
G1 F1800 X160.200 Y156.778 E134.00251
G0 F12000 X160.800 Y157.882
G1 F1800 X160.800 Y163.268 E134.53993
G0 F12000 X161.400 Y163.715
G1 F1800 X161.400 Y158.740 E135.03633
G0 F12000 X162.000 Y159.449
G1 F1800 X162.000 Y164.130 E135.50341
G0 F12000 X162.600 Y164.481
G1 F1800 X162.600 Y160.047 E135.94583
G0 F12000 X163.200 Y160.531
G1 F1800 X163.200 Y164.806 E136.37239
G0 F12000 X163.800 Y165.091
G1 F1800 X163.800 Y160.963 E136.78429
G0 F12000 X164.400 Y161.340
G1 F1800 X164.400 Y165.338 E137.18321
G0 F12000 X165.000 Y165.561
G1 F1800 X165.000 Y161.642 E137.57425
G0 F12000 X165.600 Y161.919
G1 F1800 X165.600 Y165.742 E137.95571
G0 F12000 X166.200 Y165.908
G1 F1800 X166.200 Y162.129 E138.33278
G0 F12000 X166.800 Y162.313
G1 F1800 X166.800 Y166.028 E138.70346
G0 F12000 X167.400 Y166.139
G1 F1800 X167.400 Y162.450 E139.07155
G0 F12000 X168.000 Y162.552
G1 F1800 X168.000 Y166.204 E139.43595
G0 F12000 X168.600 Y166.261
G1 F1800 X168.600 Y162.620 E139.79925
G0 F12000 X169.200 Y162.645
G1 F1800 X169.200 Y166.274 E140.16136
G0 F12000 X169.800 Y166.280
G1 F1800 X169.800 Y162.646 E140.52396
G0 F12000 X170.400 Y162.596
G1 F1800 X170.400 Y166.239 E140.88746
G0 F12000 X171.000 Y166.193
G1 F1800 X171.000 Y162.530 E141.25295
G0 F12000 X171.600 Y162.404
G1 F1800 X171.600 Y166.098 E141.62154
G0 F12000 X172.200 Y165.999
G1 F1800 X172.200 Y162.267 E141.99392
G0 F12000 X172.800 Y162.059
G1 F1800 X172.800 Y165.849 E142.37209
G0 F12000 X173.400 Y165.695
G1 F1800 X173.400 Y161.833 E142.75744
G0 F12000 X174.000 Y161.548
G1 F1800 X174.000 Y165.485 E143.15028
G0 F12000 X174.600 Y165.267
G1 F1800 X174.600 Y161.214 E143.55469
G0 F12000 X175.200 Y160.823
G1 F1800 X175.200 Y164.995 E143.97097
G0 F12000 X175.800 Y164.703
G1 F1800 X175.800 Y160.371 E144.40322
G0 F12000 X176.400 Y159.847
G1 F1800 X176.400 Y164.368 E144.85433
G0 F12000 X177.000 Y163.991
G1 F1800 X177.000 Y159.235 E145.32888
G0 F12000 X177.600 Y158.481
G1 F1800 X177.600 Y163.582 E145.83786
G0 F12000 X178.200 Y163.098
G1 F1800 X178.200 Y157.560 E146.39045
G0 F12000 X178.800 Y157.798
G1 F1800 X178.800 Y162.574 E146.86700
G0 F12000 X179.400 Y161.991
G1 F1800 X179.400 Y158.059 E147.25933
G1 F2100 E146.85933
G1 Z0.800
G0 F12000 X178.200 Y147.421
G1 Z0.400
G1 F2100 E147.25933
G1 F1800 X178.200 Y141.902 E147.81002
G0 F12000 X177.600 Y141.418
G1 F1800 X177.600 Y146.519 E148.31900
G0 F12000 X177.000 Y145.763
G1 F1800 X177.000 Y141.010 E148.79326
G0 F12000 X176.400 Y140.632
G1 F1800 X176.400 Y145.147 E149.24377
G0 F12000 X175.800 Y144.627
G1 F1800 X175.800 Y140.297 E149.67582
G0 F12000 X175.200 Y140.005
G1 F1800 X175.200 Y144.171 E150.09150
G0 F12000 X174.600 Y143.777
G1 F1800 X174.600 Y139.735 E150.49481
G0 F12000 X174.000 Y139.516
G1 F1800 X174.000 Y143.457 E150.88805
G0 F12000 X173.400 Y143.167
G1 F1800 X173.400 Y139.306 E151.27330
G0 F12000 X172.800 Y139.151
G1 F1800 X172.800 Y142.937 E151.65107
G0 F12000 X172.200 Y142.745
G1 F1800 X172.200 Y139.000 E152.02475
G0 F12000 X171.600 Y138.902
G1 F1800 X171.600 Y142.586 E152.39234
G0 F12000 X171.000 Y142.427
G1 F1800 X171.000 Y138.807 E152.75354
G0 F12000 X170.400 Y138.760
G1 F1800 X170.400 Y143.241 E153.20066
G1 F2100 E152.80066
G1 Z0.800
G0 F12000 X168.600 Y143.863
G1 Z0.400
G1 F2100 E153.20066
G1 F1800 X168.600 Y138.739 E153.71193
G0 F12000 X169.200 Y138.726
G1 F1800 X169.200 Y145.707 E154.40850
G0 F12000 X169.800 Y145.086
G1 F1800 X169.800 Y138.718 E155.04390
G1 F2100 E154.64390
G1 Z0.800
G0 F12000 X168.000 Y138.796
G1 Z0.400
G1 F2100 E155.04390
G1 F1800 X168.000 Y142.374 E155.40092
G0 F12000 X167.400 Y142.533
G1 F1800 X167.400 Y138.860 E155.76741
G0 F12000 X166.800 Y138.971
G1 F1800 X166.800 Y142.693 E156.13879
G0 F12000 X166.200 Y142.858
G1 F1800 X166.200 Y139.091 E156.51467
G0 F12000 X165.600 Y139.258
G1 F1800 X165.600 Y143.093 E156.89732
G0 F12000 X165.000 Y143.352
G1 F1800 X165.000 Y139.438 E157.28786
G0 F12000 X164.400 Y139.662
G1 F1800 X164.400 Y143.667 E157.68748
G0 F12000 X163.800 Y144.039
G1 F1800 X163.800 Y139.910 E158.09948
G0 F12000 X163.200 Y140.194
G1 F1800 X163.200 Y144.453 E158.52444
G0 F12000 X162.600 Y144.965
G1 F1800 X162.600 Y140.517 E158.96827
G0 F12000 X162.000 Y140.869
G1 F1800 X162.000 Y145.560 E159.43634
G0 F12000 X161.400 Y146.254
G1 F1800 X161.400 Y141.285 E159.93214
G0 F12000 X160.800 Y141.730
G1 F1800 X160.800 Y147.127 E160.47066
G0 F12000 X160.200 Y148.217
G1 F1800 X160.200 Y142.239 E161.06715
G1 F2100 E160.66715
G1 Z0.800
G0 F12000 X178.800 Y142.427
G1 Z0.400
G1 F2100 E161.06715
G1 F1800 X178.800 Y147.202 E161.54360
G0 F12000 X179.400 Y146.941
G1 F1800 X179.400 Y143.010 E161.93583
G0 F12000 X180.000 Y143.700
G1 F1800 X180.000 Y146.680 E162.23318
G0 F12000 X180.600 Y146.419
G1 F1800 X180.600 Y144.480 E162.42665
G0 F12000 X181.200 Y145.392
G1 F1800 X181.200 Y146.158 E162.50309
G1 F2100 E162.10309
G1 Z0.800
G0 F12000 X180.000 Y158.320
G1 Z0.400
G1 F2100 E162.50309
G1 F1800 X180.000 Y161.303 E162.80073
G0 F12000 X180.600 Y160.522
G1 F1800 X180.600 Y158.581 E162.99441
G0 F12000 X181.200 Y158.841
G1 F1800 X181.200 Y159.611 E163.07124
;LAYER:1
M106 S20
G1 F2100 E162.67124
G1 Z0.800
G0 F12000 X149.155 Y159.152 Z0.800
;TYPE:WALL-INNER
G1 Z0.800
G1 F2100 E163.07124
G1 F1980 X148.533 Y160.190 E163.19198
G1 X147.814 Y161.187 E163.31463
G1 X147.029 Y162.096 E163.43447
G1 X146.151 Y162.949 E163.55662
G1 X145.213 Y163.716 E163.67752
G1 X144.218 Y164.395 E163.79771
G1 X143.156 Y164.989 E163.91913
G1 X142.049 Y165.491 E164.04041
G1 X140.905 Y165.893 E164.16140
G1 X139.727 Y166.195 E164.28275
G1 X138.525 Y166.395 E164.40433
G1 X137.300 Y166.491 E164.52694
G1 X136.088 Y166.479 E164.64788
G1 X134.899 Y166.365 E164.76706
G1 X133.713 Y166.145 E164.88742
G1 X132.531 Y165.819 E165.00976
G1 X131.391 Y165.396 E165.13109
G1 X130.305 Y164.882 E165.25097
G1 X129.258 Y164.269 E165.37203
G1 X128.257 Y163.560 E165.49443
G1 X127.313 Y162.762 E165.61777
G1 X126.473 Y161.911 E165.73708
G1 X125.703 Y160.986 E165.85717
G1 X125.013 Y159.994 E165.97774
G1 X124.403 Y158.932 E166.09995
G1 X123.897 Y157.841 E166.21994
G1 X123.483 Y156.701 E166.34096
G1 X123.167 Y155.516 E166.46333
G1 X122.956 Y154.317 E166.58481
G1 X122.851 Y153.126 E166.70411
G1 X122.849 Y151.896 E166.82684
G1 X122.954 Y150.700 E166.94664
G1 X123.163 Y149.500 E167.06817
G1 X123.473 Y148.331 E167.18885
G1 X123.887 Y147.183 E167.31062
G1 X124.392 Y146.088 E167.43094
G1 X124.993 Y145.038 E167.55165
G1 X125.687 Y144.036 E167.67327
G1 X126.475 Y143.087 E167.79635
G1 X127.313 Y142.239 E167.91531
G1 X128.238 Y141.454 E168.03637
G1 X129.228 Y140.749 E168.15764
G1 X130.273 Y140.136 E168.27852
G1 X131.377 Y139.610 E168.40054
G1 X132.509 Y139.187 E168.52112
G1 X133.674 Y138.864 E168.64175
G1 X134.871 Y138.640 E168.76326
G1 X136.081 Y138.523 E168.88456
G1 X137.299 Y138.508 E169.00610
G1 X138.499 Y138.600 E169.12619
G1 X139.699 Y138.796 E169.24751
G1 X140.872 Y139.096 E169.36832
G1 X142.025 Y139.499 E169.49020
G1 X143.133 Y139.997 E169.61141
G1 X144.189 Y140.587 E169.73210
G1 X145.189 Y141.267 E169.85277
G1 X146.132 Y142.033 E169.97399
G1 X147.016 Y142.891 E170.09691
G1 X147.801 Y143.796 E170.21645
G1 X148.514 Y144.781 E170.33778
G1 X149.136 Y145.816 E170.45827
G1 X149.275 Y146.101 E170.48991
G1 X145.183 Y147.889 E170.93549
G1 X145.010 Y147.561 E170.97249
G1 X144.407 Y146.682 E171.07885
G1 X143.713 Y145.877 E171.18490
G1 X142.948 Y145.168 E171.28898
G1 X142.592 Y144.881 E171.33460
G1 X142.083 Y144.529 E171.39635
G1 X141.710 Y144.289 E171.44061
G1 X141.165 Y143.997 E171.50230
G1 X140.767 Y143.796 E171.54679
G1 X140.192 Y143.571 E171.60840
G1 X139.777 Y143.414 E171.65268
G1 X138.531 Y143.081 E171.78137
G1 X137.515 Y146.200 E172.10868
G1 X137.429 Y146.390 E172.12949
G1 X137.328 Y146.518 E172.14575
G1 X137.204 Y146.616 E172.16153
G1 X137.056 Y146.685 E172.17782
G1 X136.894 Y146.718 E172.19432
G1 X136.723 Y146.712 E172.21139
G1 X136.628 Y146.690 E172.22112
G1 X136.472 Y146.617 E172.23830
G1 X136.345 Y146.516 E172.25449
G1 X136.244 Y146.388 E172.27076
G1 X136.155 Y146.195 E172.29197
G1 X135.142 Y143.080 E172.61881
G1 X133.874 Y143.420 E172.74980
G1 X133.296 Y143.646 E172.81172
G1 X132.867 Y143.813 E172.85766
G1 X131.909 Y144.317 E172.96567
G1 X131.015 Y144.927 E173.07366
G1 X130.195 Y145.635 E173.18176
G1 X129.461 Y146.431 E173.28980
G1 X128.822 Y147.305 E173.39783
G1 X128.286 Y148.244 E173.50571
G1 X127.860 Y149.240 E173.61380
G1 X127.552 Y150.266 E173.72069
G1 X127.456 Y150.737 E173.76865
G1 X127.313 Y151.810 E173.87666
G1 X127.322 Y152.262 E173.92177
G1 X127.296 Y152.849 E173.98040
G1 X127.342 Y153.510 E174.04652
G1 X127.513 Y154.555 E174.15217
G1 X127.809 Y155.605 E174.26103
G1 X128.219 Y156.606 E174.36896
G1 X128.427 Y157.019 E174.41510
G1 X128.749 Y157.570 E174.47878
G1 X129.367 Y158.444 E174.58559
G1 X130.075 Y159.234 E174.69144
G1 X130.414 Y159.567 E174.73885
G1 X130.892 Y159.965 E174.80091
G1 X131.255 Y160.249 E174.84690
G1 X131.774 Y160.588 E174.90876
G1 X132.167 Y160.831 E174.95486
G1 X132.723 Y161.109 E175.01689
G1 X133.140 Y161.306 E175.06291
G1 X133.723 Y161.518 E175.12480
G1 X134.161 Y161.668 E175.17100
G1 X134.763 Y161.810 E175.23272
G1 X135.213 Y161.911 E175.27873
G1 X135.830 Y161.984 E175.34073
G1 X136.290 Y162.035 E175.38691
G1 X137.370 Y162.036 E175.49467
G1 X138.445 Y161.915 E175.60261
G1 X139.501 Y161.673 E175.71071
G1 X140.522 Y161.311 E175.81880
G1 X141.495 Y160.838 E175.92675
G1 X142.408 Y160.257 E176.03473
G1 X143.251 Y159.576 E176.14287
G1 X144.009 Y158.804 E176.25082
G1 X144.676 Y157.953 E176.35871
G1 X145.191 Y157.113 E176.45702
G1 X149.281 Y158.892 E176.90206
G1 X149.155 Y159.152 E176.93089
G0 F12000 X149.678 Y159.445
;TYPE:WALL-OUTER
G1 F1980 X149.033 Y160.523 E177.05623
G1 X148.288 Y161.555 E177.18323
G1 X147.464 Y162.510 E177.30909
G1 X146.556 Y163.394 E177.43554
G1 X145.577 Y164.193 E177.56163
G1 X144.533 Y164.906 E177.68777
G1 X143.419 Y165.529 E177.81513
G1 X142.275 Y166.047 E177.94044
G1 X141.082 Y166.467 E178.06664
G1 X139.846 Y166.784 E178.19396
G1 X138.602 Y166.991 E178.31979
G1 X137.330 Y167.090 E178.44709
G1 X137.319 Y167.091 E178.44820
G1 X136.070 Y167.079 E178.57283
G1 X134.812 Y166.959 E178.69892
G1 X133.570 Y166.729 E178.82496
G1 X132.348 Y166.392 E178.95144
G1 X131.165 Y165.953 E179.07734
G1 X130.022 Y165.411 E179.20357
G1 X128.930 Y164.772 E179.32981
G1 X127.897 Y164.041 E179.45608
G1 X126.919 Y163.214 E179.58388
G1 X126.029 Y162.315 E179.71010
G1 X125.219 Y161.342 E179.83643
G1 X124.503 Y160.313 E179.96151
G1 X123.874 Y159.216 E180.08769
G1 X123.341 Y158.069 E180.21389
G1 X122.909 Y156.879 E180.34021
G1 X122.581 Y155.649 E180.46723
G1 X122.363 Y154.414 E180.59236
G1 X122.251 Y153.145 E180.71948
G1 X122.249 Y151.880 E180.84570
G1 X122.249 Y151.867 E180.84700
G1 X122.357 Y150.627 E180.97119
G1 X122.577 Y149.369 E181.09862
G1 X122.900 Y148.150 E181.22445
G1 X123.329 Y146.959 E181.35076
G1 X123.859 Y145.810 E181.47702
G1 X124.481 Y144.723 E181.60198
G1 X125.210 Y143.671 E181.72969
G1 X126.026 Y142.688 E181.85717
G1 X126.904 Y141.800 E181.98177
G1 X127.875 Y140.975 E182.10891
G1 X128.897 Y140.248 E182.23405
G1 X129.997 Y139.603 E182.36129
G1 X131.139 Y139.059 E182.48750
G1 X132.324 Y138.616 E182.61373
G1 X133.540 Y138.278 E182.73967
G1 X134.783 Y138.046 E182.86584
G1 X136.051 Y137.923 E182.99295
G1 X137.314 Y137.908 E183.11898
G1 X138.573 Y138.004 E183.24497
G1 X139.821 Y138.209 E183.37117
G1 X141.054 Y138.524 E183.49815
G1 X142.239 Y138.938 E183.62340
G1 X143.403 Y139.462 E183.75077
G1 X144.503 Y140.074 E183.87637
G1 X145.552 Y140.789 E184.00304
G1 X146.534 Y141.587 E184.12930
G1 X147.443 Y142.468 E184.25561
G1 X148.275 Y143.427 E184.38229
G1 X149.013 Y144.447 E184.50791
G1 X149.664 Y145.529 E184.63391
G1 X150.089 Y146.401 E184.73070
G1 X144.912 Y148.662 E185.29438
G1 X144.495 Y147.872 E185.38351
G1 X143.931 Y147.049 E185.48307
G1 X143.280 Y146.294 E185.58254
G1 X142.555 Y145.622 E185.68117
G1 X142.233 Y145.362 E185.72247
G1 X141.750 Y145.028 E185.78106
G1 X141.405 Y144.806 E185.82200
G1 X140.888 Y144.530 E185.88048
G1 X140.522 Y144.345 E185.92140
G1 X139.976 Y144.131 E185.97991
G1 X139.593 Y143.986 E186.02077
G1 X138.926 Y143.808 E186.08966
G1 X138.077 Y146.413 E186.36304
G1 X137.945 Y146.703 E186.39483
G1 X137.756 Y146.943 E186.42532
G1 X137.517 Y147.133 E186.45578
G1 X137.246 Y147.259 E186.48560
G1 X136.948 Y147.320 E186.51595
G1 X136.638 Y147.309 E186.54690
G1 X136.434 Y147.262 E186.56779
G1 X136.152 Y147.130 E186.59886
G1 X135.917 Y146.944 E186.62876
G1 X135.729 Y146.704 E186.65918
G1 X135.595 Y146.413 E186.69115
G1 X134.747 Y143.807 E186.96460
G1 X134.061 Y143.991 E187.03547
G1 X133.117 Y144.360 E187.13660
G1 X132.219 Y144.832 E187.23783
G1 X131.381 Y145.404 E187.33907
G1 X130.613 Y146.067 E187.44030
G1 X129.925 Y146.812 E187.54149
G1 X129.327 Y147.632 E187.64275
G1 X128.824 Y148.512 E187.74389
G1 X128.425 Y149.445 E187.84514
G1 X128.135 Y150.413 E187.94597
G1 X127.914 Y151.843 E188.09035
G1 X127.923 Y152.254 E188.13137
G1 X127.897 Y152.842 E188.19010
G1 X127.939 Y153.441 E188.25001
G1 X128.101 Y154.434 E188.35041
G1 X128.378 Y155.412 E188.45183
G1 X128.762 Y156.351 E188.55306
G1 X128.954 Y156.733 E188.59572
G1 X129.254 Y157.245 E188.65493
G1 X129.837 Y158.069 E188.75564
G1 X130.509 Y158.819 E188.85613
G1 X130.817 Y159.122 E188.89924
G1 X131.269 Y159.498 E188.95790
G1 X131.604 Y159.760 E189.00034
G1 X132.096 Y160.081 E189.05895
G1 X132.460 Y160.306 E189.10165
G1 X132.985 Y160.569 E189.16024
G1 X133.371 Y160.751 E189.20282
G1 X133.923 Y160.952 E189.26144
G1 X134.328 Y161.091 E189.30417
G1 X134.898 Y161.225 E189.36259
G1 X135.314 Y161.319 E189.40515
G1 X135.898 Y161.388 E189.46382
G1 X136.323 Y161.435 E189.50649
G1 X137.337 Y161.436 E189.60767
G1 X138.344 Y161.322 E189.70879
G1 X139.334 Y161.096 E189.81011
G1 X140.290 Y160.757 E189.91132
G1 X141.202 Y160.313 E190.01253
G1 X142.057 Y159.769 E190.11365
G1 X142.847 Y159.131 E190.21497
G1 X143.558 Y158.407 E190.31622
G1 X144.183 Y157.610 E190.41728
G1 X144.712 Y156.748 E190.51820
G1 X144.916 Y156.339 E190.56380
G1 X150.093 Y158.591 E191.12712
G1 X149.678 Y159.445 E191.22186
G0 F12000 X148.999 Y159.000
;TYPE:SKIN
G1 F1980 X144.110 Y159.000 E191.70969
G0 F12000 X144.591 Y158.400
G1 F1980 X147.627 Y158.400 E192.01262
G1 F2100 E191.61262
G1 Z1.200
G0 F12000 X146.247 Y157.800
G1 Z0.800
G1 F2100 E192.01262
G1 F1980 X145.015 Y157.800 E192.13555
G1 F2100 E191.73555
G1 Z1.200
G0 F12000 X143.521 Y159.600
G1 Z0.800
G1 F2100 E192.13555
G1 F1980 X148.640 Y159.600 E192.64633
G1 F2100 E192.24633
G1 Z1.200
G0 F12000 X146.689 Y147.000
G1 Z0.800
G1 F2100 E192.64633
G1 F1980 X144.879 Y147.000 E192.82693
G0 F12000 X144.440 Y146.400
G1 F1980 X148.062 Y146.400 E193.18834
G0 F12000 X148.881 Y145.800
G1 F1980 X143.923 Y145.800 E193.68305
G0 F12000 X143.291 Y145.200
G1 F1980 X148.521 Y145.200 E194.20490
G0 F12000 X148.124 Y144.600
G1 F1980 X142.555 Y144.600 E194.76058
G0 F12000 X141.617 Y144.000
G1 F1980 X147.690 Y144.000 E195.36654
G0 F12000 X147.179 Y143.400
G1 F1980 X140.332 Y143.400 E196.04974
G1 F2100 E195.64974
G1 Z1.200
G0 F12000 X143.424 Y140.400
G1 Z0.800
G1 F2100 E196.04974
G1 F1980 X130.237 Y140.400 E197.36554
G0 F12000 X129.235 Y141.000
G1 F1980 X144.424 Y141.000 E198.88111
G0 F12000 X145.266 Y141.600
G1 F1980 X128.393 Y141.600 E200.56470
G0 F12000 X127.683 Y142.200
G1 F1980 X146.003 Y142.200 E202.39268
G0 F12000 X146.621 Y142.800
G1 F1980 X127.052 Y142.800 E204.34528
G0 F12000 X126.487 Y143.400
G1 F1980 X133.345 Y143.400 E205.02958
G0 F12000 X132.059 Y144.000
G1 F1980 X125.989 Y144.000 E205.63524
G0 F12000 X125.551 Y144.600
G1 F1980 X131.119 Y144.600 E206.19082
G0 F12000 X130.376 Y145.200
G1 F1980 X125.141 Y145.200 E206.71317
G0 F12000 X124.797 Y145.800
G1 F1980 X129.755 Y145.800 E207.20788
G0 F12000 X129.222 Y146.400
G1 F1980 X124.478 Y146.400 E207.68124
G0 F12000 X124.202 Y147.000
G1 F1980 X128.783 Y147.000 E208.13833
G0 F12000 X128.410 Y147.600
G1 F1980 X123.959 Y147.600 E208.58246
G0 F12000 X123.742 Y148.200
G1 F1980 X128.075 Y148.200 E209.01481
G0 F12000 X127.818 Y148.800
G1 F1980 X123.565 Y148.800 E209.43917
G0 F12000 X123.406 Y149.400
G1 F1980 X127.591 Y149.400 E209.85675
G0 F12000 X127.411 Y150.000
G1 F1980 X123.289 Y150.000 E210.26805
G0 F12000 X123.185 Y150.600
G1 F1980 X127.268 Y150.600 E210.67545
G0 F12000 X127.181 Y151.200
G1 F1980 X123.121 Y151.200 E211.08056
G0 F12000 X123.068 Y151.800
G1 F1980 X127.103 Y151.800 E211.48317
G0 F12000 X127.104 Y152.400
G1 F1980 X123.058 Y152.400 E211.88689
G0 F12000 X123.059 Y153.000
G1 F1980 X127.096 Y153.000 E212.28970
G0 F12000 X127.144 Y153.600
G1 F1980 X123.102 Y153.600 E212.69301
G0 F12000 X123.155 Y154.200
G1 F1980 X127.242 Y154.200 E213.10081
G0 F12000 X127.364 Y154.800
G1 F1980 X123.252 Y154.800 E213.51111
G0 F12000 X123.358 Y155.400
G1 F1980 X127.533 Y155.400 E213.92769
G0 F12000 X127.744 Y156.000
G1 F1980 X123.512 Y156.000 E214.34996
G0 F12000 X123.672 Y156.600
G1 F1980 X127.989 Y156.600 E214.78072
G0 F12000 X128.290 Y157.200
G1 F1980 X123.887 Y157.200 E215.22005
G0 F12000 X124.109 Y157.800
G1 F1980 X128.654 Y157.800 E215.67355
G0 F12000 X129.078 Y158.400
G1 F1980 X124.387 Y158.400 E216.14162
G0 F12000 X124.683 Y159.000
G1 F1980 X129.584 Y159.000 E216.63065
G0 F12000 X130.148 Y159.600
G1 F1980 X125.028 Y159.600 E217.14152
G1 F2100 E216.74152
G1 Z1.200
G0 F12000 X136.537 Y146.400
G1 Z0.800
G1 F2100 E217.14152
G1 F1980 X137.279 Y146.100 E217.20128
G1 X136.246 Y145.800 E217.30861
G0 F12000 X136.051 Y145.200
G1 F1980 X137.618 Y145.200 E217.46497
G0 F12000 X137.814 Y144.600
G1 F1980 X135.855 Y144.600 E217.66044
G0 F12000 X135.660 Y144.000
G1 F1980 X138.010 Y144.000 E217.89492
G0 F12000 X138.205 Y143.400
G1 F1980 X135.465 Y143.400 E218.16832
G1 F2100 E217.76832
G1 Z1.200
G0 F12000 X133.242 Y139.200
G1 Z0.800
G1 F2100 E218.16832
G1 F1980 X140.432 Y139.200 E218.88574
G1 F2100 E218.48574
G1 Z1.200
G0 F12000 X142.182 Y139.800
G1 Z0.800
G1 F2100 E218.88574
G1 F1980 X131.466 Y139.800 E219.95499
G1 F2100 E219.55499
G1 Z1.200
G0 F12000 X130.854 Y160.200
G1 Z0.800
G1 F2100 E219.95499
G1 F1980 X125.411 Y160.200 E220.49809
G0 F12000 X125.827 Y160.800
G1 F1980 X131.719 Y160.800 E221.08600
G0 F12000 X132.847 Y161.400
G1 F1980 X126.320 Y161.400 E221.73727
G0 F12000 X126.856 Y162.000
G1 F1980 X134.671 Y162.000 E222.51705
G1 F2100 E222.11705
G1 Z1.200
G0 F12000 X132.543 Y165.600
G1 Z0.800
G1 F2100 E222.51705
G1 F1980 X141.101 Y165.600 E223.37097
G1 F2100 E222.97097
G1 Z1.200
G0 F12000 X142.621 Y165.000
G1 Z0.800
G1 F2100 E223.37097
G1 F1980 X131.044 Y165.000 E224.52613
G0 F12000 X129.897 Y164.400
G1 F1980 X143.776 Y164.400 E225.91098
G0 F12000 X144.714 Y163.800
G1 F1980 X128.959 Y163.800 E227.48302
G0 F12000 X128.157 Y163.200
G1 F1980 X145.510 Y163.200 E229.21451
G0 F12000 X146.207 Y162.600
G1 F1980 X127.449 Y162.600 E231.08619
G1 F2100 E230.68619
G1 Z1.200
G0 F12000 X135.392 Y166.200
G1 Z0.800
G1 F2100 E231.08619
G1 F1980 X138.306 Y166.200 E231.37695
G1 F2100 E230.97695
G1 Z1.200
G0 F12000 X139.009 Y162.000
G1 Z0.800
G1 F2100 E231.37695
G1 F1980 X146.825 Y162.000 E232.15684
G0 F12000 X147.351 Y161.400
G1 F1980 X140.816 Y161.400 E232.80890
G0 F12000 X141.944 Y160.800
G1 F1980 X147.833 Y160.800 E233.39651
G0 F12000 X148.266 Y160.200
G1 F1980 X142.811 Y160.200 E233.94081
G1 F2100 E233.54081
G1 Z1.200
G0 F12000 X156.045 Y156.697
;TYPE:WALL-INNER
G1 Z0.800
G1 F2100 E233.94081
G1 F1980 X155.730 Y155.516 E234.06277
G1 X155.522 Y154.339 E234.18203
G1 X155.415 Y153.114 E234.30473
G1 X155.413 Y151.895 E234.42636
G1 X155.517 Y150.700 E234.54605
G1 X155.726 Y149.500 E234.66759
G1 X156.035 Y148.336 E234.78776
G1 X156.452 Y147.180 E234.91038
G1 X156.959 Y146.082 E235.03105
G1 X157.553 Y145.043 E235.15047
G1 X158.250 Y144.036 E235.27267
G1 X159.028 Y143.098 E235.39427
G1 X159.878 Y142.238 E235.51492
G1 X160.807 Y141.449 E235.63654
G1 X161.791 Y140.749 E235.75703
G1 X162.836 Y140.136 E235.87791
G1 X163.940 Y139.610 E235.99994
G1 X165.072 Y139.187 E236.12052
G1 X166.237 Y138.864 E236.24115
G1 X167.435 Y138.640 E236.36275
G1 X168.644 Y138.523 E236.48395
G1 X169.862 Y138.508 E236.60549
G1 X171.063 Y138.600 E236.72568
G1 X172.262 Y138.796 E236.84691
G1 X173.435 Y139.096 E236.96772
G1 X174.588 Y139.499 E237.08959
G1 X175.696 Y139.997 E237.21080
G1 X176.752 Y140.587 E237.33150
G1 X177.752 Y141.267 E237.45216
G1 X178.695 Y142.033 E237.57338
G1 X179.579 Y142.891 E237.69631
G1 X180.365 Y143.797 E237.81599
G1 X181.076 Y144.778 E237.93688
G1 X181.701 Y145.819 E238.05803
G1 X181.839 Y146.101 E238.08936
G1 X177.746 Y147.889 E238.53503
G1 X177.573 Y147.561 E238.57203
G1 X176.970 Y146.682 E238.67839
G1 X176.276 Y145.877 E238.78444
G1 X175.511 Y145.168 E238.88851
G1 X175.155 Y144.881 E238.93414
G1 X174.646 Y144.530 E238.99583
G1 X174.274 Y144.289 E239.04006
G1 X173.728 Y143.997 E239.10184
G1 X173.331 Y143.797 E239.14620
G1 X172.755 Y143.571 E239.20794
G1 X172.340 Y143.414 E239.25221
G1 X171.094 Y143.081 E239.38090
G1 X170.080 Y146.199 E239.70805
G1 X169.993 Y146.388 E239.72881
G1 X169.891 Y146.518 E239.74530
G1 X169.765 Y146.618 E239.76135
G1 X169.621 Y146.685 E239.77720
G1 X169.458 Y146.718 E239.79380
G1 X169.287 Y146.712 E239.81087
G1 X169.191 Y146.690 E239.82070
G1 X169.035 Y146.617 E239.83788
G1 X168.908 Y146.516 E239.85407
G1 X168.807 Y146.388 E239.87034
G1 X168.718 Y146.195 E239.89155
G1 X167.705 Y143.080 E240.21839
G1 X166.437 Y143.421 E240.34940
G1 X165.431 Y143.813 E240.45713
G1 X164.472 Y144.317 E240.56523
G1 X163.578 Y144.927 E240.67322
G1 X162.758 Y145.635 E240.78132
G1 X162.025 Y146.431 E240.88929
G1 X161.385 Y147.305 E240.99738
G1 X160.850 Y148.244 E241.10522
G1 X160.423 Y149.239 E241.21325
G1 X160.115 Y150.266 E241.32024
G1 X160.015 Y150.756 E241.37014
G1 X159.977 Y151.181 E241.41271
G1 X159.877 Y151.796 E241.47488
G1 X159.886 Y152.260 E241.52119
G1 X159.859 Y152.849 E241.58002
G1 X159.905 Y153.510 E241.64614
G1 X160.076 Y154.555 E241.75179
G1 X160.373 Y155.604 E241.86058
G1 X160.532 Y156.038 E241.90670
G1 X160.789 Y156.622 E241.97036
G1 X161.297 Y157.544 E242.07540
G1 X161.554 Y157.942 E242.12267
G1 X161.928 Y158.438 E242.18466
G1 X162.220 Y158.795 E242.23068
G1 X162.648 Y159.244 E242.29257
G1 X162.977 Y159.567 E242.33857
G1 X163.455 Y159.965 E242.40064
G1 X163.819 Y160.249 E242.44670
G1 X164.338 Y160.587 E242.50850
G1 X164.730 Y160.830 E242.55452
G1 X165.286 Y161.109 E242.61660
G1 X165.703 Y161.306 E242.66261
G1 X166.286 Y161.518 E242.72451
G1 X166.724 Y161.668 E242.77071
G1 X167.326 Y161.810 E242.83242
G1 X167.777 Y161.911 E242.87854
G1 X168.394 Y161.984 E242.94053
G1 X168.853 Y162.035 E242.98661
G1 X169.933 Y162.036 E243.09438
G1 X171.010 Y161.915 E243.20252
G1 X172.065 Y161.673 E243.31052
G1 X173.085 Y161.312 E243.41848
G1 X174.059 Y160.838 E243.52656
G1 X174.971 Y160.257 E243.63446
G1 X175.814 Y159.576 E243.74259
G1 X176.572 Y158.804 E243.85055
G1 X177.239 Y157.953 E243.95844
G1 X177.755 Y157.113 E244.05680
G1 X181.844 Y158.891 E244.50171
G1 X181.715 Y159.156 E244.53111
G1 X181.097 Y160.190 E244.65131
G1 X180.377 Y161.187 E244.77402
G1 X179.592 Y162.096 E244.89386
G1 X178.714 Y162.949 E245.01601
G1 X177.776 Y163.716 E245.13691
G1 X176.781 Y164.395 E245.25710
G1 X175.719 Y164.989 E245.37852
G1 X174.612 Y165.491 E245.49980
G1 X173.468 Y165.893 E245.62079
G1 X172.290 Y166.195 E245.74213
G1 X171.089 Y166.395 E245.86362
G1 X169.863 Y166.491 E245.98633
G1 X168.651 Y166.479 E246.10727
G1 X167.463 Y166.365 E246.22635
G1 X166.276 Y166.145 E246.34681
G1 X165.094 Y165.819 E246.46915
G1 X163.954 Y165.396 E246.59048
G1 X162.868 Y164.882 E246.71036
G1 X161.821 Y164.269 E246.83142
G1 X160.826 Y163.565 E246.95304
G1 X159.878 Y162.762 E247.07701
G1 X159.031 Y161.905 E247.19724
G1 X158.266 Y160.986 E247.31655
G1 X157.576 Y159.994 E247.43712
G1 X156.967 Y158.932 E247.55927
G1 X156.462 Y157.845 E247.67887
G1 X156.045 Y156.697 E247.80074
G0 F12000 X155.471 Y156.875
;TYPE:WALL-OUTER
G1 F1980 X155.144 Y155.649 E247.92734
G1 X154.926 Y154.414 E248.05248
G1 X154.815 Y153.145 E248.17958
G1 X154.813 Y151.880 E248.30581
G1 X154.813 Y151.867 E248.30710
G1 X154.920 Y150.626 E248.43139
G1 X155.140 Y149.369 E248.55872
G1 X155.463 Y148.150 E248.68455
G1 X155.893 Y146.959 E248.81090
G1 X156.423 Y145.810 E248.93715
G1 X157.044 Y144.723 E249.06207
G1 X157.773 Y143.671 E249.18978
G1 X158.585 Y142.693 E249.31661
G1 X159.468 Y141.800 E249.44192
G1 X160.438 Y140.975 E249.56898
G1 X161.460 Y140.248 E249.69412
G1 X162.560 Y139.603 E249.82136
G1 X163.702 Y139.059 E249.94758
G1 X164.887 Y138.616 E250.07381
G1 X166.103 Y138.278 E250.19974
G1 X167.347 Y138.046 E250.32601
G1 X168.614 Y137.923 E250.45303
G1 X169.877 Y137.908 E250.57906
G1 X171.137 Y138.004 E250.70514
G1 X172.384 Y138.209 E250.83124
G1 X173.617 Y138.524 E250.95822
G1 X174.802 Y138.938 E251.08347
G1 X175.966 Y139.462 E251.21084
G1 X177.066 Y140.074 E251.33644
G1 X178.115 Y140.789 E251.46311
G1 X179.097 Y141.587 E251.58937
G1 X180.006 Y142.468 E251.71568
G1 X180.838 Y143.428 E251.84244
G1 X181.580 Y144.452 E251.96862
G1 X182.223 Y145.522 E252.09318
G1 X182.652 Y146.401 E252.19077
G1 X177.475 Y148.662 E252.75445
G1 X177.058 Y147.872 E252.84359
G1 X176.494 Y147.049 E252.94314
G1 X175.843 Y146.294 E253.04261
G1 X175.118 Y145.622 E253.14125
G1 X174.313 Y145.029 E253.24101
G1 X173.451 Y144.530 E253.34039
G1 X173.086 Y144.345 E253.38122
G1 X172.540 Y144.131 E253.43974
G1 X172.156 Y143.986 E253.48070
G1 X171.489 Y143.808 E253.54958
G1 X170.643 Y146.409 E253.82249
G1 X170.507 Y146.704 E253.85490
G1 X170.319 Y146.943 E253.88524
G1 X170.080 Y147.133 E253.91571
G1 X169.810 Y147.259 E253.94544
G1 X169.511 Y147.320 E253.97589
G1 X169.202 Y147.309 E254.00674
G1 X168.997 Y147.261 E254.02775
G1 X168.715 Y147.130 E254.05877
G1 X168.480 Y146.944 E254.08868
G1 X168.292 Y146.704 E254.11910
G1 X168.158 Y146.413 E254.15107
G1 X167.310 Y143.807 E254.42451
G1 X166.624 Y143.992 E254.49541
G1 X165.680 Y144.360 E254.59650
G1 X164.782 Y144.832 E254.69773
G1 X163.944 Y145.404 E254.79897
G1 X163.176 Y146.067 E254.90021
G1 X162.489 Y146.812 E255.00132
G1 X161.890 Y147.632 E255.10265
G1 X161.388 Y148.512 E255.20374
G1 X160.988 Y149.444 E255.30494
G1 X160.698 Y150.413 E255.40586
G1 X160.610 Y150.843 E255.44966
G1 X160.478 Y151.839 E255.54991
G1 X160.486 Y152.254 E255.59132
G1 X160.460 Y152.842 E255.65005
G1 X160.502 Y153.441 E255.70997
G1 X160.664 Y154.434 E255.81036
G1 X160.942 Y155.412 E255.91181
G1 X161.089 Y155.813 E255.95442
G1 X161.328 Y156.356 E256.01362
G1 X161.812 Y157.236 E256.11383
G1 X162.046 Y157.598 E256.15684
G1 X162.400 Y158.067 E256.21547
G1 X162.670 Y158.398 E256.25809
G1 X163.075 Y158.823 E256.31667
G1 X163.380 Y159.122 E256.35929
G1 X163.832 Y159.498 E256.41796
G1 X164.168 Y159.760 E256.46047
G1 X164.660 Y160.081 E256.51909
G1 X165.023 Y160.306 E256.56170
G1 X165.548 Y160.569 E256.62029
G1 X165.934 Y160.751 E256.66287
G1 X166.486 Y160.952 E256.72149
G1 X166.891 Y161.091 E256.76421
G1 X167.461 Y161.225 E256.82264
G1 X167.878 Y161.319 E256.86529
G1 X168.462 Y161.388 E256.92397
G1 X168.886 Y161.435 E256.96653
G1 X169.900 Y161.436 E257.06771
G1 X170.909 Y161.322 E257.16903
G1 X171.897 Y161.096 E257.27016
G1 X172.853 Y160.757 E257.37137
G1 X173.766 Y160.313 E257.47267
G1 X174.620 Y159.769 E257.57370
G1 X175.410 Y159.131 E257.67503
G1 X176.121 Y158.407 E257.77628
G1 X176.746 Y157.610 E257.87734
G1 X177.275 Y156.748 E257.97825
G1 X177.479 Y156.339 E258.02386
G1 X182.657 Y158.591 E258.58727
G1 X182.241 Y159.445 E258.68206
G1 X181.597 Y160.523 E258.80735
G1 X180.852 Y161.555 E258.93435
G1 X180.027 Y162.510 E259.06028
G1 X179.119 Y163.394 E259.18672
G1 X178.140 Y164.193 E259.31281
G1 X177.096 Y164.906 E259.43896
G1 X175.982 Y165.529 E259.56631
G1 X174.838 Y166.047 E259.69162
G1 X173.645 Y166.467 E259.81782
G1 X172.409 Y166.784 E259.94514
G1 X171.166 Y166.991 E260.07087
G1 X169.893 Y167.090 E260.19828
G1 X169.882 Y167.091 E260.19938
G1 X168.633 Y167.079 E260.32401
G1 X167.376 Y166.959 E260.45001
G1 X166.133 Y166.729 E260.57614
G1 X164.911 Y166.392 E260.70262
G1 X163.728 Y165.953 E260.82853
G1 X162.585 Y165.411 E260.95475
G1 X161.493 Y164.772 E261.08099
G1 X160.460 Y164.041 E261.20726
G1 X159.483 Y163.214 E261.33499
G1 X158.592 Y162.315 E261.46128
G1 X157.782 Y161.342 E261.58761
G1 X157.066 Y160.313 E261.71269
G1 X156.437 Y159.216 E261.83887
G1 X155.907 Y158.072 E261.96467
G1 X155.471 Y156.875 E262.09178
G0 F12000 X156.235 Y156.600
;TYPE:SKIN
G1 F1980 X160.550 Y156.600 E262.52234
G0 F12000 X160.294 Y156.000
G1 F1980 X156.075 Y156.000 E262.94331
G0 F12000 X155.921 Y155.400
G1 F1980 X160.097 Y155.400 E263.35999
G1 F2100 E262.95999
G1 Z1.200
G0 F12000 X160.868 Y157.200
G1 Z0.800
G1 F2100 E263.35999
G1 F1980 X156.450 Y157.200 E263.80082
G0 F12000 X156.672 Y157.800
G1 F1980 X161.213 Y157.800 E264.25392
G0 F12000 X161.637 Y158.400
G1 F1980 X156.950 Y158.400 E264.72160
G0 F12000 X157.247 Y159.000
G1 F1980 X162.125 Y159.000 E265.20832
G0 F12000 X162.711 Y159.600
G1 F1980 X157.591 Y159.600 E265.71920
G1 F2100 E265.31920
G1 Z1.200
G0 F12000 X155.815 Y154.800
G1 Z0.800
G1 F2100 E265.71920
G1 F1980 X159.927 Y154.800 E266.12950
G0 F12000 X159.805 Y154.200
G1 F1980 X155.719 Y154.200 E266.53720
G0 F12000 X155.667 Y153.600
G1 F1980 X159.707 Y153.600 E266.94031
G0 F12000 X159.659 Y153.000
G1 F1980 X155.623 Y153.000 E267.34303
G0 F12000 X155.622 Y152.400
G1 F1980 X159.668 Y152.400 E267.74674
G0 F12000 X159.667 Y151.800
G1 F1980 X155.632 Y151.800 E268.14935
G0 F12000 X155.684 Y151.200
G1 F1980 X159.760 Y151.200 E268.55606
G0 F12000 X159.831 Y150.600
G1 F1980 X155.748 Y150.600 E268.96346
G0 F12000 X155.852 Y150.000
G1 F1980 X159.974 Y150.000 E269.37475
G0 F12000 X160.154 Y149.400
G1 F1980 X155.969 Y149.400 E269.79234
G0 F12000 X156.128 Y148.800
G1 F1980 X160.381 Y148.800 E270.21670
G0 F12000 X160.639 Y148.200
G1 F1980 X156.306 Y148.200 E270.64905
G0 F12000 X156.523 Y147.600
G1 F1980 X160.973 Y147.600 E271.09307
G0 F12000 X161.346 Y147.000
G1 F1980 X156.765 Y147.000 E271.55017
G0 F12000 X157.042 Y146.400
G1 F1980 X161.785 Y146.400 E272.02343
G0 F12000 X162.318 Y145.800
G1 F1980 X157.360 Y145.800 E272.51814
G0 F12000 X157.703 Y145.200
G1 F1980 X162.939 Y145.200 E273.04059
G0 F12000 X163.682 Y144.600
G1 F1980 X158.114 Y144.600 E273.59616
G0 F12000 X158.552 Y144.000
G1 F1980 X164.620 Y144.000 E274.20163
G0 F12000 X165.910 Y143.400
G1 F1980 X159.050 Y143.400 E274.88613
G0 F12000 X159.617 Y142.800
G1 F1980 X179.184 Y142.800 E276.83853
G0 F12000 X179.742 Y143.400
G1 F1980 X172.895 Y143.400 E277.52172
G0 F12000 X174.181 Y144.000
G1 F1980 X180.253 Y144.000 E278.12759
G0 F12000 X180.688 Y144.600
G1 F1980 X175.118 Y144.600 E278.68337
G0 F12000 X175.854 Y145.200
G1 F1980 X181.085 Y145.200 E279.20532
G0 F12000 X181.445 Y145.800
G1 F1980 X176.486 Y145.800 E279.70013
G0 F12000 X177.003 Y146.400
G1 F1980 X180.626 Y146.400 E280.06164
G1 F2100 E279.66164
G1 Z1.200
G0 F12000 X180.191 Y158.400
G1 Z0.800
G1 F2100 E280.06164
G1 F1980 X177.154 Y158.400 E280.36467
G0 F12000 X177.579 Y157.800
G1 F1980 X178.811 Y157.800 E280.48760
G1 F2100 E280.08760
G1 Z1.200
G0 F12000 X176.673 Y159.000
G1 Z0.800
G1 F2100 E280.48760
G1 F1980 X181.561 Y159.000 E280.97532
G0 F12000 X181.202 Y159.600
G1 F1980 X176.084 Y159.600 E281.48600
G1 F2100 E281.08600
G1 Z1.200
G0 F12000 X177.442 Y147.000
G1 Z0.800
G1 F2100 E281.48600
G1 F1980 X179.253 Y147.000 E281.66670
G1 F2100 E281.26670
G1 Z1.200
G0 F12000 X178.566 Y142.200
G1 Z0.800
G1 F2100 E281.66670
G1 F1980 X160.247 Y142.200 E283.49458
G0 F12000 X160.955 Y141.600
G1 F1980 X177.829 Y141.600 E285.17827
G0 F12000 X176.987 Y141.000
G1 F1980 X161.797 Y141.000 E286.69394
G0 F12000 X162.800 Y140.400
G1 F1980 X175.987 Y140.400 E288.00974
G1 F2100 E287.60974
G1 Z1.200
G0 F12000 X170.769 Y143.400
G1 Z0.800
G1 F2100 E288.00974
G1 F1980 X168.028 Y143.400 E288.28324
G0 F12000 X168.223 Y144.000
G1 F1980 X170.573 Y144.000 E288.51773
G0 F12000 X170.378 Y144.600
G1 F1980 X168.418 Y144.600 E288.71329
G0 F12000 X168.613 Y145.200
G1 F1980 X170.183 Y145.200 E288.86995
G0 F12000 X169.988 Y145.800
G1 F1980 X168.954 Y146.100 E288.98758
G1 X169.700 Y146.400 E289.06781
G1 F2100 E288.66781
G1 Z1.200
G0 F12000 X172.995 Y139.200
G1 Z0.800
G1 F2100 E289.06781
G1 F1980 X165.805 Y139.200 E289.78523
G1 F2100 E289.38523
G1 Z1.200
G0 F12000 X164.029 Y139.800
G1 Z0.800
G1 F2100 E289.78523
G1 F1980 X174.745 Y139.800 E290.85448
G1 F2100 E290.45448
G1 Z1.200
G0 F12000 X175.374 Y160.200
G1 Z0.800
G1 F2100 E290.85448
G1 F1980 X180.828 Y160.200 E291.39868
G0 F12000 X180.395 Y160.800
G1 F1980 X174.507 Y160.800 E291.98619
G0 F12000 X173.381 Y161.400
G1 F1980 X179.914 Y161.400 E292.63806
G0 F12000 X179.388 Y162.000
G1 F1980 X171.573 Y162.000 E293.41784
G1 F2100 E293.01784
G1 Z1.200
G0 F12000 X173.664 Y165.600
G1 Z0.800
G1 F2100 E293.41784
G1 F1980 X165.106 Y165.600 E294.27176
G1 F2100 E293.87176
G1 Z1.200
G0 F12000 X163.607 Y165.000
G1 Z0.800
G1 F2100 E294.27176
G1 F1980 X175.184 Y165.000 E295.42692
G0 F12000 X176.339 Y164.400
G1 F1980 X162.460 Y164.400 E296.81177
G0 F12000 X161.522 Y163.800
G1 F1980 X177.277 Y163.800 E298.38381
G0 F12000 X178.073 Y163.200
G1 F1980 X160.720 Y163.200 E300.11530
G0 F12000 X160.013 Y162.600
G1 F1980 X178.770 Y162.600 E301.98688
G1 F2100 E301.58688
G1 Z1.200
G0 F12000 X170.870 Y166.200
G1 Z0.800
G1 F2100 E301.98688
G1 F1980 X167.956 Y166.200 E302.27764
G1 F2100 E301.87764
G1 Z1.200
G0 F12000 X167.234 Y162.000
G1 Z0.800
G1 F2100 E302.27764
G1 F1980 X159.419 Y162.000 E303.05742
G0 F12000 X158.883 Y161.400
G1 F1980 X165.410 Y161.400 E303.70869
G0 F12000 X164.283 Y160.800
G1 F1980 X158.390 Y160.800 E304.29670
G0 F12000 X157.974 Y160.200
G1 F1980 X163.416 Y160.200 E304.83970
;LAYER:2
M106 S40
G1 F2100 E304.43970
G1 Z1.200
G0 F12000 X149.280 Y158.892 Z1.200
;TYPE:WALL-INNER
G1 Z1.200
G1 F2100 E304.83970
G1 F2220 X148.530 Y160.194 E304.98963
G1 X147.826 Y161.171 E305.10979
G1 X147.032 Y162.092 E305.23112
G1 X146.165 Y162.937 E305.35192
G1 X145.229 Y163.703 E305.47260
G1 X144.226 Y164.388 E305.59380
G1 X143.165 Y164.984 E305.71522
G1 X142.059 Y165.486 E305.83642
G1 X140.913 Y165.890 E305.95766
G1 X139.739 Y166.193 E306.07864
G1 X138.537 Y166.393 E306.20023
G1 X137.309 Y166.491 E306.32315
G1 X136.090 Y166.479 E306.44479
G1 X134.908 Y166.365 E306.56327
G1 X133.695 Y166.142 E306.68634
G1 X132.553 Y165.827 E306.80454
G1 X131.412 Y165.404 E306.92596
G1 X130.300 Y164.878 E307.04870
G1 X129.271 Y164.278 E307.16756
G1 X128.267 Y163.568 E307.29026
G1 X127.346 Y162.791 E307.41049
G1 X126.490 Y161.928 E307.53177
G1 X125.709 Y160.992 E307.65341
G1 X125.017 Y160.000 E307.77410
G1 X124.412 Y158.948 E307.89519
G1 X123.899 Y157.845 E308.01657
G1 X123.484 Y156.703 E308.13781
G1 X123.170 Y155.535 E308.25849
G1 X122.958 Y154.335 E308.38008
G1 X122.852 Y153.135 E308.50028
G1 X122.849 Y151.921 E308.62141
G1 X122.953 Y150.707 E308.74299
G1 X123.165 Y149.485 E308.86674
G1 X123.472 Y148.334 E308.98561
G1 X123.881 Y147.195 E309.10636
G1 X124.391 Y146.090 E309.22780
G1 X124.988 Y145.045 E309.34788
G1 X125.678 Y144.047 E309.46895
G1 X126.460 Y143.105 E309.59111
G1 X127.308 Y142.244 E309.71169
G1 X128.237 Y141.455 E309.83330
G1 X129.221 Y140.754 E309.95386
G1 X130.266 Y140.140 E310.07479
G1 X131.366 Y139.616 E310.19637
G1 X132.504 Y139.190 E310.31761
G1 X133.670 Y138.865 E310.43839
G1 X134.862 Y138.642 E310.55939
G1 X136.075 Y138.523 E310.68101
G1 X137.292 Y138.508 E310.80245
G1 X138.493 Y138.600 E310.92264
G1 X139.693 Y138.796 E311.04396
G1 X140.867 Y139.095 E311.16484
G1 X142.015 Y139.495 E311.28615
G1 X143.127 Y139.995 E311.40780
G1 X144.175 Y140.579 E311.52751
G1 X145.192 Y141.270 E311.65020
G1 X146.133 Y142.034 E311.77114
G1 X146.996 Y142.870 E311.89103
G1 X147.798 Y143.792 E312.01296
G1 X148.511 Y144.777 E312.13429
G1 X149.136 Y145.814 E312.25510
G1 X149.279 Y146.109 E312.28781
G1 X145.024 Y147.958 E312.75073
G1 X144.815 Y148.050 E312.77352
G1 X144.570 Y147.607 E312.82403
G1 X143.954 Y146.748 E312.92950
G1 X143.245 Y145.967 E313.03475
G1 X142.450 Y145.273 E313.14005
G1 X141.580 Y144.675 E313.24539
G1 X140.648 Y144.181 E313.35064
G1 X138.825 Y143.469 E313.54592
G1 X137.898 Y146.320 E313.84505
G1 X137.773 Y146.594 E313.87511
G1 X137.620 Y146.792 E313.90007
G1 X137.429 Y146.948 E313.92468
G1 X137.206 Y147.058 E313.94949
G1 X136.960 Y147.115 E313.97469
G1 X136.712 Y147.115 E313.99943
G1 X136.469 Y147.059 E314.02431
G1 X136.243 Y146.948 E314.04944
G1 X136.053 Y146.792 E314.07397
G1 X135.899 Y146.593 E314.09908
G1 X135.774 Y146.320 E314.12904
G1 X134.848 Y143.469 E314.42814
G1 X133.024 Y144.181 E314.62351
G1 X132.093 Y144.675 E314.72867
G1 X131.223 Y145.273 E314.83401
G1 X130.428 Y145.967 E314.93931
G1 X129.718 Y146.748 E315.04463
G1 X129.103 Y147.607 E315.15004
G1 X128.591 Y148.530 E315.25536
G1 X128.189 Y149.506 E315.36068
G1 X127.902 Y150.521 E315.46593
G1 X127.733 Y151.563 E315.57126
G1 X127.686 Y152.616 E315.67643
G1 X127.760 Y153.669 E315.78176
G1 X127.955 Y154.707 E315.88715
G1 X128.268 Y155.715 E315.99246
G1 X128.696 Y156.680 E316.09780
G1 X129.231 Y157.589 E316.20304
G1 X129.868 Y158.431 E316.30839
G1 X130.597 Y159.194 E316.41368
G1 X131.409 Y159.869 E316.51905
G1 X132.295 Y160.445 E316.62449
G1 X133.240 Y160.915 E316.72980
G1 X134.233 Y161.273 E316.83513
G1 X135.260 Y161.514 E316.94038
G1 X136.309 Y161.636 E317.04576
G1 X137.364 Y161.636 E317.15103
G1 X138.412 Y161.514 E317.25630
G1 X139.440 Y161.273 E317.36166
G1 X140.433 Y160.915 E317.46698
G1 X141.379 Y160.445 E317.57238
G1 X142.263 Y159.869 E317.67766
G1 X143.076 Y159.194 E317.78310
G1 X143.805 Y158.431 E317.88839
G1 X144.441 Y157.589 E317.99368
G1 X144.817 Y156.951 E318.06758
G1 X149.280 Y158.892 E318.55319
G0 F12000 X149.689 Y159.424
;TYPE:WALL-OUTER
G1 F2220 X149.031 Y160.526 E318.68126
G1 X148.301 Y161.539 E318.80585
G1 X147.470 Y162.502 E318.93276
G1 X146.564 Y163.385 E319.05900
G1 X145.587 Y164.185 E319.18500
G1 X144.543 Y164.899 E319.31120
G1 X143.430 Y165.523 E319.43852
G1 X142.286 Y166.042 E319.56386
G1 X141.093 Y166.463 E319.69010
G1 X139.858 Y166.781 E319.81734
G1 X138.615 Y166.989 E319.94310
G1 X137.353 Y167.089 E320.06941
G1 X137.307 Y167.091 E320.07401
G1 X136.084 Y167.079 E320.19604
G1 X134.822 Y166.960 E320.32253
G1 X133.577 Y166.730 E320.44885
G1 X132.360 Y166.396 E320.57478
G1 X131.176 Y165.957 E320.70078
G1 X130.032 Y165.416 E320.82705
G1 X128.939 Y164.778 E320.95333
G1 X127.899 Y164.044 E321.08034
G1 X126.939 Y163.233 E321.20574
G1 X126.043 Y162.330 E321.33267
G1 X125.237 Y161.365 E321.45812
G1 X124.510 Y160.321 E321.58506
G1 X123.879 Y159.224 E321.71134
G1 X123.343 Y158.073 E321.83803
G1 X122.914 Y156.891 E321.96349
G1 X122.581 Y155.651 E322.09161
G1 X122.364 Y154.424 E322.21594
G1 X122.252 Y153.155 E322.34305
G1 X122.249 Y151.894 E322.46887
G1 X122.357 Y150.633 E322.59516
G1 X122.574 Y149.381 E322.72194
G1 X122.584 Y149.333 E322.72684
G1 X122.898 Y148.155 E322.84848
G1 X123.324 Y146.971 E322.97404
G1 X123.855 Y145.818 E323.10070
G1 X124.476 Y144.731 E323.22561
G1 X125.204 Y143.678 E323.35334
G1 X126.011 Y142.706 E323.47940
G1 X126.904 Y141.800 E323.60633
G1 X127.869 Y140.981 E323.73263
G1 X128.890 Y140.253 E323.85775
G1 X129.990 Y139.607 E323.98503
G1 X131.132 Y139.063 E324.11125
G1 X132.314 Y138.620 E324.23720
G1 X133.536 Y138.279 E324.36379
G1 X134.775 Y138.048 E324.48955
G1 X136.044 Y137.924 E324.61677
G1 X137.307 Y137.908 E324.74281
G1 X138.567 Y138.004 E324.86889
G1 X139.812 Y138.207 E324.99476
G1 X141.047 Y138.522 E325.12194
G1 X142.232 Y138.935 E325.24715
G1 X143.397 Y139.459 E325.37461
G1 X144.497 Y140.072 E325.50026
G1 X145.547 Y140.785 E325.62690
G1 X146.529 Y141.583 E325.75316
G1 X147.437 Y142.463 E325.87933
G1 X148.266 Y143.416 E326.00536
G1 X149.010 Y144.442 E326.13182
G1 X149.663 Y145.528 E326.25827
G1 X150.093 Y146.409 E326.35608
G1 X145.264 Y148.508 E326.88147
G1 X144.709 Y148.751 E326.94193
G1 X145.124 Y149.858 E327.05989
G1 X145.353 Y150.725 E327.14937
G1 X145.488 Y151.597 E327.23741
G1 X145.535 Y152.500 E327.32764
G1 X145.489 Y153.401 E327.41765
G1 X145.362 Y154.225 E327.50084
G1 X145.133 Y155.115 E327.59254
G1 X144.823 Y155.949 E327.68132
G1 X144.699 Y156.245 E327.71334
G1 X150.093 Y158.591 E328.30026
G1 X149.689 Y159.424 E328.39264
G1 F2100 E327.99264
G1 Z1.600
G0 F12000 X144.442 Y156.405
G1 Z1.200
G1 F2100 E328.39264
G1 F2220 X144.841 Y155.504 E328.49096
G1 X145.135 Y154.563 E328.58933
G1 X145.317 Y153.592 E328.68790
G1 X145.386 Y152.609 E328.78623
G1 X145.342 Y151.625 E328.88451
G1 X145.184 Y150.651 E328.98297
G1 X144.916 Y149.703 E329.08127
G1 X144.540 Y148.791 E329.17970
G1 X144.062 Y147.928 E329.27813
G1 X143.487 Y147.126 E329.37660
G1 X142.824 Y146.396 E329.47500
G1 X142.081 Y145.748 E329.57337
G1 X141.269 Y145.189 E329.67173
G1 X140.397 Y144.727 E329.77020
G1 X139.199 Y144.259 E329.89853
G1 X138.458 Y146.537 E330.13756
G1 X138.291 Y146.904 E330.17779
G1 X138.053 Y147.213 E330.21671
G1 X137.754 Y147.458 E330.25528
G1 X137.408 Y147.628 E330.29374
G1 X137.030 Y147.715 E330.33245
G1 X136.642 Y147.715 E330.37116
G1 X136.265 Y147.628 E330.40977
G1 X135.919 Y147.458 E330.44823
G1 X135.620 Y147.213 E330.48680
G1 X135.383 Y146.905 E330.52558
G1 X135.213 Y146.533 E330.56639
G1 X134.474 Y144.259 E330.80497
G1 X133.275 Y144.727 E330.93340
G1 X132.404 Y145.189 E331.03178
G1 X131.592 Y145.748 E331.13014
G1 X130.849 Y146.396 E331.22851
G1 X130.185 Y147.126 E331.32698
G1 X129.611 Y147.928 E331.42539
G1 X129.132 Y148.791 E331.52387
G1 X128.757 Y149.703 E331.62226
G1 X128.489 Y150.651 E331.72056
G1 X128.331 Y151.625 E331.81902
G1 X128.287 Y152.609 E331.91730
G1 X128.356 Y153.592 E332.01563
G1 X128.538 Y154.562 E332.11410
G1 X128.831 Y155.504 E332.21254
G1 X129.231 Y156.405 E332.31090
G1 X129.730 Y157.255 E332.40925
G1 X130.325 Y158.042 E332.50769
G1 X131.007 Y158.755 E332.60614
G1 X131.766 Y159.385 E332.70457
G1 X132.593 Y159.923 E332.80301
G1 X133.476 Y160.362 E332.90140
G1 X134.404 Y160.697 E332.99985
G1 X135.363 Y160.922 E333.09814
G1 X136.344 Y161.036 E333.19668
G1 X137.329 Y161.036 E333.29496
G1 X138.309 Y160.922 E333.39341
G1 X139.269 Y160.697 E333.49179
G1 X140.197 Y160.362 E333.59024
G1 X141.080 Y159.923 E333.68863
G1 X141.906 Y159.385 E333.78699
G1 X142.666 Y158.755 E333.88549
G1 X143.347 Y158.042 E333.98387
G1 X143.942 Y157.255 E334.08232
G1 X144.442 Y156.405 E334.18071
G0 F12000 X145.200 Y157.348
;TYPE:SKIN
G1 F2220 X145.200 Y163.456 E334.79017
G0 F12000 X144.600 Y163.879
G1 F2220 X144.600 Y157.727 E335.40402
G0 F12000 X144.000 Y158.521
G1 F2220 X144.000 Y164.275 E335.97816
G0 F12000 X143.400 Y164.611
G1 F2220 X143.400 Y159.159 E336.52216
G0 F12000 X142.800 Y159.696
G1 F2220 X142.800 Y164.920 E337.04341
G0 F12000 X142.200 Y165.192
G1 F2220 X142.200 Y160.160 E337.54551
G0 F12000 X141.600 Y160.551
G1 F2220 X141.600 Y165.426 E338.03194
G0 F12000 X141.000 Y165.637
G1 F2220 X141.000 Y160.867 E338.50789
G0 F12000 X140.400 Y161.149
G1 F2220 X140.400 Y165.806 E338.97257
G1 F2100 E338.57257
G1 Z1.600
G0 F12000 X145.800 Y162.965
G1 Z1.200
G1 F2100 E338.97257
G1 F2220 X145.800 Y157.609 E339.50699
G0 F12000 X146.400 Y157.870
G1 F2220 X146.400 Y162.416 E339.96059
G0 F12000 X147.000 Y161.809
G1 F2220 X147.000 Y158.130 E340.32769
G0 F12000 X147.600 Y158.391
G1 F2220 X147.600 Y161.113 E340.59929
G0 F12000 X148.200 Y160.295
G1 F2220 X148.200 Y158.652 E340.76323
G0 F12000 X148.800 Y158.913
G1 F2220 X148.800 Y159.304 E340.80224
G1 F2100 E340.40224
G1 Z1.600
G0 F12000 X145.200 Y147.653
G1 Z1.200
G1 F2100 E340.80224
G1 F2220 X145.200 Y141.548 E341.41140
G0 F12000 X144.600 Y141.122
G1 F2220 X144.600 Y147.287 E342.02655
G0 F12000 X144.000 Y146.486
G1 F2220 X144.000 Y140.722 E342.60168
G0 F12000 X143.400 Y140.389
G1 F2220 X143.400 Y145.826 E343.14419
G0 F12000 X142.800 Y145.299
G1 F2220 X142.800 Y140.080 E343.66494
G0 F12000 X142.200 Y139.810
G1 F2220 X142.200 Y144.846 E344.16744
G0 F12000 X141.600 Y144.448
G1 F2220 X141.600 Y139.573 E344.65386
G0 F12000 X141.000 Y139.364
G1 F2220 X141.000 Y144.130 E345.12942
G0 F12000 X140.400 Y143.859
G1 F2220 X140.400 Y139.194 E345.59489
G0 F12000 X139.800 Y139.041
G1 F2220 X139.800 Y143.625 E346.05229
G0 F12000 X139.200 Y143.390
G1 F2220 X139.200 Y138.929 E346.49741
G0 F12000 X138.600 Y138.831
G1 F2220 X138.600 Y143.483 E346.96159
G1 F2100 E346.56159
G1 Z1.600
G0 F12000 X138.000 Y145.327
G1 Z1.200
G1 F2100 E346.96159
G1 F2220 X138.000 Y138.773 E347.61555
G0 F12000 X137.400 Y138.727
G1 F2220 X137.400 Y146.701 E348.41120
G0 F12000 X136.800 Y146.905
G1 F2220 X136.800 Y138.724 E349.22750
G0 F12000 X136.200 Y138.731
G1 F2220 X136.200 Y146.638 E350.01646
G1 F2100 E349.61646
G1 Z1.600
G0 F12000 X135.600 Y145.104
G1 Z1.200
G1 F2100 E350.01646
G1 F2220 X135.600 Y138.781 E350.64737
G0 F12000 X135.000 Y138.840
G1 F2220 X135.000 Y143.257 E351.08810
G0 F12000 X134.400 Y143.420
G1 F2220 X134.400 Y138.942 E351.53492
G0 F12000 X133.800 Y139.053
G1 F2220 X133.800 Y143.654 E351.99401
G0 F12000 X133.200 Y143.888
G1 F2220 X133.200 Y139.213 E352.46048
G0 F12000 X132.600 Y139.380
G1 F2220 X132.600 Y144.170 E352.93843
G0 F12000 X132.000 Y144.487
G1 F2220 X132.000 Y139.602 E353.42586
G0 F12000 X131.400 Y139.832
G1 F2220 X131.400 Y144.897 E353.93125
G0 F12000 X130.800 Y145.364
G1 F2220 X130.800 Y140.118 E354.45470
G0 F12000 X130.200 Y140.422
G1 F2220 X130.200 Y145.907 E355.00199
G0 F12000 X129.600 Y146.567
G1 F2220 X129.600 Y140.775 E355.57992
G0 F12000 X129.000 Y141.168
G1 F2220 X129.000 Y147.390 E356.20075
G0 F12000 X128.400 Y148.443
G1 F2220 X128.400 Y141.597 E356.88385
G0 F12000 X127.800 Y142.102
G1 F2220 X127.800 Y150.112 E357.68309
G1 F2100 E357.28309
G1 Z1.600
G0 F12000 X123.600 Y148.668
G1 Z1.200
G1 F2100 E357.68309
G1 F2220 X123.600 Y156.324 E358.44701
G1 F2100 E358.04701
G1 Z1.600
G0 F12000 X124.200 Y157.993
G1 Z1.200
G1 F2100 E358.44701
G1 F2220 X124.200 Y147.005 E359.54340
G0 F12000 X124.800 Y145.796
G1 F2220 X124.800 Y159.201 E360.88095
G0 F12000 X125.400 Y160.181
G1 F2220 X125.400 Y144.819 E362.41378
G0 F12000 X126.000 Y143.988
G1 F2220 X126.000 Y161.014 E364.11264
G0 F12000 X126.600 Y161.733
G1 F2220 X126.600 Y143.266 E365.95528
G0 F12000 X127.200 Y142.653
G1 F2220 X127.200 Y162.345 E367.92016
G0 F12000 X127.800 Y162.899
G1 F2220 X127.800 Y154.917 E368.71661
G1 F2100 E368.31661
G1 Z1.600
G0 F12000 X128.400 Y156.530
G1 Z1.200
G1 F2100 E368.71661
G1 F2220 X128.400 Y163.405 E369.40260
G0 F12000 X129.000 Y163.829
G1 F2220 X129.000 Y157.610 E370.02313
G0 F12000 X129.600 Y158.425
G1 F2220 X129.600 Y164.226 E370.60196
G0 F12000 X130.200 Y164.576
G1 F2220 X130.200 Y159.084 E371.14995
G0 F12000 X130.800 Y159.636
G1 F2220 X130.800 Y164.882 E371.67340
G0 F12000 X131.400 Y165.166
G1 F2220 X131.400 Y160.114 E372.17749
G0 F12000 X132.000 Y160.505
G1 F2220 X132.000 Y165.398 E372.66572
G0 F12000 X132.600 Y165.621
G1 F2220 X132.600 Y160.831 E373.14366
G0 F12000 X133.200 Y161.123
G1 F2220 X133.200 Y165.788 E373.60914
G0 F12000 X133.800 Y165.947
G1 F2220 X133.800 Y161.340 E374.06883
G0 F12000 X134.400 Y161.528
G1 F2220 X134.400 Y166.058 E374.52083
G0 F12000 X135.000 Y166.162
G1 F2220 X135.000 Y161.669 E374.96915
G0 F12000 X135.600 Y161.766
G1 F2220 X135.600 Y166.220 E375.41357
G0 F12000 X136.200 Y166.269
G1 F2220 X136.200 Y161.836 E375.85590
G0 F12000 X136.800 Y161.846
G1 F2220 X136.800 Y166.275 E376.29782
G0 F12000 X137.400 Y166.274
G1 F2220 X137.400 Y161.843 E376.73995
G0 F12000 X138.000 Y161.773
G1 F2220 X138.000 Y166.225 E377.18417
G0 F12000 X138.600 Y166.170
G1 F2220 X138.600 Y161.685 E377.63169
G0 F12000 X139.200 Y161.544
G1 F2220 X139.200 Y166.070 E378.08329
G0 F12000 X139.800 Y165.961
G1 F2220 X139.800 Y161.365 E378.54188
G1 F2100 E378.14188
G1 Z1.600
G0 F12000 X145.800 Y147.392
G1 Z1.200
G1 F2100 E378.54188
G1 F2220 X145.800 Y142.035 E379.07641
G0 F12000 X146.400 Y142.586
G1 F2220 X146.400 Y147.131 E379.52991
G0 F12000 X147.000 Y146.871
G1 F2220 X147.000 Y143.195 E379.89670
G0 F12000 X147.600 Y143.885
G1 F2220 X147.600 Y146.610 E380.16860
G0 F12000 X148.200 Y146.349
G1 F2220 X148.200 Y144.706 E380.33254
G0 F12000 X148.800 Y145.664
G1 F2220 X148.800 Y146.088 E380.37485
G1 F2100 E379.97485
G1 Z1.600
G0 F12000 X156.034 Y148.338
;TYPE:WALL-INNER
G1 Z1.200
G1 F2100 E380.37485
G1 F2220 X156.447 Y147.192 E380.49640
G1 X156.951 Y146.099 E380.61649
G1 X157.557 Y145.036 E380.73859
G1 X158.241 Y144.047 E380.85857
G1 X159.022 Y143.105 E380.98067
G1 X159.872 Y142.244 E381.10139
G1 X160.800 Y141.455 E381.22293
G1 X161.784 Y140.754 E381.34348
G1 X162.829 Y140.140 E381.46442
G1 X163.929 Y139.616 E381.58599
G1 X165.067 Y139.190 E381.70724
G1 X166.233 Y138.865 E381.82802
G1 X167.426 Y138.642 E381.94912
G1 X168.638 Y138.523 E382.07063
G1 X169.855 Y138.508 E382.19207
G1 X171.057 Y138.600 E382.31236
G1 X172.256 Y138.796 E382.43359
G1 X173.430 Y139.095 E382.55447
G1 X174.578 Y139.495 E382.67577
G1 X175.690 Y139.995 E382.79743
G1 X176.738 Y140.579 E382.91714
G1 X177.755 Y141.270 E383.03982
G1 X178.696 Y142.034 E383.16076
G1 X179.559 Y142.870 E383.28065
G1 X180.363 Y143.794 E383.40287
G1 X181.078 Y144.779 E383.52431
G1 X181.693 Y145.804 E383.64359
G1 X181.842 Y146.109 E383.67746
G1 X177.587 Y147.958 E384.14037
G1 X177.378 Y148.050 E384.16316
G1 X177.133 Y147.607 E384.21367
G1 X176.517 Y146.748 E384.31914
G1 X175.808 Y145.967 E384.42439
G1 X175.013 Y145.273 E384.52969
G1 X174.143 Y144.675 E384.63503
G1 X173.211 Y144.181 E384.74028
G1 X171.388 Y143.469 E384.93556
G1 X170.462 Y146.320 E385.23467
G1 X170.337 Y146.593 E385.26463
G1 X170.183 Y146.792 E385.28973
G1 X169.993 Y146.948 E385.31426
G1 X169.768 Y147.058 E385.33925
G1 X169.523 Y147.115 E385.36435
G1 X169.276 Y147.115 E385.38900
G1 X169.031 Y147.058 E385.41410
G1 X168.806 Y146.948 E385.43909
G1 X168.616 Y146.792 E385.46362
G1 X168.462 Y146.593 E385.48872
G1 X168.337 Y146.320 E385.51868
G1 X167.411 Y143.469 E385.81779
G1 X165.588 Y144.181 E386.01307
G1 X164.656 Y144.675 E386.11832
G1 X163.786 Y145.273 E386.22366
G1 X162.991 Y145.967 E386.32896
G1 X162.282 Y146.748 E386.43421
G1 X161.666 Y147.607 E386.53968
G1 X161.155 Y148.530 E386.64495
G1 X160.752 Y149.506 E386.75031
G1 X160.465 Y150.521 E386.85556
G1 X160.296 Y151.563 E386.96089
G1 X160.249 Y152.616 E387.06606
G1 X160.323 Y153.669 E387.17139
G1 X160.518 Y154.708 E387.27687
G1 X160.832 Y155.715 E387.38212
G1 X161.259 Y156.680 E387.48741
G1 X161.795 Y157.589 E387.59271
G1 X162.431 Y158.431 E387.69800
G1 X163.160 Y159.194 E387.80329
G1 X163.973 Y159.869 E387.90873
G1 X164.857 Y160.445 E388.01401
G1 X165.803 Y160.915 E388.11941
G1 X166.796 Y161.273 E388.22473
G1 X167.823 Y161.514 E388.32999
G1 X168.872 Y161.636 E388.43537
G1 X169.927 Y161.636 E388.54063
G1 X170.976 Y161.514 E388.64601
G1 X172.003 Y161.273 E388.75127
G1 X172.996 Y160.915 E388.85659
G1 X173.942 Y160.445 E388.96199
G1 X174.826 Y159.869 E389.06727
G1 X175.639 Y159.194 E389.17271
G1 X176.368 Y158.431 E389.27800
G1 X177.004 Y157.589 E389.38329
G1 X177.380 Y156.951 E389.45718
G1 X181.844 Y158.892 E389.94289
G1 X181.723 Y159.141 E389.97051
G1 X181.101 Y160.183 E390.09160
G1 X180.385 Y161.176 E390.21375
G1 X179.595 Y162.092 E390.33445
G1 X178.728 Y162.937 E390.45525
G1 X177.792 Y163.703 E390.57593
G1 X176.789 Y164.388 E390.69712
G1 X175.728 Y164.984 E390.81855
G1 X174.622 Y165.486 E390.93974
G1 X173.476 Y165.890 E391.06099
G1 X172.303 Y166.192 E391.18185
G1 X171.099 Y166.394 E391.30366
G1 X169.872 Y166.491 E391.42647
G1 X168.653 Y166.479 E391.54811
G1 X167.472 Y166.365 E391.66650
G1 X166.257 Y166.142 E391.78976
G1 X165.116 Y165.827 E391.90787
G1 X163.975 Y165.404 E392.02929
G1 X162.863 Y164.878 E392.15203
G1 X161.834 Y164.278 E392.27089
G1 X160.829 Y163.567 E392.39372
G1 X159.905 Y162.787 E392.51438
G1 X159.058 Y161.934 E392.63432
G1 X158.272 Y160.992 E392.75674
G1 X157.580 Y160.000 E392.87742
G1 X156.973 Y158.945 E392.99887
G1 X156.466 Y157.853 E393.11900
G1 X156.046 Y156.699 E393.24154
G1 X155.733 Y155.535 E393.36181
G1 X155.523 Y154.347 E393.48219
G1 X155.416 Y153.124 E393.60468
G1 X155.413 Y151.919 E393.72492
G1 X155.516 Y150.708 E393.84619
G1 X155.728 Y149.485 E393.97004
G1 X156.034 Y148.338 E394.08849
G0 F12000 X155.460 Y148.159
;TYPE:WALL-OUTER
G1 F2220 X155.889 Y146.968 E394.21480
G1 X156.413 Y145.831 E394.33972
G1 X157.047 Y144.719 E394.46745
G1 X157.767 Y143.678 E394.59374
G1 X158.574 Y142.706 E394.71980
G1 X159.468 Y141.800 E394.84680
G1 X160.432 Y140.981 E394.97302
G1 X161.453 Y140.253 E395.09814
G1 X162.553 Y139.607 E395.22542
G1 X163.695 Y139.063 E395.35164
G1 X164.877 Y138.620 E395.47759
G1 X166.099 Y138.279 E395.60418
G1 X167.339 Y138.048 E395.73004
G1 X168.607 Y137.924 E395.85716
G1 X169.870 Y137.908 E395.98320
G1 X171.131 Y138.004 E396.10938
G1 X172.375 Y138.207 E396.23515
G1 X173.610 Y138.522 E396.36233
G1 X174.795 Y138.935 E396.48754
G1 X175.960 Y139.459 E396.61500
G1 X177.060 Y140.072 E396.74065
G1 X178.110 Y140.785 E396.86730
G1 X179.092 Y141.583 E396.99355
G1 X180.000 Y142.463 E397.11972
G1 X180.829 Y143.416 E397.24576
G1 X181.577 Y144.447 E397.37285
G1 X182.220 Y145.516 E397.49733
G1 X182.656 Y146.409 E397.59648
G1 X177.827 Y148.508 E398.12187
G1 X177.272 Y148.751 E398.18233
G1 X177.687 Y149.858 E398.30029
G1 X177.916 Y150.725 E398.38977
G1 X178.051 Y151.597 E398.47781
G1 X178.099 Y152.500 E398.56804
G1 X178.052 Y153.402 E398.65816
G1 X177.925 Y154.225 E398.74126
G1 X177.696 Y155.115 E398.83295
G1 X177.386 Y155.949 E398.92173
G1 X177.262 Y156.245 E398.95375
G1 X182.657 Y158.591 E399.54076
G1 X182.252 Y159.424 E399.63318
G1 X181.598 Y160.520 E399.76053
G1 X180.861 Y161.542 E399.88626
G1 X180.033 Y162.502 E400.01275
G1 X179.127 Y163.385 E400.13899
G1 X178.150 Y164.185 E400.26499
G1 X177.106 Y164.899 E400.39119
G1 X175.993 Y165.523 E400.51851
G1 X174.849 Y166.042 E400.64385
G1 X173.656 Y166.463 E400.77009
G1 X172.423 Y166.781 E400.89714
G1 X171.177 Y166.989 E401.02319
G1 X169.916 Y167.089 E401.14941
G1 X169.870 Y167.091 E401.15400
G1 X168.647 Y167.079 E401.27604
G1 X167.386 Y166.960 E401.40242
G1 X166.140 Y166.730 E401.52885
G1 X164.923 Y166.396 E401.65477
G1 X163.739 Y165.957 E401.78077
G1 X162.595 Y165.416 E401.90704
G1 X161.502 Y164.778 E402.03332
G1 X160.469 Y164.048 E402.15953
G1 X159.498 Y163.228 E402.28634
G1 X158.606 Y162.330 E402.41264
G1 X157.800 Y161.365 E402.53810
G1 X157.073 Y160.321 E402.66503
G1 X156.439 Y159.220 E402.79181
G1 X155.911 Y158.081 E402.91707
G1 X155.476 Y156.887 E403.04387
G1 X155.144 Y155.651 E403.17157
G1 X154.927 Y154.424 E403.29590
G1 X154.816 Y153.155 E403.42301
G1 X154.813 Y151.893 E403.54893
G1 X154.920 Y150.634 E403.67501
G1 X155.137 Y149.381 E403.80189
G1 X155.147 Y149.333 E403.80678
G1 X155.460 Y148.159 E403.92802
G1 F2100 E403.52802
G1 Z1.600
G0 F12000 X161.320 Y149.703
G1 Z1.200
G1 F2100 E403.92802
G1 F2220 X161.052 Y150.651 E404.02632
G1 X160.894 Y151.625 E404.12477
G1 X160.850 Y152.609 E404.22306
G1 X160.919 Y153.592 E404.32138
G1 X161.101 Y154.563 E404.41996
G1 X161.395 Y155.504 E404.51832
G1 X161.794 Y156.405 E404.61665
G1 X162.294 Y157.255 E404.71505
G1 X162.889 Y158.042 E404.81349
G1 X163.570 Y158.755 E404.91187
G1 X164.330 Y159.385 E405.01037
G1 X165.156 Y159.923 E405.10873
G1 X166.039 Y160.362 E405.20712
G1 X166.967 Y160.697 E405.30557
G1 X167.926 Y160.922 E405.40386
G1 X168.907 Y161.036 E405.50240
G1 X169.892 Y161.036 E405.60068
G1 X170.873 Y160.922 E405.69923
G1 X171.832 Y160.697 E405.79751
G1 X172.760 Y160.362 E405.89596
G1 X173.643 Y159.923 E405.99435
G1 X174.469 Y159.385 E406.09271
G1 X175.229 Y158.755 E406.19121
G1 X175.910 Y158.042 E406.28959
G1 X176.505 Y157.255 E406.38804
G1 X177.005 Y156.405 E406.48644
G1 X177.404 Y155.504 E406.58476
G1 X177.698 Y154.563 E406.68313
G1 X177.880 Y153.592 E406.78170
G1 X177.949 Y152.609 E406.88003
G1 X177.905 Y151.625 E406.97831
G1 X177.747 Y150.651 E407.07677
G1 X177.479 Y149.703 E407.17507
G1 X177.103 Y148.791 E407.27350
G1 X176.625 Y147.928 E407.37193
G1 X176.050 Y147.126 E407.47040
G1 X175.387 Y146.396 E407.56880
G1 X174.644 Y145.748 E407.66717
G1 X173.832 Y145.189 E407.76553
G1 X172.960 Y144.727 E407.86400
G1 X171.762 Y144.259 E407.99233
G1 X171.023 Y146.533 E408.23091
G1 X170.853 Y146.905 E408.27172
G1 X170.616 Y147.213 E408.31050
G1 X170.317 Y147.458 E408.34907
G1 X169.971 Y147.628 E408.38754
G1 X169.594 Y147.715 E408.42615
G1 X169.205 Y147.715 E408.46496
G1 X168.828 Y147.628 E408.50357
G1 X168.482 Y147.458 E408.54203
G1 X168.183 Y147.213 E408.58060
G1 X167.946 Y146.905 E408.61938
G1 X167.776 Y146.533 E408.66019
G1 X167.037 Y144.259 E408.89877
G1 X165.839 Y144.727 E409.02711
G1 X164.967 Y145.189 E409.12557
G1 X164.155 Y145.748 E409.22394
G1 X163.412 Y146.396 E409.32231
G1 X162.749 Y147.126 E409.42071
G1 X162.174 Y147.928 E409.51917
G1 X161.696 Y148.791 E409.61761
G1 X161.320 Y149.703 E409.71604
G0 F12000 X160.800 Y148.839
;TYPE:SKIN
G1 F2220 X160.800 Y141.731 E410.42528
G0 F12000 X161.400 Y141.285
G1 F2220 X161.400 Y147.655 E411.06088
G0 F12000 X162.000 Y146.781
G1 F2220 X162.000 Y140.870 E411.65068
G0 F12000 X162.600 Y140.518
G1 F2220 X162.600 Y146.087 E412.20636
G0 F12000 X163.200 Y145.506
G1 F2220 X163.200 Y140.196 E412.73619
G0 F12000 X163.800 Y139.910
G1 F2220 X163.800 Y145.009 E413.24497
G0 F12000 X164.400 Y144.596
G1 F2220 X164.400 Y139.663 E413.73719
G0 F12000 X165.000 Y139.438
G1 F2220 X165.000 Y144.256 E414.21793
G0 F12000 X165.600 Y143.952
G1 F2220 X165.600 Y139.259 E414.68620
G0 F12000 X166.200 Y139.091
G1 F2220 X166.200 Y143.718 E415.14788
G0 F12000 X166.800 Y143.483
G1 F2220 X166.800 Y138.972 E415.59799
G0 F12000 X167.400 Y138.860
G1 F2220 X167.400 Y143.249 E416.03593
G0 F12000 X168.000 Y144.602
G1 F2220 X168.000 Y138.797 E416.61516
G0 F12000 X168.600 Y138.738
G1 F2220 X168.600 Y146.389 E417.37858
G0 F12000 X169.200 Y146.881
G1 F2220 X169.200 Y138.726 E418.19228
G0 F12000 X169.800 Y138.718
G1 F2220 X169.800 Y146.808 E418.99951
G0 F12000 X170.400 Y145.831
G1 F2220 X170.400 Y138.761 E419.70496
G0 F12000 X171.000 Y138.807
G1 F2220 X171.000 Y143.984 E420.22152
G0 F12000 X171.600 Y143.327
G1 F2220 X171.600 Y138.902 E420.66305
G0 F12000 X172.200 Y139.000
G1 F2220 X172.200 Y143.561 E421.11815
G0 F12000 X172.800 Y143.795
G1 F2220 X172.800 Y139.152 E421.58143
G0 F12000 X173.400 Y139.308
G1 F2220 X173.400 Y144.044 E422.05399
G0 F12000 X174.000 Y144.362
G1 F2220 X174.000 Y139.516 E422.53752
G0 F12000 X174.600 Y139.736
G1 F2220 X174.600 Y144.733 E423.03612
G0 F12000 X175.200 Y145.157
G1 F2220 X175.200 Y140.007 E423.54999
G0 F12000 X175.800 Y140.298
G1 F2220 X175.800 Y145.681 E424.08711
G0 F12000 X176.400 Y146.307
G1 F2220 X176.400 Y140.632 E424.65337
G0 F12000 X177.000 Y141.012
G1 F2220 X177.000 Y147.060 E425.25684
G0 F12000 X177.600 Y147.724
G1 F2220 X177.600 Y141.419 E425.88595
G0 F12000 X178.200 Y141.903
G1 F2220 X178.200 Y147.463 E426.44073
G0 F12000 X178.800 Y147.202
G1 F2220 X178.800 Y142.428 E426.91708
G0 F12000 X179.400 Y143.009
G1 F2220 X179.400 Y146.941 E427.30942
G1 F2100 E426.90942
G1 Z1.600
G0 F12000 X177.600 Y157.277
G1 Z1.200
G1 F2100 E427.30942
G1 F2220 X177.600 Y163.580 E427.93834
G0 F12000 X177.000 Y163.991
G1 F2220 X177.000 Y157.942 E428.54191
G0 F12000 X176.400 Y158.701
G1 F2220 X176.400 Y164.366 E429.10716
G0 F12000 X175.800 Y164.703
G1 F2220 X175.800 Y159.330 E429.64328
G0 F12000 X175.200 Y159.831
G1 F2220 X175.200 Y164.994 E430.15845
G0 F12000 X174.600 Y165.266
G1 F2220 X174.600 Y160.266 E430.65735
G0 F12000 X174.000 Y160.650
G1 F2220 X174.000 Y165.483 E431.13959
G0 F12000 X173.400 Y165.692
G1 F2220 X173.400 Y160.948 E431.61295
G0 F12000 X172.800 Y161.207
G1 F2220 X172.800 Y165.847 E432.07593
G0 F12000 X172.200 Y165.997
G1 F2220 X172.200 Y161.424 E432.53223
G0 F12000 X171.600 Y161.582
G1 F2220 X171.600 Y166.097 E432.98273
G0 F12000 X171.000 Y166.191
G1 F2220 X171.000 Y161.722 E433.42865
G0 F12000 X170.400 Y161.792
G1 F2220 X170.400 Y166.239 E433.87238
G0 F12000 X169.800 Y166.280
G1 F2220 X169.800 Y161.846 E434.31480
G0 F12000 X169.200 Y161.846
G1 F2220 X169.200 Y166.274 E434.75663
G0 F12000 X168.600 Y166.262
G1 F2220 X168.600 Y161.817 E435.20015
G0 F12000 X168.000 Y161.747
G1 F2220 X168.000 Y166.204 E435.64488
G0 F12000 X167.400 Y166.138
G1 F2220 X167.400 Y161.630 E436.09469
G0 F12000 X166.800 Y161.489
G1 F2220 X166.800 Y166.028 E436.54759
G0 F12000 X166.200 Y165.908
G1 F2220 X166.200 Y161.281 E437.00927
G0 F12000 X165.600 Y161.048
G1 F2220 X165.600 Y165.743 E437.47774
G0 F12000 X165.000 Y165.561
G1 F2220 X165.000 Y160.751 E437.95769
G0 F12000 X164.400 Y160.399
G1 F2220 X164.400 Y165.338 E438.45050
G0 F12000 X163.800 Y165.089
G1 F2220 X163.800 Y159.999 E438.95838
G0 F12000 X163.200 Y159.501
G1 F2220 X163.200 Y164.805 E439.48762
G0 F12000 X162.600 Y164.481
G1 F2220 X162.600 Y158.913 E440.04320
G0 F12000 X162.000 Y158.209
G1 F2220 X162.000 Y164.131 E440.63410
G0 F12000 X161.400 Y163.713
G1 F2220 X161.400 Y157.332 E441.27079
G0 F12000 X160.800 Y156.162
G1 F2220 X160.800 Y163.267 E441.97973
G0 F12000 X160.200 Y162.760
G1 F2220 X160.200 Y154.155 E442.83834
G1 F2100 E442.43834
G1 Z1.600
G0 F12000 X160.200 Y150.844
G1 Z1.200
G1 F2100 E442.83834
G1 F2220 X160.200 Y142.241 E443.69675
G1 F2100 E443.29675
G1 Z1.600
G0 F12000 X178.200 Y157.537
G1 Z1.200
G1 F2100 E443.69675
G1 F2220 X178.200 Y163.098 E444.25163
G0 F12000 X178.800 Y162.574
G1 F2220 X178.800 Y157.798 E444.72819
G0 F12000 X179.400 Y158.059
G1 F2220 X179.400 Y161.990 E445.12042
G0 F12000 X180.000 Y161.302
G1 F2220 X180.000 Y158.319 E445.41807
G0 F12000 X180.600 Y158.580
G1 F2220 X180.600 Y160.520 E445.61164
G0 F12000 X181.200 Y159.607
G1 F2220 X181.200 Y158.841 E445.68807
G1 F2100 E445.28807
G1 Z1.600
G0 F12000 X180.000 Y146.680
G1 Z1.200
G1 F2100 E445.68807
G1 F2220 X180.000 Y143.697 E445.98572
G0 F12000 X180.600 Y144.479
G1 F2220 X180.600 Y146.420 E446.17939
G0 F12000 X181.200 Y146.159
G1 F2220 X181.200 Y145.391 E446.25602
G1 F2100 E445.85602
G1 Z1.600
G0 F12000 X159.600 Y142.818
G1 Z1.200
G1 F2100 E446.25602
G1 F2220 X159.600 Y162.182 E448.18817
G0 F12000 X159.000 Y161.538
G1 F2220 X159.000 Y143.460 E449.99200
G0 F12000 X158.400 Y144.186
G1 F2220 X158.400 Y160.809 E451.65065
G0 F12000 X157.800 Y159.947
G1 F2220 X157.800 Y145.054 E453.13668
G0 F12000 X157.200 Y146.087
G1 F2220 X157.200 Y158.918 E454.41696
G0 F12000 X156.600 Y157.604
G1 F2220 X156.600 Y147.387 E455.43642
G1 F2100 E455.03642
G1 Z1.600
G0 F12000 X156.000 Y149.279
G1 Z1.200
G1 F2100 E455.43642
G1 F2220 X156.000 Y155.718 E456.07890
;LAYER:3
M106 S63
G1 F2100 E455.67890
G1 Z1.600
G0 F12000 X149.163 Y159.134 Z1.600
;TYPE:WALL-INNER
G1 Z1.600
G1 F2100 E456.07890
G1 F2400 X148.545 Y160.170 E456.19927
G1 X147.828 Y161.167 E456.32181
G1 X147.044 Y162.077 E456.44166
G1 X146.173 Y162.928 E456.56316
G1 X145.238 Y163.695 E456.68383
G1 X144.231 Y164.385 E456.80564
G1 X143.142 Y164.997 E456.93028
G1 X142.060 Y165.486 E457.04876
G1 X140.916 Y165.891 E457.16985
G1 X139.754 Y166.190 E457.28957
G1 X138.549 Y166.391 E457.41146
G1 X137.320 Y166.490 E457.53449
G1 X137.296 Y166.491 E457.53689
G1 X136.129 Y166.480 E457.65334
G1 X134.919 Y166.366 E457.77461
G1 X133.732 Y166.150 E457.89499
G1 X132.554 Y165.827 E458.01687
G1 X131.421 Y165.407 E458.13744
G1 X130.323 Y164.890 E458.25854
G1 X129.267 Y164.275 E458.38047
G1 X128.280 Y163.578 E458.50104
G1 X127.348 Y162.792 E458.62269
G1 X126.496 Y161.936 E458.74320
G1 X125.721 Y161.008 E458.86383
G1 X125.023 Y160.009 E458.98544
G1 X124.417 Y158.958 E459.10649
G1 X123.904 Y157.858 E459.22760
G1 X123.487 Y156.711 E459.34937
G1 X123.173 Y155.541 E459.47025
G1 X122.960 Y154.345 E459.59146
G1 X122.853 Y153.144 E459.71177
G1 X122.849 Y151.928 E459.83311
G1 X122.952 Y150.716 E459.95448
G1 X123.159 Y149.515 E460.07608
G1 X123.466 Y148.350 E460.19629
G1 X123.876 Y147.208 E460.31736
G1 X124.386 Y146.102 E460.43889
G1 X124.989 Y145.043 E460.56049
G1 X125.677 Y144.048 E460.68119
G1 X126.449 Y143.116 E460.80194
G1 X127.303 Y142.250 E460.92330
G1 X128.231 Y141.460 E461.04491
G1 X129.218 Y140.756 E461.16588
G1 X130.264 Y140.140 E461.28700
G1 X131.350 Y139.623 E461.40701
G1 X132.496 Y139.193 E461.52915
G1 X133.661 Y138.867 E461.64986
G1 X134.858 Y138.643 E461.77137
G1 X136.068 Y138.523 E461.89269
G1 X137.284 Y138.508 E462.01404
G1 X138.487 Y138.599 E462.13441
G1 X139.687 Y138.795 E462.25574
G1 X140.861 Y139.093 E462.37659
G1 X142.014 Y139.495 E462.49843
G1 X143.120 Y139.991 E462.61938
G1 X144.180 Y140.581 E462.74043
G1 X145.182 Y141.262 E462.86131
G1 X146.122 Y142.025 E462.98212
G1 X146.998 Y142.873 E463.10377
G1 X147.796 Y143.790 E463.22506
G1 X148.507 Y144.770 E463.34587
G1 X149.130 Y145.805 E463.46641
G1 X149.279 Y146.109 E463.50019
G1 X145.050 Y147.947 E463.96029
G1 X144.814 Y148.050 E463.98599
G1 X144.580 Y147.625 E464.03440
G1 X143.967 Y146.764 E464.13986
G1 X143.258 Y145.982 E464.24518
G1 X142.464 Y145.285 E464.35060
G1 X141.596 Y144.686 E464.45583
G1 X140.665 Y144.189 E464.56114
G1 X139.725 Y143.820 E464.66190
G1 X138.821 Y143.481 E464.75823
G1 X137.898 Y146.318 E465.05591
G1 X137.768 Y146.598 E465.08672
G1 X137.613 Y146.797 E465.11189
G1 X137.420 Y146.951 E465.13652
G1 X137.190 Y147.062 E465.16200
G1 X136.960 Y147.115 E465.18556
G1 X136.712 Y147.115 E465.21030
G1 X136.469 Y147.059 E465.23518
G1 X136.243 Y146.948 E465.26031
G1 X136.054 Y146.793 E465.28470
G1 X135.900 Y146.593 E465.30988
G1 X135.771 Y146.310 E465.34092
G1 X134.848 Y143.469 E465.63898
G1 X133.028 Y144.178 E465.83387
G1 X132.097 Y144.673 E465.93908
G1 X131.227 Y145.269 E466.04431
G1 X130.431 Y145.964 E466.14975
G1 X129.721 Y146.745 E466.25506
G1 X129.105 Y147.604 E466.36053
G1 X128.593 Y148.527 E466.46585
G1 X128.190 Y149.503 E466.57121
G1 X127.903 Y150.518 E466.67646
G1 X127.734 Y151.560 E466.78179
G1 X127.684 Y152.612 E466.88688
G1 X127.759 Y153.666 E466.99231
G1 X127.954 Y154.705 E467.09780
G1 X128.267 Y155.713 E467.20311
G1 X128.695 Y156.678 E467.30844
G1 X129.229 Y157.587 E467.41364
G1 X129.866 Y158.430 E467.51907
G1 X130.596 Y159.193 E467.62443
G1 X131.408 Y159.868 E467.72979
G1 X132.294 Y160.444 E467.83524
G1 X133.239 Y160.914 E467.94055
G1 X134.232 Y161.272 E468.04587
G1 X135.258 Y161.513 E468.15103
G1 X136.308 Y161.636 E468.25652
G1 X137.364 Y161.636 E468.36189
G1 X138.390 Y161.517 E468.46495
G1 X139.418 Y161.279 E468.57024
G1 X140.412 Y160.923 E468.67559
G1 X141.359 Y160.455 E468.78099
G1 X142.244 Y159.881 E468.88624
G1 X143.059 Y159.209 E468.99164
G1 X143.789 Y158.447 E469.09693
G1 X144.428 Y157.607 E469.20224
G1 X144.817 Y156.950 E469.27843
G1 X149.280 Y158.892 E469.76408
G1 X149.163 Y159.134 E469.79090
G0 F12000 X149.695 Y159.413
;TYPE:WALL-OUTER
G1 F2400 X149.042 Y160.507 E469.91803
G1 X148.303 Y161.535 E470.04436
G1 X147.484 Y162.486 E470.16959
G1 X146.568 Y163.381 E470.29737
G1 X145.605 Y164.171 E470.42166
G1 X144.548 Y164.895 E470.54949
G1 X143.436 Y165.520 E470.67677
G1 X142.293 Y166.039 E470.80203
G1 X141.096 Y166.463 E470.92874
G1 X139.873 Y166.779 E471.05478
G1 X138.626 Y166.987 E471.18092
G1 X137.364 Y167.088 E471.30725
G1 X137.298 Y167.091 E471.31384
G1 X136.103 Y167.080 E471.43308
G1 X134.834 Y166.961 E471.56026
G1 X133.591 Y166.734 E471.68634
G1 X132.373 Y166.400 E471.81236
G1 X131.187 Y165.961 E471.93854
G1 X130.042 Y165.421 E472.06486
G1 X128.948 Y164.784 E472.19118
G1 X127.908 Y164.049 E472.31825
G1 X126.947 Y163.240 E472.44359
G1 X126.051 Y162.338 E472.57045
G1 X125.244 Y161.374 E472.69589
G1 X124.516 Y160.330 E472.82289
G1 X123.884 Y159.234 E472.94913
G1 X123.349 Y158.086 E473.07550
G1 X122.916 Y156.896 E473.20186
G1 X122.584 Y155.661 E473.32946
G1 X122.367 Y154.435 E473.45369
G1 X122.253 Y153.164 E473.58102
G1 X122.249 Y151.902 E473.70695
G1 X122.356 Y150.644 E473.83292
G1 X122.573 Y149.386 E473.96030
G1 X122.894 Y148.166 E474.08618
G1 X123.317 Y146.988 E474.21107
G1 X123.850 Y145.830 E474.33826
G1 X124.480 Y144.725 E474.46518
G1 X125.203 Y143.679 E474.59206
G1 X125.997 Y142.720 E474.71629
G1 X126.898 Y141.806 E474.84435
G1 X127.863 Y140.986 E474.97071
G1 X128.892 Y140.252 E475.09683
G1 X129.973 Y139.615 E475.22202
G1 X131.125 Y139.066 E475.34936
G1 X132.306 Y138.623 E475.47521
G1 X133.529 Y138.281 E475.60193
G1 X134.768 Y138.049 E475.72770
G1 X136.036 Y137.924 E475.85484
G1 X137.299 Y137.908 E475.98087
G1 X138.560 Y138.003 E476.10705
G1 X139.805 Y138.206 E476.23292
G1 X141.041 Y138.520 E476.36016
G1 X142.226 Y138.933 E476.48538
G1 X143.392 Y139.456 E476.61289
G1 X144.496 Y140.071 E476.73899
G1 X145.537 Y140.777 E476.86449
G1 X146.518 Y141.574 E476.99061
G1 X147.442 Y142.468 E477.11890
G1 X148.262 Y143.412 E477.24366
G1 X149.007 Y144.437 E477.37010
G1 X149.658 Y145.518 E477.49601
G1 X150.093 Y146.409 E477.59495
G1 X144.709 Y148.751 E478.18079
G1 X145.124 Y149.856 E478.29857
G1 X145.352 Y150.722 E478.38792
G1 X145.488 Y151.597 E478.47628
G1 X145.535 Y152.500 E478.56650
