;-- START GCODE --
;Sliced for Type A Machines Series 1
;Sliced at: Tue 06-12-2016 12:22:25
;Basic settings:
; Layer height: 0.4
; Walls: 1.2
; Fill: 8
; Print Speed: 45
; Support: 0
; Retraction Speed: 35
; Retraction Distance: 0.4
;Print time: 1 hour 38 minutes
;Filament used: 16.739m 49.0g
;Settings based on: Type A Machines Everyday PLA
G21        ;metric values
G90        ;absolute positioning
G28     ;move to endstops
G1 Z15.0 F12000 ;move the platform down 15mm
G1 X150 Y5 F12000 ;center
M140 S50 ;Prep Heat Bed
M109 S215 ;Heat To temp
M190 S50 ;Heat Bed to temp
G1 X150 Y5 Z0.3 ;move the platform to purge extrusion
G92 E0 ;zero the extruded length
G1 F200 X250 E30 ;extrude 30mm of feed stock
G92 E0 ;zero the extruded length again
G1 X150 Y150  Z25 F12000 ;recenter and begin
G1 F12000

;Layer count: 40
;LAYER:0
M107
G0 F12000 X91.138 Y133.081 Z0.400
G0 X90.521 Y134.145
;TYPE:SKIRT
G1 F1800 X91.138 Y133.081 E0.12273
G1 X118.367 Y117.359 E3.26002
G1 X122.634 Y117.359 E3.68578
G1 X149.865 Y133.082 E6.82330
G1 X151.386 Y135.714 E7.12662
G1 X152.000 Y136.782 E7.24954
G1 X152.000 Y168.221 E10.38654
G1 X150.480 Y170.854 E10.68990
G1 X149.863 Y171.919 E10.81271
G1 X122.634 Y187.641 E13.95001
G1 X118.367 Y187.641 E14.37577
G1 X91.136 Y171.918 E17.51329
G1 X89.614 Y169.286 E17.81666
G1 X89.000 Y168.218 E17.93958
G1 X89.000 Y136.779 E21.07657
G1 X90.521 Y134.145 E21.38007
G0 F12000 X153.000 Y136.779
G1 F1800 X154.520 Y134.146 E21.68342
G1 X155.137 Y133.081 E21.80624
G1 X182.366 Y117.359 E24.94353
G1 X186.633 Y117.359 E25.36930
G1 X213.864 Y133.082 E28.50681
G1 X215.386 Y135.714 E28.81018
G1 X216.000 Y136.782 E28.93311
G1 X216.000 Y168.221 E32.07010
G1 X214.479 Y170.855 E32.37360
G1 X213.862 Y171.919 E32.49632
G1 X186.633 Y187.641 E35.63362
G1 X182.366 Y187.641 E36.05938
G1 X155.135 Y171.918 E39.19690
G1 X153.614 Y169.286 E39.50022
G1 X153.000 Y168.218 E39.62314
G1 X153.000 Y136.779 E42.76014
G1 F2100 E42.36014
G1 Z0.800
G0 F12000 X147.747 Y137.810
;TYPE:WALL-INNER
G1 Z0.400
G1 F2100 E42.76014
G1 F1800 X147.800 Y137.902 E42.77073
G1 X147.800 Y167.095 E45.68362
G1 X146.845 Y168.750 E45.87428
G1 X146.791 Y168.844 E45.88509
G1 X121.510 Y183.441 E48.79793
G1 X119.491 Y183.441 E48.99939
G1 X94.210 Y168.844 E51.91223
G1 X93.252 Y167.187 E52.10321
G1 X93.200 Y167.098 E52.11349
G1 X93.200 Y137.903 E55.02658
G1 X94.155 Y136.249 E55.21715
G1 X94.210 Y136.156 E55.22793
G1 X119.491 Y121.559 E58.14077
G1 X121.510 Y121.559 E58.34223
G1 X146.792 Y136.157 E61.25520
G1 X147.747 Y137.810 E61.44569
G0 F12000 X148.400 Y137.744
;TYPE:WALL-OUTER
G1 F1800 X148.400 Y167.256 E64.39041
G1 X147.230 Y169.282 E64.62385
G1 X121.669 Y184.041 E67.56897
G1 X119.332 Y184.041 E67.80215
G1 X93.771 Y169.282 E70.74727
G1 X92.600 Y167.256 E70.98076
G1 X92.600 Y137.744 E73.92548
G1 X93.771 Y135.718 E74.15897
G1 X119.332 Y120.959 E77.10409
G1 X121.669 Y120.959 E77.33728
G1 X147.230 Y135.718 E80.28239
G1 X148.400 Y137.744 E80.51584
G1 F2100 E80.11584
G1 Z0.800
G0 F12000 X147.000 Y136.938
;TYPE:SKIN
G1 Z0.400
G1 F2100 E80.51584
G1 F1800 X147.000 Y168.061 E83.62130
G0 F12000 X146.400 Y168.827
G1 F1800 X146.400 Y136.174 E86.87943
G0 F12000 X145.800 Y135.828
G1 F1800 X145.800 Y169.174 E90.20671
G0 F12000 X145.200 Y169.520
G1 F1800 X145.200 Y135.481 E93.60313
G0 F12000 X144.600 Y135.135
G1 F1800 X144.600 Y169.867 E97.06871
G0 F12000 X144.000 Y170.213
G1 F1800 X144.000 Y134.788 E100.60343
G0 F12000 X143.400 Y134.442
G1 F1800 X143.400 Y170.560 E104.20730
G0 F12000 X142.800 Y170.906
G1 F1800 X142.800 Y134.095 E107.88031
G0 F12000 X142.200 Y133.749
G1 F1800 X142.200 Y171.252 E111.62238
G0 F12000 X141.600 Y171.599
G1 F1800 X141.600 Y133.403 E115.43359
G0 F12000 X141.000 Y133.056
G1 F1800 X141.000 Y171.945 E119.31395
G0 F12000 X140.400 Y172.292
G1 F1800 X140.400 Y132.710 E123.26346
G0 F12000 X139.800 Y132.363
G1 F1800 X139.800 Y172.638 E127.28211
G0 F12000 X139.200 Y172.985
G1 F1800 X139.200 Y132.017 E131.36992
G0 F12000 X138.600 Y131.670
G1 F1800 X138.600 Y173.331 E135.52687
G0 F12000 X138.000 Y173.677
G1 F1800 X138.000 Y131.324 E139.75287
G0 F12000 X137.400 Y130.977
G1 F1800 X137.400 Y174.024 E144.04811
G0 F12000 X136.800 Y174.370
G1 F1800 X136.800 Y130.631 E148.41241
G0 F12000 X136.200 Y130.285
G1 F1800 X136.200 Y174.717 E152.84585
G0 F12000 X135.600 Y175.063
G1 F1800 X135.600 Y129.938 E157.34844
G0 F12000 X135.000 Y129.592
G1 F1800 X135.000 Y175.410 E161.92018
G0 F12000 X134.400 Y175.756
G1 F1800 X134.400 Y129.245 E166.56107
G0 F12000 X133.800 Y128.899
G1 F1800 X133.800 Y176.102 E171.27100
G0 F12000 X133.200 Y176.449
G1 F1800 X133.200 Y128.552 E176.05019
G0 F12000 X132.600 Y128.206
G1 F1800 X132.600 Y176.795 E180.89842
G0 F12000 X132.000 Y177.142
G1 F1800 X132.000 Y127.859 E185.81589
G0 F12000 X131.400 Y127.513
G1 F1800 X131.400 Y177.488 E190.80242
G0 F12000 X130.800 Y177.835
G1 F1800 X130.800 Y127.167 E195.85809
G0 F12000 X130.200 Y126.820
G1 F1800 X130.200 Y178.181 E200.98291
G0 F12000 X129.600 Y178.528
G1 F1800 X129.600 Y126.474 E206.17688
G0 F12000 X129.000 Y126.127
G1 F1800 X129.000 Y178.874 E211.44000
G0 F12000 X128.400 Y179.220
G1 F1800 X128.400 Y125.781 E216.77217
G0 F12000 X127.800 Y125.434
G1 F1800 X127.800 Y179.567 E222.17358
G0 F12000 X127.200 Y179.913
G1 F1800 X127.200 Y125.088 E227.64404
G0 F12000 X126.600 Y124.741
G1 F1800 X126.600 Y180.260 E233.18375
G0 F12000 X126.000 Y180.606
G1 F1800 X126.000 Y124.395 E238.79250
G0 F12000 X125.400 Y124.049
G1 F1800 X125.400 Y180.953 E244.47041
G0 F12000 X124.800 Y181.299
G1 F1800 X124.800 Y123.702 E250.21746
G0 F12000 X124.200 Y123.356
G1 F1800 X124.200 Y181.645 E256.03356
G0 F12000 X123.600 Y181.992
G1 F1800 X123.600 Y123.009 E261.91891
G0 F12000 X123.000 Y122.663
G1 F1800 X123.000 Y182.338 E267.87330
G0 F12000 X122.400 Y182.685
G1 F1800 X122.400 Y122.316 E273.89695
G0 F12000 X121.800 Y121.970
G1 F1800 X121.800 Y183.031 E279.98964
G0 F12000 X121.200 Y183.231
G1 F1800 X121.200 Y121.769 E286.12234
G0 F12000 X120.600 Y121.769
G1 F1800 X120.600 Y183.231 E292.25504
G0 F12000 X120.000 Y183.231
G1 F1800 X120.000 Y121.769 E298.38775
G0 F12000 X119.400 Y121.854
G1 F1800 X119.400 Y183.145 E304.50339
G0 F12000 X118.800 Y182.799
G1 F1800 X118.800 Y122.200 E310.54998
G0 F12000 X118.200 Y122.547
G1 F1800 X118.200 Y182.452 E316.52733
G0 F12000 X117.600 Y182.106
G1 F1800 X117.600 Y122.893 E322.43562
G0 F12000 X117.000 Y123.240
G1 F1800 X117.000 Y181.759 E328.27467
G0 F12000 X116.400 Y181.413
G1 F1800 X116.400 Y123.586 E334.04467
G0 F12000 X115.800 Y123.933
G1 F1800 X115.800 Y181.066 E339.74543
G0 F12000 X115.200 Y180.720
G1 F1800 X115.200 Y124.279 E345.37713
G0 F12000 X114.600 Y124.626
G1 F1800 X114.600 Y180.374 E350.93969
G0 F12000 X114.000 Y180.027
G1 F1800 X114.000 Y124.972 E356.43310
G0 F12000 X113.400 Y125.318
G1 F1800 X113.400 Y179.681 E361.85746
G0 F12000 X112.800 Y179.334
G1 F1800 X112.800 Y125.665 E367.21258
G0 F12000 X112.200 Y126.011
G1 F1800 X112.200 Y178.988 E372.49865
G0 F12000 X111.600 Y178.641
G1 F1800 X111.600 Y126.358 E377.71546
G0 F12000 X111.000 Y126.704
G1 F1800 X111.000 Y178.295 E382.86324
G0 F12000 X110.400 Y177.949
G1 F1800 X110.400 Y127.051 E387.94186
G0 F12000 X109.800 Y127.397
G1 F1800 X109.800 Y177.602 E392.95133
G0 F12000 X109.200 Y177.256
G1 F1800 X109.200 Y127.744 E397.89166
G0 F12000 X108.600 Y128.090
G1 F1800 X108.600 Y176.909 E402.76284
G0 F12000 X108.000 Y176.563
G1 F1800 X108.000 Y128.436 E407.56497
G0 F12000 X107.400 Y128.783
G1 F1800 X107.400 Y176.216 E412.29786
G0 F12000 X106.800 Y175.870
G1 F1800 X106.800 Y129.129 E416.96169
G0 F12000 X106.200 Y129.476
G1 F1800 X106.200 Y175.523 E421.55628
G0 F12000 X105.600 Y175.177
G1 F1800 X105.600 Y129.822 E426.08182
G0 F12000 X105.000 Y130.169
G1 F1800 X105.000 Y174.831 E430.53821
G0 F12000 X104.400 Y174.484
G1 F1800 X104.400 Y130.515 E434.92546
G0 F12000 X103.800 Y130.862
G1 F1800 X103.800 Y174.138 E439.24355
G0 F12000 X103.200 Y173.791
G1 F1800 X103.200 Y131.208 E443.49250
G0 F12000 X102.600 Y131.554
G1 F1800 X102.600 Y173.445 E447.67240
G0 F12000 X102.000 Y173.098
G1 F1800 X102.000 Y131.901 E451.78306
G0 F12000 X101.400 Y132.247
G1 F1800 X101.400 Y172.752 E455.82466
G0 F12000 X100.800 Y172.406
G1 F1800 X100.800 Y132.594 E459.79712
G0 F12000 X100.200 Y132.940
G1 F1800 X100.200 Y172.059 E463.70043
G0 F12000 X99.600 Y171.713
G1 F1800 X99.600 Y133.287 E467.53459
G0 F12000 X99.000 Y133.633
G1 F1800 X99.000 Y171.366 E471.29961
G0 F12000 X98.400 Y171.020
G1 F1800 X98.400 Y133.980 E474.99547
G0 F12000 X97.800 Y134.326
G1 F1800 X97.800 Y170.673 E478.62219
G0 F12000 X97.200 Y170.327
G1 F1800 X97.200 Y134.672 E482.17986
G0 F12000 X96.600 Y135.019
G1 F1800 X96.600 Y169.981 E485.66838
G0 F12000 X96.000 Y169.634
G1 F1800 X96.000 Y135.365 E489.08776
G0 F12000 X95.400 Y135.712
G1 F1800 X95.400 Y169.288 E492.43799
G0 F12000 X94.800 Y168.941
G1 F1800 X94.800 Y136.058 E495.71906
G0 F12000 X94.200 Y136.590
G1 F1800 X94.200 Y168.406 E498.89368
G0 F12000 X93.600 Y167.369
G1 F1800 X93.600 Y137.630 E501.86105
G1 F2100 E501.46105
G1 Z0.800
G0 F12000 X157.200 Y137.905
;TYPE:WALL-INNER
G1 Z0.400
G1 F2100 E501.86105
G1 F1800 X158.155 Y136.250 E502.05170
G1 X158.209 Y136.156 E502.06252
G1 X183.490 Y121.559 E504.97536
G1 X185.509 Y121.559 E505.17682
G1 X210.790 Y136.156 E508.08965
G1 X211.748 Y137.813 E508.28063
G1 X211.800 Y137.902 E508.29092
G1 X211.800 Y167.097 E511.20401
G1 X210.845 Y168.751 E511.39458
G1 X210.790 Y168.844 E511.40536
G1 X185.509 Y183.441 E514.31820
G1 X183.490 Y183.441 E514.51966
G1 X158.208 Y168.843 E517.43263
G1 X157.252 Y167.188 E517.62334
G1 X157.200 Y167.098 E517.63371
G1 X157.200 Y137.905 E520.54660
G0 F12000 X156.600 Y137.744
;TYPE:WALL-OUTER
G1 F1800 X157.770 Y135.718 E520.78004
G1 X183.331 Y120.959 E523.72516
G1 X185.668 Y120.959 E523.95834
G1 X211.229 Y135.718 E526.90346
G1 X212.400 Y137.744 E527.13695
G1 X212.400 Y167.256 E530.08167
G1 X211.229 Y169.282 E530.31517
G1 X185.668 Y184.041 E533.26028
G1 X183.331 Y184.041 E533.49347
G1 X157.770 Y169.282 E536.43858
G1 X156.600 Y167.256 E536.67203
G1 X156.600 Y137.744 E539.61675
G0 F12000 X157.800 Y137.285
;TYPE:SKIN
G1 F1800 X157.800 Y167.716 E542.65316
G0 F12000 X158.400 Y168.710
G1 F1800 X158.400 Y136.288 E545.88824
G0 F12000 X159.000 Y135.942
G1 F1800 X159.000 Y169.057 E549.19247
G0 F12000 X159.600 Y169.403
G1 F1800 X159.600 Y135.595 E552.56585
G0 F12000 X160.200 Y135.249
G1 F1800 X160.200 Y169.750 E556.00837
G0 F12000 X160.800 Y170.096
G1 F1800 X160.800 Y134.902 E559.52004
G0 F12000 X161.400 Y134.556
G1 F1800 X161.400 Y170.443 E563.10086
G0 F12000 X162.000 Y170.789
G1 F1800 X162.000 Y134.210 E566.75073
G0 F12000 X162.600 Y133.863
G1 F1800 X162.600 Y171.136 E570.46985
G0 F12000 X163.200 Y171.482
G1 F1800 X163.200 Y133.517 E574.25801
G0 F12000 X163.800 Y133.170
G1 F1800 X163.800 Y171.828 E578.11532
G0 F12000 X164.400 Y172.175
G1 F1800 X164.400 Y132.824 E582.04178
G0 F12000 X165.000 Y132.477
G1 F1800 X165.000 Y172.521 E586.03739
G0 F12000 X165.600 Y172.868
G1 F1800 X165.600 Y132.131 E590.10214
G0 F12000 X166.200 Y131.784
G1 F1800 X166.200 Y173.214 E594.23604
G0 F12000 X166.800 Y173.561
G1 F1800 X166.800 Y131.438 E598.43909
G0 F12000 X167.400 Y131.092
G1 F1800 X167.400 Y173.907 E602.71119
G0 F12000 X168.000 Y174.254
G1 F1800 X168.000 Y130.745 E607.05254
G0 F12000 X168.600 Y130.399
G1 F1800 X168.600 Y174.600 E611.46293
G0 F12000 X169.200 Y174.946
G1 F1800 X169.200 Y130.052 E615.94247
G0 F12000 X169.800 Y129.706
G1 F1800 X169.800 Y175.293 E620.49116
G0 F12000 X170.400 Y175.639
G1 F1800 X170.400 Y129.359 E625.10900
G0 F12000 X171.000 Y129.013
G1 F1800 X171.000 Y175.986 E629.79598
G0 F12000 X171.600 Y176.332
G1 F1800 X171.600 Y128.667 E634.55201
G0 F12000 X172.200 Y128.320
G1 F1800 X172.200 Y176.679 E639.37730
G0 F12000 X172.800 Y177.025
G1 F1800 X172.800 Y127.974 E644.27162
G0 F12000 X173.400 Y127.627
G1 F1800 X173.400 Y177.372 E649.23520
G0 F12000 X174.000 Y177.718
G1 F1800 X174.000 Y127.281 E654.26782
G0 F12000 X174.600 Y126.934
G1 F1800 X174.600 Y178.064 E659.36960
G0 F12000 X175.200 Y178.411
G1 F1800 X175.200 Y126.588 E664.54052
G0 F12000 X175.800 Y126.242
G1 F1800 X175.800 Y178.757 E669.78048
G0 F12000 X176.400 Y179.104
G1 F1800 X176.400 Y125.895 E675.08970
G0 F12000 X177.000 Y125.549
G1 F1800 X177.000 Y179.450 E680.46796
G0 F12000 X177.600 Y179.797
G1 F1800 X177.600 Y125.202 E685.91548
G0 F12000 X178.200 Y124.856
G1 F1800 X178.200 Y180.143 E691.43203
G0 F12000 X178.800 Y180.490
G1 F1800 X178.800 Y124.509 E697.01784
G0 F12000 X179.400 Y124.163
G1 F1800 X179.400 Y180.836 E702.67270
G0 F12000 X180.000 Y181.182
G1 F1800 X180.000 Y123.817 E708.39660
G0 F12000 X180.600 Y123.470
G1 F1800 X180.600 Y181.529 E714.18975
G0 F12000 X181.200 Y181.875
G1 F1800 X181.200 Y123.124 E720.05195
G0 F12000 X181.800 Y122.777
G1 F1800 X181.800 Y182.222 E725.98339
G0 F12000 X182.400 Y182.568
G1 F1800 X182.400 Y122.431 E731.98389
G0 F12000 X183.000 Y122.084
G1 F1800 X183.000 Y182.915 E738.05363
G0 F12000 X183.600 Y183.231
G1 F1800 X183.600 Y121.769 E744.18633
G0 F12000 X184.200 Y121.769
G1 F1800 X184.200 Y183.231 E750.31904
G0 F12000 X184.800 Y183.231
G1 F1800 X184.800 Y121.769 E756.45174
G0 F12000 X185.400 Y121.769
G1 F1800 X185.400 Y183.231 E762.58444
G0 F12000 X186.000 Y182.915
G1 F1800 X186.000 Y122.086 E768.65399
G0 F12000 X186.600 Y122.432
G1 F1800 X186.600 Y182.569 E774.65448
G0 F12000 X187.200 Y182.222
G1 F1800 X187.200 Y122.779 E780.58573
G0 F12000 X187.800 Y123.125
G1 F1800 X187.800 Y181.876 E786.44793
G0 F12000 X188.400 Y181.529
G1 F1800 X188.400 Y123.472 E792.24088
G0 F12000 X189.000 Y123.818
G1 F1800 X189.000 Y181.183 E797.96478
G0 F12000 X189.600 Y180.836
G1 F1800 X189.600 Y124.165 E803.61943
G0 F12000 X190.200 Y124.511
G1 F1800 X190.200 Y180.490 E809.20504
G0 F12000 X190.800 Y180.144
G1 F1800 X190.800 Y124.857 E814.72160
G0 F12000 X191.400 Y125.204
G1 F1800 X191.400 Y179.797 E820.16891
G0 F12000 X192.000 Y179.451
G1 F1800 X192.000 Y125.550 E825.54718
G0 F12000 X192.600 Y125.897
G1 F1800 X192.600 Y179.104 E830.85619
G0 F12000 X193.200 Y178.758
G1 F1800 X193.200 Y126.243 E836.09616
G0 F12000 X193.800 Y126.590
G1 F1800 X193.800 Y178.411 E841.26688
G0 F12000 X194.400 Y178.065
G1 F1800 X194.400 Y126.936 E846.36855
G0 F12000 X195.000 Y127.282
G1 F1800 X195.000 Y177.718 E851.40108
G0 F12000 X195.600 Y177.372
G1 F1800 X195.600 Y127.629 E856.36445
G0 F12000 X196.200 Y127.975
G1 F1800 X196.200 Y177.026 E861.25878
G0 F12000 X196.800 Y176.679
G1 F1800 X196.800 Y128.322 E866.08386
G0 F12000 X197.400 Y128.668
G1 F1800 X197.400 Y176.333 E870.83990
G0 F12000 X198.000 Y175.986
G1 F1800 X198.000 Y129.015 E875.52668
G0 F12000 X198.600 Y129.361
G1 F1800 X198.600 Y175.640 E880.14442
G0 F12000 X199.200 Y175.293
G1 F1800 X199.200 Y129.707 E884.69301
G0 F12000 X199.800 Y130.054
G1 F1800 X199.800 Y174.947 E889.17245
G0 F12000 X200.400 Y174.600
G1 F1800 X200.400 Y130.400 E893.58274
G0 F12000 X201.000 Y130.747
G1 F1800 X201.000 Y174.254 E897.92389
G0 F12000 X201.600 Y173.908
G1 F1800 X201.600 Y131.093 E902.19599
G0 F12000 X202.200 Y131.440
G1 F1800 X202.200 Y173.561 E906.39884
G0 F12000 X202.800 Y173.215
G1 F1800 X202.800 Y131.786 E910.53264
G0 F12000 X203.400 Y132.133
G1 F1800 X203.400 Y172.868 E914.59720
G0 F12000 X204.000 Y172.522
G1 F1800 X204.000 Y132.479 E918.59270
G0 F12000 X204.600 Y132.825
G1 F1800 X204.600 Y172.175 E922.51906
G0 F12000 X205.200 Y171.829
G1 F1800 X205.200 Y133.172 E926.37627
G0 F12000 X205.800 Y133.518
G1 F1800 X205.800 Y171.482 E930.16434
G0 F12000 X206.400 Y171.136
G1 F1800 X206.400 Y133.865 E933.88325
G0 F12000 X207.000 Y134.211
G1 F1800 X207.000 Y170.790 E937.53312
G0 F12000 X207.600 Y170.443
G1 F1800 X207.600 Y134.558 E941.11374
G0 F12000 X208.200 Y134.904
G1 F1800 X208.200 Y170.097 E944.62531
G0 F12000 X208.800 Y169.750
G1 F1800 X208.800 Y135.250 E948.06774
G0 F12000 X209.400 Y135.597
G1 F1800 X209.400 Y169.404 E951.44101
G0 F12000 X210.000 Y169.057
G1 F1800 X210.000 Y135.943 E954.74514
G0 F12000 X210.600 Y136.290
G1 F1800 X210.600 Y168.711 E957.98012
G0 F12000 X211.200 Y167.717
G1 F1800 X211.200 Y137.285 E961.01664
;LAYER:1
M106 S20
G1 F2100 E960.61664
G1 Z0.800
G0 F12000 X148.200 Y137.797 Z0.800
;TYPE:WALL-INNER
G1 Z0.800
G1 F2100 E961.01664
G1 F1980 X148.200 Y167.202 E963.95068
G1 X147.083 Y169.137 E964.17362
G1 X121.617 Y183.841 E967.10778
G1 X119.384 Y183.841 E967.33059
G1 X93.917 Y169.137 E970.26484
G1 X93.198 Y167.894 E970.40812
G1 X92.800 Y167.203 E970.48769
G1 X92.800 Y137.798 E973.42173
G1 X93.516 Y136.556 E973.56477
G1 X93.917 Y135.863 E973.64466
G1 X119.384 Y121.159 E976.57891
G1 X121.617 Y121.159 E976.80172
G1 X147.085 Y135.864 E979.73611
G1 X147.801 Y137.104 E979.87898
G1 X148.200 Y137.797 E979.95877
G0 F12000 X148.800 Y137.637
;TYPE:WALL-OUTER
G1 F1980 X148.800 Y167.363 E982.92484
G1 X147.523 Y169.575 E983.17970
G1 X121.776 Y184.441 E986.14623
G1 X119.225 Y184.441 E986.40076
G1 X93.478 Y169.575 E989.36729
G1 X92.200 Y167.363 E989.62220
G1 X92.200 Y137.637 E992.58827
G1 X93.478 Y135.425 E992.84317
G1 X119.225 Y120.559 E995.80970
G1 X121.776 Y120.559 E996.06424
G1 X147.523 Y135.425 E999.03077
G1 X148.800 Y137.637 E999.28562
G0 F12000 X147.989 Y138.000
;TYPE:SKIN
G1 F1980 X93.009 Y138.000 E1004.77155
G0 F12000 X93.009 Y138.600
G1 F1980 X147.989 Y138.600 E1010.25747
G0 F12000 X147.989 Y139.200
G1 F1980 X93.009 Y139.200 E1015.74340
G0 F12000 X93.009 Y139.800
G1 F1980 X147.989 Y139.800 E1021.22933
G1 F2100 E1020.82933
G1 Z1.200
G0 F12000 X147.728 Y137.400
G1 Z0.800
G1 F2100 E1021.22933
G1 F1980 X93.272 Y137.400 E1026.66297
G0 F12000 X93.618 Y136.800
G1 F1980 X147.382 Y136.800 E1032.02756
G0 F12000 X147.036 Y136.200
G1 F1980 X93.964 Y136.200 E1037.32311
G0 F12000 X94.791 Y135.600
G1 F1980 X146.208 Y135.600 E1042.45352
G0 F12000 X145.169 Y135.000
G1 F1980 X95.830 Y135.000 E1047.37658
G0 F12000 X96.869 Y134.400
G1 F1980 X144.130 Y134.400 E1052.09230
G0 F12000 X143.091 Y133.800
G1 F1980 X97.909 Y133.800 E1056.60058
G0 F12000 X98.948 Y133.200
G1 F1980 X142.052 Y133.200 E1060.90152
G0 F12000 X141.013 Y132.600
G1 F1980 X99.987 Y132.600 E1064.99511
G0 F12000 X101.026 Y132.000
G1 F1980 X139.973 Y132.000 E1068.88125
G0 F12000 X138.934 Y131.400
G1 F1980 X102.065 Y131.400 E1072.56006
G0 F12000 X103.104 Y130.800
G1 F1980 X137.895 Y130.800 E1076.03152
G0 F12000 X136.856 Y130.200
G1 F1980 X104.144 Y130.200 E1079.29554
G0 F12000 X105.183 Y129.600
G1 F1980 X135.817 Y129.600 E1082.35221
G0 F12000 X134.778 Y129.000
G1 F1980 X106.222 Y129.000 E1085.20154
G0 F12000 X107.261 Y128.400
G1 F1980 X133.738 Y128.400 E1087.84342
G0 F12000 X132.699 Y127.800
G1 F1980 X108.300 Y127.800 E1090.27797
G0 F12000 X109.340 Y127.200
G1 F1980 X131.660 Y127.200 E1092.50506
G0 F12000 X130.621 Y126.600
G1 F1980 X110.379 Y126.600 E1094.52482
G0 F12000 X111.418 Y126.000
G1 F1980 X129.582 Y126.000 E1096.33723
G0 F12000 X128.543 Y125.400
G1 F1980 X112.457 Y125.400 E1097.94230
G0 F12000 X113.496 Y124.800
G1 F1980 X127.503 Y124.800 E1099.33992
G0 F12000 X126.464 Y124.200
G1 F1980 X114.536 Y124.200 E1100.53010
G0 F12000 X115.575 Y123.600
G1 F1980 X125.425 Y123.600 E1101.51294
G0 F12000 X124.386 Y123.000
G1 F1980 X116.614 Y123.000 E1102.28843
G0 F12000 X117.653 Y122.400
G1 F1980 X123.347 Y122.400 E1102.85658
G0 F12000 X122.308 Y121.800
G1 F1980 X118.692 Y121.800 E1103.21739
G1 F2100 E1102.81739
G1 Z1.200
G0 F12000 X93.009 Y140.400
G1 Z0.800
G1 F2100 E1103.21739
G1 F1980 X147.989 Y140.400 E1108.70331
G0 F12000 X147.989 Y141.000
G1 F1980 X93.009 Y141.000 E1114.18924
G0 F12000 X93.009 Y141.600
G1 F1980 X147.989 Y141.600 E1119.67517
G0 F12000 X147.989 Y142.200
G1 F1980 X93.009 Y142.200 E1125.16109
G0 F12000 X93.009 Y142.800
G1 F1980 X147.989 Y142.800 E1130.64702
G0 F12000 X147.989 Y143.400
G1 F1980 X93.009 Y143.400 E1136.13295
G0 F12000 X93.009 Y144.000
G1 F1980 X147.989 Y144.000 E1141.61888
G0 F12000 X147.989 Y144.600
G1 F1980 X93.009 Y144.600 E1147.10480
G0 F12000 X93.009 Y145.200
G1 F1980 X147.989 Y145.200 E1152.59073
G0 F12000 X147.989 Y145.800
G1 F1980 X93.009 Y145.800 E1158.07666
G0 F12000 X93.009 Y146.400
G1 F1980 X147.989 Y146.400 E1163.56258
G0 F12000 X147.989 Y147.000
G1 F1980 X93.009 Y147.000 E1169.04851
G0 F12000 X93.009 Y147.600
G1 F1980 X147.989 Y147.600 E1174.53444
G0 F12000 X147.989 Y148.200
G1 F1980 X93.009 Y148.200 E1180.02036
G0 F12000 X93.009 Y148.800
G1 F1980 X147.989 Y148.800 E1185.50629
G0 F12000 X147.989 Y149.400
G1 F1980 X93.009 Y149.400 E1190.99222
G0 F12000 X93.009 Y150.000
G1 F1980 X147.989 Y150.000 E1196.47814
G0 F12000 X147.989 Y150.600
G1 F1980 X93.009 Y150.600 E1201.96407
G0 F12000 X93.009 Y151.200
G1 F1980 X147.989 Y151.200 E1207.45000
G0 F12000 X147.989 Y151.800
G1 F1980 X93.009 Y151.800 E1212.93592
G0 F12000 X93.009 Y152.400
G1 F1980 X147.989 Y152.400 E1218.42185
G0 F12000 X147.989 Y153.000
G1 F1980 X93.009 Y153.000 E1223.90778
G0 F12000 X93.009 Y153.600
G1 F1980 X147.989 Y153.600 E1229.39370
G0 F12000 X147.989 Y154.200
G1 F1980 X93.009 Y154.200 E1234.87963
G0 F12000 X93.009 Y154.800
G1 F1980 X147.989 Y154.800 E1240.36556
G0 F12000 X147.989 Y155.400
G1 F1980 X93.009 Y155.400 E1245.85148
G0 F12000 X93.009 Y156.000
G1 F1980 X147.989 Y156.000 E1251.33741
G0 F12000 X147.989 Y156.600
G1 F1980 X93.009 Y156.600 E1256.82334
G0 F12000 X93.009 Y157.200
G1 F1980 X147.989 Y157.200 E1262.30926
G0 F12000 X147.989 Y157.800
G1 F1980 X93.009 Y157.800 E1267.79519
G0 F12000 X93.009 Y158.400
G1 F1980 X147.989 Y158.400 E1273.28112
G0 F12000 X147.989 Y159.000
G1 F1980 X93.009 Y159.000 E1278.76704
G0 F12000 X93.009 Y159.600
G1 F1980 X147.989 Y159.600 E1284.25297
G0 F12000 X147.989 Y160.200
G1 F1980 X93.009 Y160.200 E1289.73890
G0 F12000 X93.009 Y160.800
G1 F1980 X147.989 Y160.800 E1295.22482
G0 F12000 X147.989 Y161.400
G1 F1980 X93.009 Y161.400 E1300.71075
G0 F12000 X93.009 Y162.000
G1 F1980 X147.989 Y162.000 E1306.19668
G0 F12000 X147.989 Y162.600
G1 F1980 X93.009 Y162.600 E1311.68260
G0 F12000 X93.009 Y163.200
G1 F1980 X147.989 Y163.200 E1317.16853
G0 F12000 X147.989 Y163.800
G1 F1980 X93.009 Y163.800 E1322.65446
G0 F12000 X93.009 Y164.400
G1 F1980 X147.989 Y164.400 E1328.14038
G0 F12000 X147.989 Y165.000
G1 F1980 X93.009 Y165.000 E1333.62631
G0 F12000 X93.009 Y165.600
G1 F1980 X147.989 Y165.600 E1339.11224
G0 F12000 X147.989 Y166.200
G1 F1980 X93.009 Y166.200 E1344.59816
G0 F12000 X93.009 Y166.800
G1 F1980 X147.989 Y166.800 E1350.08409
G0 F12000 X147.841 Y167.400
G1 F1980 X93.156 Y167.400 E1355.54058
G0 F12000 X93.502 Y168.000
G1 F1980 X147.494 Y168.000 E1360.92792
G0 F12000 X147.148 Y168.600
G1 F1980 X93.849 Y168.600 E1366.24612
G0 F12000 X94.447 Y169.200
G1 F1980 X146.550 Y169.200 E1371.44498
G0 F12000 X145.511 Y169.800
G1 F1980 X95.486 Y169.800 E1376.43649
G0 F12000 X96.525 Y170.400
G1 F1980 X144.472 Y170.400 E1381.22066
G0 F12000 X143.433 Y171.000
G1 F1980 X97.565 Y171.000 E1385.79739
G0 F12000 X98.604 Y171.600
G1 F1980 X142.393 Y171.600 E1390.16668
G0 F12000 X141.354 Y172.200
G1 F1980 X99.643 Y172.200 E1394.32862
G0 F12000 X100.682 Y172.800
G1 F1980 X140.315 Y172.800 E1398.28321
G0 F12000 X139.276 Y173.400
G1 F1980 X101.721 Y173.400 E1402.03047
G0 F12000 X102.761 Y174.000
G1 F1980 X138.237 Y174.000 E1405.57028
G0 F12000 X137.198 Y174.600
G1 F1980 X103.800 Y174.600 E1408.90274
G0 F12000 X104.839 Y175.200
G1 F1980 X136.158 Y175.200 E1412.02776
G0 F12000 X135.119 Y175.800
G1 F1980 X105.878 Y175.800 E1414.94544
G0 F12000 X106.917 Y176.400
G1 F1980 X134.080 Y176.400 E1417.65578
G0 F12000 X133.041 Y177.000
G1 F1980 X107.956 Y177.000 E1420.15877
G0 F12000 X108.996 Y177.600
G1 F1980 X132.002 Y177.600 E1422.45432
G0 F12000 X130.963 Y178.200
G1 F1980 X110.035 Y178.200 E1424.54252
G0 F12000 X111.074 Y178.800
G1 F1980 X129.924 Y178.800 E1426.42338
G0 F12000 X128.884 Y179.400
G1 F1980 X112.113 Y179.400 E1428.09680
G0 F12000 X113.152 Y180.000
G1 F1980 X127.845 Y180.000 E1429.56287
G0 F12000 X126.806 Y180.600
G1 F1980 X114.192 Y180.600 E1430.82150
G0 F12000 X115.231 Y181.200
G1 F1980 X125.767 Y181.200 E1431.87279
G0 F12000 X124.728 Y181.800
G1 F1980 X116.270 Y181.800 E1432.71673
G0 F12000 X117.309 Y182.400
G1 F1980 X123.689 Y182.400 E1433.35333
G0 F12000 X122.650 Y183.000
G1 F1980 X118.348 Y183.000 E1433.78259
G0 F12000 X119.388 Y183.600
G1 F1980 X121.610 Y183.600 E1434.00430
G1 F2100 E1433.60430
G1 Z1.200
G0 F12000 X156.800 Y167.203
;TYPE:WALL-INNER
G1 Z0.800
G1 F2100 E1434.00430
G1 F1980 X156.800 Y137.798 E1436.93834
G1 X157.917 Y135.863 E1437.16128
G1 X183.383 Y121.159 E1440.09544
G1 X185.616 Y121.159 E1440.31825
G1 X211.083 Y135.863 E1443.25250
G1 X211.801 Y137.104 E1443.39556
G1 X212.200 Y137.797 E1443.47535
G1 X212.200 Y167.202 E1446.40939
G1 X211.484 Y168.444 E1446.55244
G1 X211.083 Y169.137 E1446.63233
G1 X185.616 Y183.841 E1449.56657
G1 X183.383 Y183.841 E1449.78938
G1 X157.915 Y169.136 E1452.72377
G1 X157.198 Y167.895 E1452.86678
G1 X156.800 Y167.203 E1452.94643
G0 F12000 X156.200 Y167.363
;TYPE:WALL-OUTER
G1 F1980 X156.200 Y137.637 E1455.91251
G1 X157.477 Y135.425 E1456.16736
G1 X183.224 Y120.559 E1459.13389
G1 X185.775 Y120.559 E1459.38843
G1 X211.522 Y135.425 E1462.35495
G1 X212.800 Y137.637 E1462.60986
G1 X212.800 Y167.363 E1465.57593
G1 X211.522 Y169.575 E1465.83083
G1 X185.775 Y184.441 E1468.79736
G1 X183.224 Y184.441 E1469.05190
G1 X157.477 Y169.575 E1472.01843
G1 X156.200 Y167.363 E1472.27328
G0 F12000 X157.156 Y167.400
;TYPE:SKIN
G1 F1980 X211.841 Y167.400 E1477.72977
G0 F12000 X211.989 Y166.800
G1 F1980 X157.009 Y166.800 E1483.21570
G0 F12000 X157.009 Y166.200
G1 F1980 X211.989 Y166.200 E1488.70163
G0 F12000 X211.989 Y165.600
G1 F1980 X157.009 Y165.600 E1494.18755
G0 F12000 X157.009 Y165.000
G1 F1980 X211.989 Y165.000 E1499.67348
G0 F12000 X211.989 Y164.400
G1 F1980 X157.009 Y164.400 E1505.15941
G0 F12000 X157.009 Y163.800
G1 F1980 X211.989 Y163.800 E1510.64533
G0 F12000 X211.989 Y163.200
G1 F1980 X157.009 Y163.200 E1516.13126
G0 F12000 X157.009 Y162.600
G1 F1980 X211.989 Y162.600 E1521.61719
G0 F12000 X211.989 Y162.000
G1 F1980 X157.009 Y162.000 E1527.10311
G0 F12000 X157.009 Y161.400
G1 F1980 X211.989 Y161.400 E1532.58904
G0 F12000 X211.989 Y160.800
G1 F1980 X157.009 Y160.800 E1538.07497
G0 F12000 X157.009 Y160.200
G1 F1980 X211.989 Y160.200 E1543.56089
G1 F2100 E1543.16089
G1 Z1.200
G0 F12000 X211.494 Y168.000
G1 Z0.800
G1 F2100 E1543.56089
G1 F1980 X157.502 Y168.000 E1548.94824
G0 F12000 X157.848 Y168.600
G1 F1980 X211.148 Y168.600 E1554.26653
G0 F12000 X210.550 Y169.200
G1 F1980 X158.447 Y169.200 E1559.46539
G0 F12000 X159.486 Y169.800
G1 F1980 X209.511 Y169.800 E1564.45690
G0 F12000 X208.472 Y170.400
G1 F1980 X160.525 Y170.400 E1569.24108
G0 F12000 X161.564 Y171.000
G1 F1980 X207.432 Y171.000 E1573.81780
G0 F12000 X206.393 Y171.600
G1 F1980 X162.603 Y171.600 E1578.18719
G0 F12000 X163.643 Y172.200
G1 F1980 X205.354 Y172.200 E1582.34913
G0 F12000 X204.315 Y172.800
G1 F1980 X164.682 Y172.800 E1586.30372
G0 F12000 X165.721 Y173.400
G1 F1980 X203.276 Y173.400 E1590.05098
G0 F12000 X202.236 Y174.000
G1 F1980 X166.760 Y174.000 E1593.59079
G0 F12000 X167.799 Y174.600
G1 F1980 X201.197 Y174.600 E1596.92325
G0 F12000 X200.158 Y175.200
G1 F1980 X168.838 Y175.200 E1600.04838
G0 F12000 X169.878 Y175.800
G1 F1980 X199.119 Y175.800 E1602.96605
G0 F12000 X198.080 Y176.400
G1 F1980 X170.917 Y176.400 E1605.67639
G0 F12000 X171.956 Y177.000
G1 F1980 X197.041 Y177.000 E1608.17938
G0 F12000 X196.001 Y177.600
G1 F1980 X172.995 Y177.600 E1610.47493
G0 F12000 X174.034 Y178.200
G1 F1980 X194.962 Y178.200 E1612.56313
G0 F12000 X193.923 Y178.800
G1 F1980 X175.073 Y178.800 E1614.44399
G0 F12000 X176.112 Y179.400
G1 F1980 X192.884 Y179.400 E1616.11751
G0 F12000 X191.845 Y180.000
G1 F1980 X177.152 Y180.000 E1617.58358
G0 F12000 X178.191 Y180.600
G1 F1980 X190.805 Y180.600 E1618.84221
G0 F12000 X189.766 Y181.200
G1 F1980 X179.230 Y181.200 E1619.89350
G0 F12000 X180.269 Y181.800
G1 F1980 X188.727 Y181.800 E1620.73744
G0 F12000 X187.688 Y182.400
G1 F1980 X181.308 Y182.400 E1621.37404
G0 F12000 X182.347 Y183.000
G1 F1980 X186.649 Y183.000 E1621.80330
G0 F12000 X185.609 Y183.600
G1 F1980 X183.387 Y183.600 E1622.02501
G1 F2100 E1621.62501
G1 Z1.200
G0 F12000 X157.009 Y159.600
G1 Z0.800
G1 F2100 E1622.02501
G1 F1980 X211.989 Y159.600 E1627.51094
G0 F12000 X211.989 Y159.000
G1 F1980 X157.009 Y159.000 E1632.99686
G0 F12000 X157.009 Y158.400
G1 F1980 X211.989 Y158.400 E1638.48279
G0 F12000 X211.989 Y157.800
G1 F1980 X157.009 Y157.800 E1643.96872
G0 F12000 X157.009 Y157.200
G1 F1980 X211.989 Y157.200 E1649.45464
G0 F12000 X211.989 Y156.600
G1 F1980 X157.009 Y156.600 E1654.94057
G0 F12000 X157.009 Y156.000
G1 F1980 X211.989 Y156.000 E1660.42650
G0 F12000 X211.989 Y155.400
G1 F1980 X157.009 Y155.400 E1665.91242
G0 F12000 X157.009 Y154.800
G1 F1980 X211.989 Y154.800 E1671.39835
G0 F12000 X211.989 Y154.200
G1 F1980 X157.009 Y154.200 E1676.88428
G0 F12000 X157.009 Y153.600
G1 F1980 X211.989 Y153.600 E1682.37020
G0 F12000 X211.989 Y153.000
G1 F1980 X157.009 Y153.000 E1687.85613
G0 F12000 X157.009 Y152.400
G1 F1980 X211.989 Y152.400 E1693.34206
G0 F12000 X211.989 Y151.800
G1 F1980 X157.009 Y151.800 E1698.82798
G0 F12000 X157.009 Y151.200
G1 F1980 X211.989 Y151.200 E1704.31391
G0 F12000 X211.989 Y150.600
G1 F1980 X157.009 Y150.600 E1709.79984
G0 F12000 X157.009 Y150.000
G1 F1980 X211.989 Y150.000 E1715.28576
G0 F12000 X211.989 Y149.400
G1 F1980 X157.009 Y149.400 E1720.77169
G0 F12000 X157.009 Y148.800
G1 F1980 X211.989 Y148.800 E1726.25762
G0 F12000 X211.989 Y148.200
G1 F1980 X157.009 Y148.200 E1731.74354
G0 F12000 X157.009 Y147.600
G1 F1980 X211.989 Y147.600 E1737.22947
G0 F12000 X211.989 Y147.000
G1 F1980 X157.009 Y147.000 E1742.71540
G0 F12000 X157.009 Y146.400
G1 F1980 X211.989 Y146.400 E1748.20132
G0 F12000 X211.989 Y145.800
G1 F1980 X157.009 Y145.800 E1753.68725
G0 F12000 X157.009 Y145.200
G1 F1980 X211.989 Y145.200 E1759.17318
G0 F12000 X211.989 Y144.600
G1 F1980 X157.009 Y144.600 E1764.65910
G0 F12000 X157.009 Y144.000
G1 F1980 X211.989 Y144.000 E1770.14503
G0 F12000 X211.989 Y143.400
G1 F1980 X157.009 Y143.400 E1775.63096
G0 F12000 X157.009 Y142.800
G1 F1980 X211.989 Y142.800 E1781.11688
G0 F12000 X211.989 Y142.200
G1 F1980 X157.009 Y142.200 E1786.60281
G0 F12000 X157.009 Y141.600
G1 F1980 X211.989 Y141.600 E1792.08874
G0 F12000 X211.989 Y141.000
G1 F1980 X157.009 Y141.000 E1797.57466
G0 F12000 X157.009 Y140.400
G1 F1980 X211.989 Y140.400 E1803.06059
G0 F12000 X211.989 Y139.800
G1 F1980 X157.009 Y139.800 E1808.54652
G0 F12000 X157.009 Y139.200
G1 F1980 X211.989 Y139.200 E1814.03244
G0 F12000 X211.989 Y138.600
G1 F1980 X157.009 Y138.600 E1819.51837
G0 F12000 X157.009 Y138.000
G1 F1980 X211.989 Y138.000 E1825.00430
G0 F12000 X211.728 Y137.400
G1 F1980 X157.272 Y137.400 E1830.43794
G0 F12000 X157.618 Y136.800
G1 F1980 X211.381 Y136.800 E1835.80243
G0 F12000 X211.035 Y136.200
G1 F1980 X157.964 Y136.200 E1841.09788
G0 F12000 X158.791 Y135.600
G1 F1980 X210.208 Y135.600 E1846.22829
G0 F12000 X209.169 Y135.000
G1 F1980 X159.830 Y135.000 E1851.15135
G0 F12000 X160.869 Y134.400
G1 F1980 X208.130 Y134.400 E1855.86707
G0 F12000 X207.090 Y133.800
G1 F1980 X161.908 Y133.800 E1860.37535
G0 F12000 X162.948 Y133.200
G1 F1980 X206.051 Y133.200 E1864.67619
G0 F12000 X205.012 Y132.600
G1 F1980 X163.987 Y132.600 E1868.76968
G0 F12000 X165.026 Y132.000
G1 F1980 X203.973 Y132.000 E1872.65583
G0 F12000 X202.934 Y131.400
G1 F1980 X166.065 Y131.400 E1876.33463
G0 F12000 X167.104 Y130.800
G1 F1980 X201.895 Y130.800 E1879.80609
G0 F12000 X200.855 Y130.200
G1 F1980 X168.143 Y130.200 E1883.07011
G0 F12000 X169.182 Y129.600
G1 F1980 X199.816 Y129.600 E1886.12678
G0 F12000 X198.777 Y129.000
G1 F1980 X170.222 Y129.000 E1888.97601
G0 F12000 X171.261 Y128.400
G1 F1980 X197.738 Y128.400 E1891.61789
G0 F12000 X196.699 Y127.800
G1 F1980 X172.300 Y127.800 E1894.05244
G0 F12000 X173.339 Y127.200
G1 F1980 X195.659 Y127.200 E1896.27954
G0 F12000 X194.620 Y126.600
G1 F1980 X174.378 Y126.600 E1898.29929
G0 F12000 X175.417 Y126.000
G1 F1980 X193.581 Y126.000 E1900.11170
G0 F12000 X192.542 Y125.400
G1 F1980 X176.456 Y125.400 E1901.71677
G0 F12000 X177.496 Y124.800
G1 F1980 X191.503 Y124.800 E1903.11439
G0 F12000 X190.463 Y124.200
G1 F1980 X178.535 Y124.200 E1904.30457
G0 F12000 X179.574 Y123.600
G1 F1980 X189.424 Y123.600 E1905.28741
G0 F12000 X188.385 Y123.000
G1 F1980 X180.613 Y123.000 E1906.06290
G0 F12000 X181.652 Y122.400
G1 F1980 X187.346 Y122.400 E1906.63105
G0 F12000 X186.307 Y121.800
G1 F1980 X182.691 Y121.800 E1906.99186
;LAYER:2
M106 S40
G1 F2100 E1906.59186
G1 Z1.200
G0 F12000 X148.600 Y137.688 Z1.200
;TYPE:WALL-INNER
G1 Z1.200
G1 F2100 E1906.99186
G1 F2220 X148.600 Y167.312 E1909.94775
G1 X147.377 Y169.429 E1910.19171
G1 X121.725 Y184.241 E1913.14733
G1 X119.276 Y184.241 E1913.39169
G1 X93.623 Y169.429 E1916.34740
G1 X92.400 Y167.311 E1916.59144
G1 X92.400 Y137.689 E1919.54713
G1 X93.623 Y135.571 E1919.79117
G1 X119.276 Y120.759 E1922.74688
G1 X121.725 Y120.759 E1922.99124
G1 X147.377 Y135.571 E1925.94687
G1 X148.600 Y137.688 E1926.19082
G0 F12000 X149.200 Y137.529
;TYPE:WALL-OUTER
G1 F2220 X149.200 Y167.471 E1929.17844
G1 X147.816 Y169.868 E1929.45462
G1 X121.884 Y184.841 E1932.44247
G1 X119.117 Y184.841 E1932.71856
G1 X93.185 Y169.868 E1935.70642
G1 X91.800 Y167.471 E1935.98264
G1 X91.800 Y137.529 E1938.97027
G1 X93.185 Y135.132 E1939.24650
G1 X119.117 Y120.159 E1942.23435
G1 X121.884 Y120.159 E1942.51044
G1 X147.816 Y135.132 E1945.49829
G1 X149.200 Y137.529 E1945.77447
G0 F12000 X148.200 Y137.417
;TYPE:SKIN
G1 F2220 X148.200 Y167.584 E1948.78455
G0 F12000 X147.600 Y168.623
G1 F2220 X147.600 Y136.378 E1952.00197
G0 F12000 X147.000 Y135.597
G1 F2220 X147.000 Y169.404 E1955.37524
G0 F12000 X146.400 Y169.751
G1 F2220 X146.400 Y135.250 E1958.81777
G0 F12000 X145.800 Y134.904
G1 F2220 X145.800 Y170.097 E1962.32934
G0 F12000 X145.200 Y170.444
G1 F2220 X145.200 Y134.557 E1965.91016
G0 F12000 X144.600 Y134.211
G1 F2220 X144.600 Y170.790 E1969.56002
G0 F12000 X144.000 Y171.137
G1 F2220 X144.000 Y133.864 E1973.27914
G0 F12000 X143.400 Y133.518
G1 F2220 X143.400 Y171.483 E1977.06730
G0 F12000 X142.800 Y171.829
G1 F2220 X142.800 Y133.172 E1980.92451
G0 F12000 X142.200 Y132.825
G1 F2220 X142.200 Y172.176 E1984.85097
G0 F12000 X141.600 Y172.522
G1 F2220 X141.600 Y132.479 E1988.84648
G0 F12000 X141.000 Y132.132
G1 F2220 X141.000 Y172.869 E1992.91123
G0 F12000 X140.400 Y173.215
G1 F2220 X140.400 Y131.786 E1997.04504
G0 F12000 X139.800 Y131.439
G1 F2220 X139.800 Y173.562 E2001.24809
G0 F12000 X139.200 Y173.908
G1 F2220 X139.200 Y131.093 E2005.52018
G0 F12000 X138.600 Y130.746
G1 F2220 X138.600 Y174.255 E2009.86153
G0 F12000 X138.000 Y174.601
G1 F2220 X138.000 Y130.400 E2014.27192
G0 F12000 X137.400 Y130.053
G1 F2220 X137.400 Y174.948 E2018.75156
G0 F12000 X136.800 Y175.294
G1 F2220 X136.800 Y129.707 E2023.30025
G0 F12000 X136.200 Y129.361
G1 F2220 X136.200 Y175.640 E2027.91799
G0 F12000 X135.600 Y175.987
G1 F2220 X135.600 Y129.014 E2032.60498
G0 F12000 X135.000 Y128.668
G1 F2220 X135.000 Y176.333 E2037.36101
G0 F12000 X134.400 Y176.680
G1 F2220 X134.400 Y128.321 E2042.18629
G0 F12000 X133.800 Y127.975
G1 F2220 X133.800 Y177.026 E2047.08062
G0 F12000 X133.200 Y177.373
G1 F2220 X133.200 Y127.628 E2052.04420
G0 F12000 X132.600 Y127.282
G1 F2220 X132.600 Y177.719 E2057.07682
G0 F12000 X132.000 Y178.066
G1 F2220 X132.000 Y126.935 E2062.17869
G0 F12000 X131.400 Y126.589
G1 F2220 X131.400 Y178.412 E2067.34961
G0 F12000 X130.800 Y178.758
G1 F2220 X130.800 Y126.243 E2072.58958
G0 F12000 X130.200 Y125.896
G1 F2220 X130.200 Y179.105 E2077.89879
G0 F12000 X129.600 Y179.451
G1 F2220 X129.600 Y125.550 E2083.27706
G0 F12000 X129.000 Y125.203
G1 F2220 X129.000 Y179.798 E2088.72457
G0 F12000 X128.400 Y180.144
G1 F2220 X128.400 Y124.857 E2094.24113
G0 F12000 X127.800 Y124.510
G1 F2220 X127.800 Y180.491 E2099.82694
G0 F12000 X127.200 Y180.837
G1 F2220 X127.200 Y124.164 E2105.48179
G0 F12000 X126.600 Y123.817
G1 F2220 X126.600 Y181.184 E2111.20589
G0 F12000 X126.000 Y181.530
G1 F2220 X126.000 Y123.471 E2116.99904
G0 F12000 X125.400 Y123.124
G1 F2220 X125.400 Y181.877 E2122.86144
G0 F12000 X124.800 Y182.223
G1 F2220 X124.800 Y122.778 E2128.79289
G0 F12000 X124.200 Y122.432
G1 F2220 X124.200 Y182.569 E2134.79338
G0 F12000 X123.600 Y182.916
G1 F2220 X123.600 Y122.085 E2140.86312
G0 F12000 X123.000 Y121.739
G1 F2220 X123.000 Y183.262 E2147.00191
G0 F12000 X122.400 Y183.609
G1 F2220 X122.400 Y121.392 E2153.20995
G0 F12000 X121.800 Y121.046
G1 F2220 X121.800 Y183.955 E2159.48704
G0 F12000 X121.200 Y184.031
G1 F2220 X121.200 Y120.969 E2165.77939
G0 F12000 X120.600 Y120.969
G1 F2220 X120.600 Y184.031 E2172.07174
G0 F12000 X120.000 Y184.031
G1 F2220 X120.000 Y120.969 E2178.36409
G0 F12000 X119.400 Y120.969
G1 F2220 X119.400 Y184.031 E2184.65644
G0 F12000 X118.800 Y183.723
G1 F2220 X118.800 Y121.276 E2190.88743
G0 F12000 X118.200 Y121.623
G1 F2220 X118.200 Y183.376 E2197.04917
G0 F12000 X117.600 Y183.030
G1 F2220 X117.600 Y121.969 E2203.14186
G0 F12000 X117.000 Y122.316
G1 F2220 X117.000 Y182.683 E2209.16531
G0 F12000 X116.400 Y182.337
G1 F2220 X116.400 Y122.662 E2215.11970
G0 F12000 X115.800 Y123.008
G1 F2220 X115.800 Y181.991 E2221.00505
G0 F12000 X115.200 Y181.644
G1 F2220 X115.200 Y123.355 E2226.82115
G0 F12000 X114.600 Y123.701
G1 F2220 X114.600 Y181.298 E2232.56820
G0 F12000 X114.000 Y180.951
G1 F2220 X114.000 Y124.048 E2238.24601
G0 F12000 X113.400 Y124.394
G1 F2220 X113.400 Y180.605 E2243.85476
G0 F12000 X112.800 Y180.258
G1 F2220 X112.800 Y124.741 E2249.39427
G0 F12000 X112.200 Y125.087
G1 F2220 X112.200 Y179.912 E2254.86473
G0 F12000 X111.600 Y179.565
G1 F2220 X111.600 Y125.434 E2260.26594
G0 F12000 X111.000 Y125.780
G1 F2220 X111.000 Y179.219 E2265.59811
G0 F12000 X110.400 Y178.873
G1 F2220 X110.400 Y126.126 E2270.86123
G0 F12000 X109.800 Y126.473
G1 F2220 X109.800 Y178.526 E2276.05510
G0 F12000 X109.200 Y178.180
G1 F2220 X109.200 Y126.819 E2281.17992
G0 F12000 X108.600 Y127.166
G1 F2220 X108.600 Y177.833 E2286.23549
G0 F12000 X108.000 Y177.487
G1 F2220 X108.000 Y127.512 E2291.22202
G0 F12000 X107.400 Y127.859
G1 F2220 X107.400 Y177.140 E2296.13930
G0 F12000 X106.800 Y176.794
G1 F2220 X106.800 Y128.205 E2300.98753
G0 F12000 X106.200 Y128.551
G1 F2220 X106.200 Y176.448 E2305.76671
G0 F12000 X105.600 Y176.101
G1 F2220 X105.600 Y128.898 E2310.47664
G0 F12000 X105.000 Y129.244
G1 F2220 X105.000 Y175.755 E2315.11753
G0 F12000 X104.400 Y175.408
G1 F2220 X104.400 Y129.591 E2319.68917
G0 F12000 X103.800 Y129.937
G1 F2220 X103.800 Y175.062 E2324.19176
G0 F12000 X103.200 Y174.715
G1 F2220 X103.200 Y130.284 E2328.62510
G0 F12000 X102.600 Y130.630
G1 F2220 X102.600 Y174.369 E2332.98940
G0 F12000 X102.000 Y174.022
G1 F2220 X102.000 Y130.977 E2337.28444
G0 F12000 X101.400 Y131.323
G1 F2220 X101.400 Y173.676 E2341.51044
G0 F12000 X100.800 Y173.330
G1 F2220 X100.800 Y131.669 E2345.66739
G0 F12000 X100.200 Y132.016
G1 F2220 X100.200 Y172.983 E2349.75510
G0 F12000 X99.600 Y172.637
G1 F2220 X99.600 Y132.362 E2353.77375
G0 F12000 X99.000 Y132.709
G1 F2220 X99.000 Y172.290 E2357.72316
G0 F12000 X98.400 Y171.944
G1 F2220 X98.400 Y133.055 E2361.60352
G0 F12000 X97.800 Y133.402
G1 F2220 X97.800 Y171.597 E2365.41464
G0 F12000 X97.200 Y171.251
G1 F2220 X97.200 Y133.748 E2369.15670
G0 F12000 X96.600 Y134.095
G1 F2220 X96.600 Y170.904 E2372.82952
G0 F12000 X96.000 Y170.558
G1 F2220 X96.000 Y134.441 E2376.43329
G0 F12000 X95.400 Y134.787
G1 F2220 X95.400 Y170.212 E2379.96801
G0 F12000 X94.800 Y169.865
G1 F2220 X94.800 Y135.134 E2383.43348
G0 F12000 X94.200 Y135.480
G1 F2220 X94.200 Y169.519 E2386.82990
G0 F12000 X93.600 Y168.968
G1 F2220 X93.600 Y136.031 E2390.11637
G0 F12000 X93.000 Y137.070
G1 F2220 X93.000 Y167.929 E2393.19550
G1 F2100 E2392.79550
G1 Z1.600
G0 F12000 X156.400 Y167.312
;TYPE:WALL-INNER
G1 Z1.200
G1 F2100 E2393.19550
G1 F2220 X156.400 Y137.688 E2396.15139
G1 X157.623 Y135.571 E2396.39534
G1 X183.275 Y120.759 E2399.35096
G1 X185.724 Y120.759 E2399.59533
G1 X211.377 Y135.571 E2402.55104
G1 X212.600 Y137.689 E2402.79507
G1 X212.600 Y167.311 E2405.75077
G1 X211.377 Y169.429 E2405.99481
G1 X185.724 Y184.241 E2408.95052
G1 X183.275 Y184.241 E2409.19488
G1 X157.623 Y169.429 E2412.15050
G1 X156.400 Y167.312 E2412.39445
G0 F12000 X155.800 Y167.471
;TYPE:WALL-OUTER
G1 F2220 X155.800 Y137.529 E2415.38208
G1 X157.184 Y135.132 E2415.65826
G1 X183.116 Y120.159 E2418.64611
G1 X185.883 Y120.159 E2418.92220
G1 X211.815 Y135.132 E2421.91005
G1 X213.200 Y137.529 E2422.18628
G1 X213.200 Y167.471 E2425.17391
G1 X211.815 Y169.868 E2425.45013
G1 X185.883 Y184.841 E2428.43798
G1 X183.116 Y184.841 E2428.71408
G1 X157.184 Y169.868 E2431.70193
G1 X155.800 Y167.471 E2431.97811
G1 F2100 E2431.57811
G1 Z1.600
G0 F12000 X157.200 Y168.276
;TYPE:SKIN
G1 Z1.200
G1 F2100 E2431.97811
G1 F2220 X157.200 Y136.723 E2435.12648
G0 F12000 X157.800 Y135.711
G1 F2220 X157.800 Y169.288 E2438.47681
G0 F12000 X158.400 Y169.634
G1 F2220 X158.400 Y135.365 E2441.89618
G0 F12000 X159.000 Y135.018
G1 F2220 X159.000 Y169.981 E2445.38480
G0 F12000 X159.600 Y170.327
G1 F2220 X159.600 Y134.672 E2448.94247
G0 F12000 X160.200 Y134.325
G1 F2220 X160.200 Y170.674 E2452.56939
G0 F12000 X160.800 Y171.020
G1 F2220 X160.800 Y133.979 E2456.26536
G0 F12000 X161.400 Y133.633
G1 F2220 X161.400 Y171.366 E2460.03037
G0 F12000 X162.000 Y171.713
G1 F2220 X162.000 Y133.286 E2463.86463
G0 F12000 X162.600 Y132.940
G1 F2220 X162.600 Y172.059 E2467.76794
G0 F12000 X163.200 Y172.406
G1 F2220 X163.200 Y132.593 E2471.74050
G0 F12000 X163.800 Y132.247
G1 F2220 X163.800 Y172.752 E2475.78210
G0 F12000 X164.400 Y173.099
G1 F2220 X164.400 Y131.900 E2479.89296
G0 F12000 X165.000 Y131.554
G1 F2220 X165.000 Y173.445 E2484.07286
G0 F12000 X165.600 Y173.792
G1 F2220 X165.600 Y131.207 E2488.32201
G0 F12000 X166.200 Y130.861
G1 F2220 X166.200 Y174.138 E2492.64020
G0 F12000 X166.800 Y174.485
G1 F2220 X166.800 Y130.514 E2497.02765
G0 F12000 X167.400 Y130.168
G1 F2220 X167.400 Y174.831 E2501.48414
G0 F12000 X168.000 Y175.177
G1 F2220 X168.000 Y129.822 E2506.00968
G0 F12000 X168.600 Y129.475
G1 F2220 X168.600 Y175.524 E2510.60447
G0 F12000 X169.200 Y175.870
G1 F2220 X169.200 Y129.129 E2515.26830
G0 F12000 X169.800 Y128.782
G1 F2220 X169.800 Y176.217 E2520.00139
G0 F12000 X170.400 Y176.563
G1 F2220 X170.400 Y128.436 E2524.80352
G0 F12000 X171.000 Y128.089
G1 F2220 X171.000 Y176.910 E2529.67490
G0 F12000 X171.600 Y177.256
G1 F2220 X171.600 Y127.743 E2534.61533
G0 F12000 X172.200 Y127.396
G1 F2220 X172.200 Y177.603 E2539.62500
G0 F12000 X172.800 Y177.949
G1 F2220 X172.800 Y127.050 E2544.70372
G0 F12000 X173.400 Y126.703
G1 F2220 X173.400 Y178.296 E2549.85169
G0 F12000 X174.000 Y178.642
G1 F2220 X174.000 Y126.357 E2555.06871
G0 F12000 X174.600 Y126.011
G1 F2220 X174.600 Y178.988 E2560.35478
G0 F12000 X175.200 Y179.335
G1 F2220 X175.200 Y125.664 E2565.71009
G0 F12000 X175.800 Y125.318
G1 F2220 X175.800 Y179.681 E2571.13445
G0 F12000 X176.400 Y180.028
G1 F2220 X176.400 Y124.971 E2576.62806
G0 F12000 X177.000 Y124.625
G1 F2220 X177.000 Y180.374 E2582.19072
G0 F12000 X177.600 Y180.721
G1 F2220 X177.600 Y124.278 E2587.82263
G0 F12000 X178.200 Y123.932
G1 F2220 X178.200 Y181.067 E2593.52358
G0 F12000 X178.800 Y181.414
G1 F2220 X178.800 Y123.585 E2599.29378
G0 F12000 X179.400 Y123.239
G1 F2220 X179.400 Y181.760 E2605.13303
G0 F12000 X180.000 Y182.107
G1 F2220 X180.000 Y122.892 E2611.04153
G0 F12000 X180.600 Y122.546
G1 F2220 X180.600 Y182.453 E2617.01907
G0 F12000 X181.200 Y182.799
G1 F2220 X181.200 Y122.200 E2623.06567
G0 F12000 X181.800 Y121.853
G1 F2220 X181.800 Y183.146 E2629.18151
G0 F12000 X182.400 Y183.492
G1 F2220 X182.400 Y121.507 E2635.36639
G0 F12000 X183.000 Y121.160
G1 F2220 X183.000 Y183.839 E2641.62053
G0 F12000 X183.600 Y184.031
G1 F2220 X183.600 Y120.969 E2647.91288
G0 F12000 X184.200 Y120.969
G1 F2220 X184.200 Y184.031 E2654.20523
G0 F12000 X184.800 Y184.031
G1 F2220 X184.800 Y120.969 E2660.49759
G0 F12000 X185.400 Y120.969
G1 F2220 X185.400 Y184.031 E2666.78994
G0 F12000 X186.000 Y183.839
G1 F2220 X186.000 Y121.162 E2673.04387
G0 F12000 X186.600 Y121.508
G1 F2220 X186.600 Y183.493 E2679.22876
G0 F12000 X187.200 Y183.146
G1 F2220 X187.200 Y121.855 E2685.34440
G0 F12000 X187.800 Y122.201
G1 F2220 X187.800 Y182.800 E2691.39100
G0 F12000 X188.400 Y182.453
G1 F2220 X188.400 Y122.548 E2697.36834
G0 F12000 X189.000 Y122.894
G1 F2220 X189.000 Y182.107 E2703.27664
G0 F12000 X189.600 Y181.761
G1 F2220 X189.600 Y123.240 E2709.11589
G0 F12000 X190.200 Y123.587
G1 F2220 X190.200 Y181.414 E2714.88589
G0 F12000 X190.800 Y181.068
G1 F2220 X190.800 Y123.933 E2720.58684
G0 F12000 X191.400 Y124.280
G1 F2220 X191.400 Y180.721 E2726.21855
G0 F12000 X192.000 Y180.375
G1 F2220 X192.000 Y124.626 E2731.78121
G0 F12000 X192.600 Y124.973
G1 F2220 X192.600 Y180.028 E2737.27462
G0 F12000 X193.200 Y179.682
G1 F2220 X193.200 Y125.319 E2742.69898
G0 F12000 X193.800 Y125.665
G1 F2220 X193.800 Y179.336 E2748.05429
G0 F12000 X194.400 Y178.989
G1 F2220 X194.400 Y126.012 E2753.34036
G0 F12000 X195.000 Y126.358
G1 F2220 X195.000 Y178.643 E2758.55738
G0 F12000 X195.600 Y178.296
G1 F2220 X195.600 Y126.705 E2763.70515
G0 F12000 X196.200 Y127.051
G1 F2220 X196.200 Y177.950 E2768.78387
G0 F12000 X196.800 Y177.603
G1 F2220 X196.800 Y127.398 E2773.79335
G0 F12000 X197.400 Y127.744
G1 F2220 X197.400 Y177.257 E2778.73377
G0 F12000 X198.000 Y176.910
G1 F2220 X198.000 Y128.091 E2783.60495
G0 F12000 X198.600 Y128.437
G1 F2220 X198.600 Y176.564 E2788.40709
G0 F12000 X199.200 Y176.218
G1 F2220 X199.200 Y128.783 E2793.14017
G0 F12000 X199.800 Y129.130
G1 F2220 X199.800 Y175.871 E2797.80400
G0 F12000 X200.400 Y175.525
G1 F2220 X200.400 Y129.476 E2802.39879
G0 F12000 X201.000 Y129.823
G1 F2220 X201.000 Y175.178 E2806.92433
G0 F12000 X201.600 Y174.832
G1 F2220 X201.600 Y130.169 E2811.38082
G0 F12000 X202.200 Y130.516
G1 F2220 X202.200 Y174.485 E2815.76807
G0 F12000 X202.800 Y174.139
G1 F2220 X202.800 Y130.862 E2820.08627
G0 F12000 X203.400 Y131.209
G1 F2220 X203.400 Y173.792 E2824.33522
G0 F12000 X204.000 Y173.446
G1 F2220 X204.000 Y131.555 E2828.51512
G0 F12000 X204.600 Y131.901
G1 F2220 X204.600 Y173.100 E2832.62597
G0 F12000 X205.200 Y172.753
G1 F2220 X205.200 Y132.248 E2836.66757
G0 F12000 X205.800 Y132.594
G1 F2220 X205.800 Y172.407 E2840.64013
G0 F12000 X206.400 Y172.060
G1 F2220 X206.400 Y132.941 E2844.54344
G0 F12000 X207.000 Y133.287
G1 F2220 X207.000 Y171.714 E2848.37770
G0 F12000 X207.600 Y171.367
G1 F2220 X207.600 Y133.634 E2852.14272
G0 F12000 X208.200 Y133.980
G1 F2220 X208.200 Y171.021 E2855.83868
G0 F12000 X208.800 Y170.675
G1 F2220 X208.800 Y134.326 E2859.46560
G0 F12000 X209.400 Y134.673
G1 F2220 X209.400 Y170.328 E2863.02327
G0 F12000 X210.000 Y169.982
G1 F2220 X210.000 Y135.019 E2866.51189
G0 F12000 X210.600 Y135.366
G1 F2220 X210.600 Y169.635 E2869.93127
G0 F12000 X211.200 Y169.289
G1 F2220 X211.200 Y135.712 E2873.28159
G0 F12000 X211.800 Y136.725
G1 F2220 X211.800 Y168.276 E2876.42977
;LAYER:3
M106 S63
G1 F2100 E2876.02977
G1 Z1.600
G0 F12000 X149.000 Y167.418 Z1.600
;TYPE:WALL-INNER
G1 Z1.600
G1 F2100 E2876.42977
G1 F2400 X147.670 Y169.721 E2876.69513
G1 X121.832 Y184.641 E2879.67221
G1 X119.169 Y184.641 E2879.93793
G1 X93.331 Y169.721 E2882.91501
G1 X92.000 Y167.419 E2883.18034
G1 X92.000 Y137.582 E2886.15749
G1 X93.331 Y135.279 E2886.42290
G1 X119.169 Y120.359 E2889.39998
G1 X121.832 Y120.359 E2889.66570
G1 X147.670 Y135.279 E2892.64278
G1 X147.909 Y135.690 E2892.69022
G1 X149.000 Y137.583 E2892.90823
G1 X149.000 Y167.418 E2895.88518
G1 F2100 E2895.48518
G1 Z2.000
G0 F12000 X128.022 Y155.595
G1 Z1.600
G1 F2100 E2895.88518
G1 F2400 X128.314 Y155.037 E2895.94802
G1 X128.566 Y154.449 E2896.01185
G1 X128.846 Y153.598 E2896.10124
G1 X129.032 Y152.728 E2896.19001
G1 X129.117 Y151.879 E2896.27515
G1 X129.132 Y151.409 E2896.32207
G1 X129.092 Y150.565 E2896.40638
G1 X129.013 Y149.995 E2896.46380
G1 X128.839 Y149.166 E2896.54832
G1 X128.593 Y148.384 E2896.63012
G1 X128.378 Y147.859 E2896.68672
G1 X128.208 Y147.566 E2896.72052
G1 X127.777 Y146.951 E2896.79546
G1 X127.289 Y146.365 E2896.87155
G1 X126.753 Y145.820 E2896.94782
G1 X126.173 Y145.322 E2897.02410
G1 X125.554 Y144.874 E2897.10034
G1 X124.900 Y144.479 E2897.17658
G1 X124.211 Y144.138 E2897.25329
G1 X123.353 Y143.811 E2897.34490
G1 X122.701 Y143.629 E2897.41245
G1 X122.144 Y143.498 E2897.46954
G1 X121.240 Y143.382 E2897.56048
G1 X120.366 Y143.356 E2897.64773
G1 X119.927 Y143.367 E2897.69155
G1 X119.047 Y143.466 E2897.77991
G1 X118.202 Y143.644 E2897.86607
G1 X117.418 Y143.888 E2897.94800
G1 X116.858 Y144.106 E2898.00796
G1 X116.118 Y144.467 E2898.09012
G1 X115.630 Y144.761 E2898.14697
G1 X115.366 Y144.972 E2898.18069
G1 X114.811 Y145.501 E2898.25719
G1 X114.305 Y146.073 E2898.33339
G1 X113.859 Y146.676 E2898.40823
G1 X113.469 Y147.303 E2898.48191
G1 X113.140 Y147.952 E2898.55451
G1 X112.873 Y148.614 E2898.62574
G1 X112.662 Y149.287 E2898.69611
G1 X112.489 Y150.111 E2898.78012
G1 X112.389 Y151.089 E2898.87822
G1 X112.386 Y151.317 E2898.90097
G1 X112.402 Y151.912 E2898.96036
G1 X112.415 Y152.136 E2898.98275
G1 X112.529 Y152.939 E2899.06367
G1 X112.725 Y153.721 E2899.14412
G1 X113.077 Y154.662 E2899.24436
G1 X113.434 Y155.348 E2899.32153
G1 X113.748 Y155.834 E2899.37926
G1 X114.003 Y156.195 E2899.42336
G1 X114.459 Y156.718 E2899.49260
G1 X114.705 Y156.973 E2899.52795
G1 X115.212 Y157.413 E2899.59493
G1 X115.701 Y157.763 E2899.65494
G1 X116.064 Y157.994 E2899.69787
G1 X116.449 Y158.196 E2899.74125
G1 X116.867 Y158.476 E2899.79145
G1 X117.663 Y158.887 E2899.88084
G1 X117.845 Y158.971 E2899.90084
G1 X118.611 Y159.228 E2899.98146
G1 X118.879 Y159.303 E2900.00923
G1 X119.417 Y159.409 E2900.06394
G1 X119.962 Y159.473 E2900.11870
G1 X120.512 Y159.494 E2900.17362
G1 X121.094 Y159.469 E2900.23174
G1 X122.512 Y159.361 E2900.37364
G1 X123.159 Y159.239 E2900.43934
G1 X123.625 Y159.121 E2900.48730
G1 X124.178 Y158.930 E2900.54568
G1 X124.723 Y158.692 E2900.60502
G1 X125.261 Y158.403 E2900.66595
G1 X125.779 Y158.063 E2900.72778
G1 X126.253 Y157.697 E2900.78753
G1 X126.701 Y157.291 E2900.84786
G1 X127.108 Y156.859 E2900.90708
G1 X127.329 Y156.608 E2900.94045
G1 X127.691 Y156.117 E2901.00132
G1 X128.022 Y155.595 E2901.06299
G0 F12000 X127.502 Y155.295
;TYPE:WALL-OUTER
G1 F2400 X127.771 Y154.780 E2901.12097
G1 X128.004 Y154.236 E2901.18002
G1 X128.266 Y153.441 E2901.26354
G1 X128.438 Y152.635 E2901.34578
G1 X128.518 Y151.840 E2901.42550
G1 X128.531 Y151.414 E2901.46803
G1 X128.494 Y150.620 E2901.54734
G1 X128.422 Y150.098 E2901.59992
G1 X128.258 Y149.318 E2901.67945
G1 X128.028 Y148.588 E2901.75582
G1 X127.839 Y148.125 E2901.80572
G1 X127.702 Y147.890 E2901.83286
G1 X127.300 Y147.316 E2901.90278
G1 X126.844 Y146.768 E2901.97392
G1 X126.343 Y146.259 E2902.04518
G1 X125.801 Y145.793 E2902.11650
G1 X125.223 Y145.375 E2902.18768
G1 X124.611 Y145.006 E2902.25898
G1 X123.970 Y144.689 E2902.33034
G1 X123.165 Y144.382 E2902.41630
G1 X122.552 Y144.210 E2902.47983
G1 X122.037 Y144.089 E2902.53262
G1 X121.193 Y143.981 E2902.61752
G1 X120.365 Y143.956 E2902.70017
G1 X119.968 Y143.966 E2902.73980
G1 X119.142 Y144.059 E2902.82274
G1 X118.353 Y144.225 E2902.90319
G1 X117.616 Y144.455 E2902.98022
G1 X117.099 Y144.656 E2903.03557
G1 X116.405 Y144.995 E2903.11264
G1 X115.973 Y145.254 E2903.16290
G1 X115.761 Y145.424 E2903.19001
G1 X115.244 Y145.918 E2903.26136
G1 X114.772 Y146.451 E2903.33240
G1 X114.356 Y147.013 E2903.40217
G1 X113.992 Y147.598 E2903.47092
G1 X113.687 Y148.201 E2903.53834
G1 X113.438 Y148.816 E2903.60455
G1 X113.243 Y149.439 E2903.66968
G1 X113.082 Y150.204 E2903.74769
G1 X112.988 Y151.123 E2903.83987
G1 X112.986 Y151.312 E2903.85872
G1 X113.001 Y151.887 E2903.91612
G1 X113.012 Y152.077 E2903.93511
G1 X113.118 Y152.823 E2904.01029
G1 X113.299 Y153.542 E2904.08427
G1 X113.626 Y154.417 E2904.17748
G1 X113.953 Y155.046 E2904.24821
G1 X114.245 Y155.498 E2904.30191
G1 X114.476 Y155.824 E2904.34177
G1 X114.901 Y156.312 E2904.40634
G1 X115.118 Y156.537 E2904.43754
G1 X115.584 Y156.942 E2904.49914
G1 X116.037 Y157.266 E2904.55471
G1 X116.365 Y157.475 E2904.59352
G1 X116.757 Y157.680 E2904.63766
G1 X117.172 Y157.959 E2904.68756
G1 X117.926 Y158.348 E2904.77221
G1 X118.788 Y158.655 E2904.86352
G1 X119.510 Y158.816 E2904.93733
G1 X120.009 Y158.874 E2904.98745
G1 X120.511 Y158.893 E2905.03758
G1 X121.045 Y158.870 E2905.09091
G1 X121.463 Y158.820 E2905.13291
G1 X122.439 Y158.764 E2905.23046
G1 X123.030 Y158.653 E2905.29046
G1 X123.453 Y158.546 E2905.33400
G1 X123.959 Y158.371 E2905.38742
G1 X124.460 Y158.152 E2905.44198
G1 X124.954 Y157.887 E2905.49791
G1 X125.430 Y157.574 E2905.55476
G1 X125.868 Y157.236 E2905.60996
G1 X126.281 Y156.862 E2905.66556
G1 X126.664 Y156.456 E2905.72125
G1 X126.861 Y156.231 E2905.75109
G1 X127.196 Y155.778 E2905.80731
G1 X127.502 Y155.295 E2905.86436
G1 F2100 E2905.46436
G1 Z2.000
G0 F12000 X149.600 Y167.578
G1 Z1.600
G1 F2100 E2905.86436
G1 F2400 X148.108 Y170.160 E2906.16191
G1 X121.991 Y185.241 E2909.17114
G1 X119.010 Y185.241 E2909.46858
G1 X92.892 Y170.160 E2912.47790
G1 X91.400 Y167.579 E2912.77536
G1 X91.400 Y137.422 E2915.78444
G1 X92.893 Y134.840 E2916.08204
G1 X119.010 Y119.759 E2919.09127
G1 X121.991 Y119.759 E2919.38871
G1 X148.109 Y134.840 E2922.39803
G1 X149.600 Y137.421 E2922.69544
G1 X149.600 Y167.578 E2925.70452
G0 F12000 X148.765 Y167.400
;TYPE:SKIN
G1 F2400 X92.231 Y167.400 E2931.34551
G0 F12000 X92.209 Y166.800
G1 F2400 X148.789 Y166.800 E2936.99108
G0 F12000 X148.789 Y166.200
G1 F2400 X92.209 Y166.200 E2942.63666
G0 F12000 X92.209 Y165.600
G1 F2400 X148.789 Y165.600 E2948.28223
G0 F12000 X148.789 Y165.000
G1 F2400 X92.209 Y165.000 E2953.92781
G0 F12000 X92.209 Y164.400
G1 F2400 X148.789 Y164.400 E2959.57338
G0 F12000 X148.789 Y163.800
G1 F2400 X92.209 Y163.800 E2965.21896
G0 F12000 X92.209 Y163.200
G1 F2400 X148.789 Y163.200 E2970.86453
G0 F12000 X148.789 Y162.600
G1 F2400 X92.209 Y162.600 E2976.51011
G0 F12000 X92.209 Y162.000
G1 F2400 X148.789 Y162.000 E2982.15568
G0 F12000 X148.789 Y161.400
G1 F2400 X92.209 Y161.400 E2987.80126
G0 F12000 X92.209 Y160.800
G1 F2400 X148.789 Y160.800 E2993.44683
G0 F12000 X148.789 Y160.200
G1 F2400 X92.209 Y160.200 E2999.09241
G1 F2100 E2998.69241
G1 Z2.000
G0 F12000 X92.578 Y168.000
G1 Z1.600
G1 F2100 E2999.09241
G1 F2400 X148.419 Y168.000 E3004.66425
G0 F12000 X148.072 Y168.600
G1 F2400 X92.925 Y168.600 E3010.16684
G0 F12000 X93.272 Y169.200
G1 F2400 X147.726 Y169.200 E3015.60028
G0 F12000 X147.109 Y169.800
G1 F2400 X93.889 Y169.800 E3020.91059
G0 F12000 X94.928 Y170.400
G1 F2400 X146.070 Y170.400 E3026.01356
G0 F12000 X145.031 Y171.000
G1 F2400 X95.967 Y171.000 E3030.90919
G0 F12000 X97.006 Y171.600
G1 F2400 X143.992 Y171.600 E3035.59747
G0 F12000 X142.953 Y172.200
G1 F2400 X98.045 Y172.200 E3040.07841
G0 F12000 X99.084 Y172.800
G1 F2400 X141.914 Y172.800 E3044.35200
G0 F12000 X140.875 Y173.400
G1 F2400 X100.123 Y173.400 E3048.41825
G0 F12000 X101.162 Y174.000
G1 F2400 X139.836 Y174.000 E3052.27716
G0 F12000 X138.797 Y174.600
G1 F2400 X102.201 Y174.600 E3055.92873
G0 F12000 X103.240 Y175.200
G1 F2400 X137.758 Y175.200 E3059.37295
G0 F12000 X136.719 Y175.800
G1 F2400 X104.279 Y175.800 E3062.60982
G0 F12000 X105.318 Y176.400
G1 F2400 X135.680 Y176.400 E3065.63935
G0 F12000 X134.641 Y177.000
G1 F2400 X106.357 Y177.000 E3068.46154
G0 F12000 X107.397 Y177.600
G1 F2400 X133.601 Y177.600 E3071.07619
G0 F12000 X132.562 Y178.200
G1 F2400 X108.436 Y178.200 E3073.48349
G0 F12000 X109.475 Y178.800
G1 F2400 X131.523 Y178.800 E3075.68345
G0 F12000 X130.484 Y179.400
G1 F2400 X110.514 Y179.400 E3077.67606
G0 F12000 X111.553 Y180.000
G1 F2400 X129.445 Y180.000 E3079.46134
G0 F12000 X128.406 Y180.600
G1 F2400 X112.592 Y180.600 E3081.03926
G0 F12000 X113.631 Y181.200
G1 F2400 X127.367 Y181.200 E3082.40985
G0 F12000 X126.328 Y181.800
G1 F2400 X114.670 Y181.800 E3083.57309
G0 F12000 X115.709 Y182.400
G1 F2400 X125.289 Y182.400 E3084.52898
G0 F12000 X124.250 Y183.000
G1 F2400 X116.748 Y183.000 E3085.27753
G0 F12000 X117.787 Y183.600
G1 F2400 X123.211 Y183.600 E3085.81874
G0 F12000 X122.172 Y184.200
G1 F2400 X118.826 Y184.200 E3086.15261
G1 F2100 E3085.75261
G1 Z2.000
G0 F12000 X119.299 Y159.600
G1 Z1.600
G1 F2100 E3086.15261
G1 F2400 X92.209 Y159.600 E3088.85566
G0 F12000 X92.209 Y159.000
G1 F2400 X117.424 Y159.000 E3091.37162
G0 F12000 X116.376 Y158.400
G1 F2400 X92.209 Y158.400 E3093.78302
G0 F12000 X92.209 Y157.800
G1 F2400 X115.392 Y157.800 E3096.09623
G0 F12000 X114.646 Y157.200
G1 F2400 X92.209 Y157.200 E3098.33500
G0 F12000 X92.209 Y156.600
G1 F2400 X114.078 Y156.600 E3100.51710
G0 F12000 X113.607 Y156.000
G1 F2400 X92.209 Y156.000 E3102.65220
G0 F12000 X92.209 Y155.400
G1 F2400 X113.224 Y155.400 E3104.74908
G0 F12000 X112.912 Y154.800
G1 F2400 X92.209 Y154.800 E3106.81484
G0 F12000 X92.209 Y154.200
G1 F2400 X112.679 Y154.200 E3108.85734
G0 F12000 X112.477 Y153.600
G1 F2400 X92.209 Y153.600 E3110.87969
G0 F12000 X92.209 Y153.000
G1 F2400 X112.327 Y153.000 E3112.88707
G0 F12000 X112.240 Y152.400
G1 F2400 X92.209 Y152.400 E3114.88577
G0 F12000 X92.209 Y151.800
G1 F2400 X112.188 Y151.800 E3116.87929
G0 F12000 X112.176 Y151.200
G1 F2400 X92.209 Y151.200 E3118.87160
G0 F12000 X92.209 Y150.600
G1 F2400 X112.227 Y150.600 E3120.86901
G0 F12000 X112.296 Y150.000
G1 F2400 X92.209 Y150.000 E3122.87329
G0 F12000 X92.209 Y149.400
G1 F2400 X112.421 Y149.400 E3124.89006
G0 F12000 X112.593 Y148.800
G1 F2400 X92.209 Y148.800 E3126.92398
G0 F12000 X92.209 Y148.200
G1 F2400 X112.811 Y148.200 E3128.97966
G0 F12000 X113.081 Y147.600
G1 F2400 X92.209 Y147.600 E3131.06227
G0 F12000 X92.209 Y147.000
G1 F2400 X113.408 Y147.000 E3133.17752
G0 F12000 X113.800 Y146.400
G1 F2400 X92.209 Y146.400 E3135.33188
G0 F12000 X92.209 Y145.800
G1 F2400 X114.264 Y145.800 E3137.53253
G0 F12000 X114.820 Y145.200
G1 F2400 X92.209 Y145.200 E3139.78867
G0 F12000 X92.209 Y144.600
G1 F2400 X115.491 Y144.600 E3142.11176
G0 F12000 X116.593 Y144.000
G1 F2400 X92.209 Y144.000 E3144.54480
G0 F12000 X92.209 Y143.400
G1 F2400 X118.333 Y143.400 E3147.15146
G1 F2100 E3146.75146
G1 Z2.000
G0 F12000 X122.647 Y143.400
G1 Z1.600
G1 F2100 E3147.15146
G1 F2400 X148.789 Y143.400 E3149.75992
G0 F12000 X148.789 Y144.000
G1 F2400 X124.405 Y144.000 E3152.19297
G0 F12000 X125.506 Y144.600
G1 F2400 X148.789 Y144.600 E3154.51616
G0 F12000 X148.789 Y145.200
G1 F2400 X126.353 Y145.200 E3156.75483
G0 F12000 X127.028 Y145.800
G1 F2400 X148.789 Y145.800 E3158.92615
G0 F12000 X148.789 Y146.400
G1 F2400 X127.591 Y146.400 E3161.04130
G0 F12000 X128.067 Y147.000
G1 F2400 X148.789 Y147.000 E3163.10895
G0 F12000 X148.789 Y147.600
G1 F2400 X128.470 Y147.600 E3165.13638
G0 F12000 X128.743 Y148.200
G1 F2400 X148.789 Y148.200 E3167.13658
G0 F12000 X148.789 Y148.800
G1 F2400 X128.943 Y148.800 E3169.11682
G0 F12000 X129.102 Y149.400
G1 F2400 X148.789 Y149.400 E3171.08120
G0 F12000 X148.789 Y150.000
G1 F2400 X129.225 Y150.000 E3173.03330
G0 F12000 X129.302 Y150.600
G1 F2400 X148.789 Y150.600 E3174.97772
G0 F12000 X148.789 Y151.200
G1 F2400 X129.331 Y151.200 E3176.91925
G0 F12000 X129.329 Y151.800
G1 F2400 X148.789 Y151.800 E3178.86098
G0 F12000 X148.789 Y152.400
G1 F2400 X129.275 Y152.400 E3180.80809
G0 F12000 X129.188 Y153.000
G1 F2400 X148.789 Y153.000 E3182.76389
G0 F12000 X148.789 Y153.600
G1 F2400 X129.059 Y153.600 E3184.73256
G0 F12000 X128.868 Y154.200
G1 F2400 X148.789 Y154.200 E3186.72028
G0 F12000 X148.789 Y154.800
G1 F2400 X128.643 Y154.800 E3188.73046
G0 F12000 X128.360 Y155.400
G1 F2400 X148.789 Y155.400 E3190.76887
G0 F12000 X148.789 Y156.000
G1 F2400 X128.013 Y156.000 E3192.84191
G0 F12000 X127.595 Y156.600
G1 F2400 X148.789 Y156.600 E3194.95666
G0 F12000 X148.789 Y157.200
G1 F2400 X127.074 Y157.200 E3197.12339
G0 F12000 X126.450 Y157.800
G1 F2400 X148.789 Y157.800 E3199.35238
G0 F12000 X148.789 Y158.400
G1 F2400 X125.647 Y158.400 E3201.66150
G0 F12000 X124.540 Y159.000
G1 F2400 X148.789 Y159.000 E3204.08107
G0 F12000 X148.789 Y159.600
G1 F2400 X122.125 Y159.600 E3206.74162
G1 F2100 E3206.34162
G1 Z2.000
G0 F12000 X148.789 Y142.800
G1 Z1.600
G1 F2100 E3206.74162
G1 F2400 X92.209 Y142.800 E3212.38719
G0 F12000 X92.209 Y142.200
G1 F2400 X148.789 Y142.200 E3218.03277
G0 F12000 X148.789 Y141.600
G1 F2400 X92.209 Y141.600 E3223.67834
G0 F12000 X92.209 Y141.000
G1 F2400 X148.789 Y141.000 E3229.32392
G0 F12000 X148.789 Y140.400
G1 F2400 X92.209 Y140.400 E3234.96950
G0 F12000 X92.209 Y139.800
G1 F2400 X148.789 Y139.800 E3240.61507
G0 F12000 X148.789 Y139.200
G1 F2400 X92.209 Y139.200 E3246.26065
G0 F12000 X92.209 Y138.600
G1 F2400 X148.789 Y138.600 E3251.90622
G0 F12000 X148.789 Y138.000
G1 F2400 X92.209 Y138.000 E3257.55180
G0 F12000 X92.347 Y137.400
G1 F2400 X148.652 Y137.400 E3263.16993
G0 F12000 X148.306 Y136.800
G1 F2400 X92.694 Y136.800 E3268.71892
G0 F12000 X93.041 Y136.200
G1 F2400 X147.959 Y136.200 E3274.19866
G0 F12000 X147.613 Y135.600
G1 F2400 X93.387 Y135.600 E3279.60935
G0 F12000 X94.233 Y135.000
G1 F2400 X146.768 Y135.000 E3284.85132
G0 F12000 X145.729 Y134.400
G1 F2400 X95.272 Y134.400 E3289.88594
G0 F12000 X96.311 Y133.800
G1 F2400 X144.690 Y133.800 E3294.71321
G0 F12000 X143.651 Y133.200
G1 F2400 X97.350 Y133.200 E3299.33315
G0 F12000 X98.389 Y132.600
G1 F2400 X142.612 Y132.600 E3303.74573
G0 F12000 X141.573 Y132.000
G1 F2400 X99.428 Y132.000 E3307.95098
G0 F12000 X100.467 Y131.400
G1 F2400 X140.534 Y131.400 E3311.94888
G0 F12000 X139.495 Y130.800
G1 F2400 X101.506 Y130.800 E3315.73944
G0 F12000 X102.545 Y130.200
G1 F2400 X138.456 Y130.200 E3319.32265
G0 F12000 X137.416 Y129.600
G1 F2400 X103.584 Y129.600 E3322.69842
G0 F12000 X104.623 Y129.000
G1 F2400 X136.377 Y129.000 E3325.86685
G0 F12000 X135.338 Y128.400
G1 F2400 X105.662 Y128.400 E3328.82793
G0 F12000 X106.701 Y127.800
G1 F2400 X134.299 Y127.800 E3331.58167
G0 F12000 X133.260 Y127.200
G1 F2400 X107.740 Y127.200 E3334.12807
G0 F12000 X108.779 Y126.600
G1 F2400 X132.221 Y126.600 E3336.46712
G0 F12000 X131.182 Y126.000
G1 F2400 X109.819 Y126.000 E3338.59873
G0 F12000 X110.858 Y125.400
G1 F2400 X130.143 Y125.400 E3340.52300
G0 F12000 X129.104 Y124.800
G1 F2400 X111.897 Y124.800 E3342.23992
G0 F12000 X112.936 Y124.200
G1 F2400 X128.065 Y124.200 E3343.74949
G0 F12000 X127.025 Y123.600
G1 F2400 X113.975 Y123.600 E3345.05163
G0 F12000 X115.014 Y123.000
G1 F2400 X125.986 Y123.000 E3346.14642
G0 F12000 X124.947 Y122.400
G1 F2400 X116.053 Y122.400 E3347.03387
G0 F12000 X117.092 Y121.800
G1 F2400 X123.908 Y121.800 E3347.71397
G0 F12000 X122.869 Y121.200
G1 F2400 X118.131 Y121.200 E3348.18673
G0 F12000 X119.170 Y120.600
G1 F2400 X121.830 Y120.600 E3348.45215
G1 F2100 E3348.05215
G1 Z2.000
G0 F12000 X156.000 Y137.582
;TYPE:WALL-INNER
G1 Z1.600
G1 F2100 E3348.45215
G1 F2400 X157.330 Y135.279 E3348.71751
G1 X183.168 Y120.359 E3351.69459
G1 X185.831 Y120.359 E3351.96031
G1 X211.669 Y135.279 E3354.93739
G1 X213.000 Y137.581 E3355.20272
G1 X213.000 Y167.418 E3358.17986
G1 X211.669 Y169.721 E3358.44528
G1 X185.831 Y184.641 E3361.42236
G1 X183.168 Y184.641 E3361.68808
G1 X157.330 Y169.721 E3364.66516
G1 X157.091 Y169.310 E3364.71260
G1 X156.000 Y167.417 E3364.93061
G1 X156.000 Y137.582 E3367.90756
G1 F2100 E3367.50756
G1 Z2.000
G0 F12000 X177.139 Y147.952
G1 Z1.600
G1 F2100 E3367.90756
G1 F2400 X176.872 Y148.614 E3367.97878
G1 X176.661 Y149.287 E3368.04916
G1 X176.488 Y150.111 E3368.13317
G1 X176.388 Y151.089 E3368.23126
G1 X176.385 Y151.317 E3368.25401
G1 X176.401 Y151.912 E3368.31341
G1 X176.414 Y152.136 E3368.33579
G1 X176.528 Y152.939 E3368.41672
G1 X176.724 Y153.721 E3368.49716
G1 X177.076 Y154.662 E3368.59741
G1 X177.433 Y155.348 E3368.67457
G1 X177.747 Y155.834 E3368.73231
G1 X178.002 Y156.195 E3368.77641
G1 X178.458 Y156.718 E3368.84564
G1 X178.704 Y156.973 E3368.88100
G1 X179.211 Y157.413 E3368.94798
G1 X179.700 Y157.763 E3369.00798
G1 X180.063 Y157.994 E3369.05092
G1 X180.448 Y158.196 E3369.09430
G1 X180.866 Y158.476 E3369.14450
G1 X181.662 Y158.887 E3369.23389
G1 X181.844 Y158.971 E3369.25389
G1 X182.610 Y159.228 E3369.33451
G1 X182.878 Y159.303 E3369.36228
G1 X183.416 Y159.409 E3369.41699
G1 X183.961 Y159.473 E3369.47174
G1 X184.511 Y159.494 E3369.52666
G1 X185.093 Y159.469 E3369.58479
G1 X186.511 Y159.361 E3369.72669
G1 X187.158 Y159.239 E3369.79238
G1 X187.624 Y159.121 E3369.84035
G1 X188.177 Y158.930 E3369.89872
G1 X188.722 Y158.692 E3369.95806
G1 X189.260 Y158.403 E3370.01900
G1 X189.778 Y158.063 E3370.08083
G1 X190.252 Y157.697 E3370.14058
G1 X190.700 Y157.291 E3370.20091
G1 X191.107 Y156.859 E3370.26013
G1 X191.328 Y156.608 E3370.29350
G1 X191.690 Y156.117 E3370.35437
G1 X192.021 Y155.595 E3370.41604
G1 X192.313 Y155.037 E3370.47888
G1 X192.565 Y154.449 E3370.54271
G1 X192.845 Y153.598 E3370.63210
G1 X193.031 Y152.728 E3370.72088
G1 X193.116 Y151.879 E3370.80601
G1 X193.131 Y151.409 E3370.85293
G1 X193.091 Y150.565 E3370.93724
G1 X193.012 Y149.995 E3370.99466
G1 X192.838 Y149.166 E3371.07918
G1 X192.592 Y148.384 E3371.16098
G1 X192.377 Y147.859 E3371.21759
G1 X192.207 Y147.566 E3371.25139
G1 X191.776 Y146.951 E3371.32632
G1 X191.288 Y146.365 E3371.40241
G1 X190.752 Y145.820 E3371.47869
G1 X190.172 Y145.322 E3371.55496
G1 X189.553 Y144.874 E3371.63121
G1 X188.899 Y144.479 E3371.70744
G1 X188.210 Y144.138 E3371.78415
G1 X187.352 Y143.811 E3371.87577
G1 X186.700 Y143.629 E3371.94331
G1 X186.143 Y143.498 E3372.00041
G1 X185.239 Y143.382 E3372.09135
G1 X184.365 Y143.356 E3372.17859
G1 X183.926 Y143.367 E3372.22241
G1 X183.046 Y143.466 E3372.31077
G1 X182.201 Y143.644 E3372.39694
G1 X181.417 Y143.888 E3372.47887
G1 X180.857 Y144.106 E3372.53883
G1 X180.117 Y144.467 E3372.62098
G1 X179.629 Y144.761 E3372.67783
G1 X179.365 Y144.972 E3372.71155
G1 X178.810 Y145.501 E3372.78806
G1 X178.304 Y146.073 E3372.86426
G1 X177.858 Y146.676 E3372.93909
G1 X177.468 Y147.303 E3373.01277
G1 X177.139 Y147.952 E3373.08537
G0 F12000 X177.686 Y148.201
;TYPE:WALL-OUTER
G1 F2400 X177.437 Y148.816 E3373.15158
G1 X177.242 Y149.439 E3373.21671
G1 X177.081 Y150.204 E3373.29472
G1 X176.987 Y151.123 E3373.38690
G1 X176.985 Y151.312 E3373.40575
G1 X177.000 Y151.887 E3373.46315
G1 X177.011 Y152.077 E3373.48214
G1 X177.117 Y152.823 E3373.55732
G1 X177.298 Y153.542 E3373.63130
G1 X177.625 Y154.417 E3373.72451
G1 X177.952 Y155.046 E3373.79524
G1 X178.244 Y155.498 E3373.84894
G1 X178.475 Y155.824 E3373.88880
G1 X178.900 Y156.312 E3373.95337
G1 X179.117 Y156.537 E3373.98457
G1 X179.583 Y156.942 E3374.04617
G1 X180.036 Y157.266 E3374.10174
G1 X180.364 Y157.475 E3374.14055
G1 X180.756 Y157.680 E3374.18469
G1 X181.171 Y157.959 E3374.23459
G1 X181.925 Y158.348 E3374.31924
G1 X182.787 Y158.655 E3374.41055
G1 X183.509 Y158.816 E3374.48436
G1 X184.008 Y158.874 E3374.53448
G1 X184.510 Y158.893 E3374.58461
G1 X185.044 Y158.870 E3374.63794
G1 X185.462 Y158.820 E3374.67995
G1 X186.438 Y158.764 E3374.77749
G1 X187.029 Y158.653 E3374.83749
G1 X187.452 Y158.546 E3374.88103
G1 X187.958 Y158.371 E3374.93445
G1 X188.459 Y158.152 E3374.98901
G1 X188.953 Y157.887 E3375.04495
G1 X189.429 Y157.574 E3375.10179
G1 X189.867 Y157.236 E3375.15699
G1 X190.280 Y156.862 E3375.21259
G1 X190.663 Y156.456 E3375.26828
G1 X190.860 Y156.231 E3375.29812
G1 X191.195 Y155.778 E3375.35434
G1 X191.501 Y155.295 E3375.41139
G1 X191.770 Y154.780 E3375.46936
G1 X192.003 Y154.236 E3375.52841
G1 X192.265 Y153.441 E3375.61194
G1 X192.437 Y152.635 E3375.69417
G1 X192.517 Y151.840 E3375.77390
G1 X192.530 Y151.414 E3375.81642
G1 X192.493 Y150.620 E3375.89573
G1 X192.421 Y150.098 E3375.94831
G1 X192.257 Y149.318 E3376.02784
G1 X192.027 Y148.588 E3376.10421
G1 X191.838 Y148.125 E3376.15411
G1 X191.701 Y147.890 E3376.18125
G1 X191.299 Y147.316 E3376.25118
G1 X190.843 Y146.768 E3376.32231
G1 X190.342 Y146.259 E3376.39357
G1 X189.800 Y145.793 E3376.46490
G1 X189.222 Y145.375 E3376.53607
G1 X188.610 Y145.006 E3376.60738
G1 X187.969 Y144.689 E3376.67873
G1 X187.164 Y144.382 E3376.76470
G1 X186.551 Y144.210 E3376.82822
G1 X186.036 Y144.089 E3376.88101
G1 X185.192 Y143.981 E3376.96591
G1 X184.364 Y143.956 E3377.04857
G1 X183.967 Y143.966 E3377.08819
G1 X183.141 Y144.059 E3377.17113
G1 X182.352 Y144.225 E3377.25158
G1 X181.615 Y144.455 E3377.32862
G1 X181.098 Y144.656 E3377.38397
G1 X180.404 Y144.995 E3377.46103
G1 X179.972 Y145.254 E3377.51129
G1 X179.760 Y145.424 E3377.53841
G1 X179.243 Y145.918 E3377.60976
G1 X178.771 Y146.451 E3377.68079
G1 X178.355 Y147.013 E3377.75056
G1 X177.991 Y147.598 E3377.81931
G1 X177.686 Y148.201 E3377.88674
G1 F2100 E3377.48674
G1 Z2.000
G0 F12000 X156.892 Y134.840
G1 Z1.600
G1 F2100 E3377.88674
G1 F2400 X183.009 Y119.759 E3380.89596
G1 X185.990 Y119.759 E3381.19341
G1 X212.108 Y134.840 E3384.20272
G1 X213.600 Y137.421 E3384.50019
G1 X213.600 Y167.578 E3387.50927
G1 X212.107 Y170.160 E3387.80687
G1 X185.990 Y185.241 E3390.81609
G1 X183.009 Y185.241 E3391.11354
G1 X156.891 Y170.160 E3394.12285
G1 X155.400 Y167.579 E3394.42027
G1 X155.400 Y137.422 E3397.42935
G1 X156.892 Y134.840 E3397.72690
G0 F12000 X157.386 Y135.600
;TYPE:SKIN
G1 F2400 X211.612 Y135.600 E3403.13759
G0 F12000 X211.959 Y136.200
G1 F2400 X157.040 Y136.200 E3408.61743
G0 F12000 X156.693 Y136.800
G1 F2400 X212.306 Y136.800 E3414.16652
G0 F12000 X212.652 Y137.400
G1 F2400 X156.347 Y137.400 E3419.78465
G0 F12000 X156.209 Y138.000
G1 F2400 X212.789 Y138.000 E3425.43023
G0 F12000 X212.789 Y138.600
G1 F2400 X156.209 Y138.600 E3431.07581
G0 F12000 X156.209 Y139.200
G1 F2400 X212.789 Y139.200 E3436.72138
G0 F12000 X212.789 Y139.800
G1 F2400 X156.209 Y139.800 E3442.36696
G1 F2100 E3441.96696
G1 Z2.000
G0 F12000 X158.232 Y135.000
G1 Z1.600
G1 F2100 E3442.36696
G1 F2400 X210.766 Y135.000 E3447.60882
G0 F12000 X209.727 Y134.400
G1 F2400 X159.271 Y134.400 E3452.64334
G0 F12000 X160.310 Y133.800
G1 F2400 X208.688 Y133.800 E3457.47052
G0 F12000 X207.649 Y133.200
G1 F2400 X161.349 Y133.200 E3462.09035
G0 F12000 X162.388 Y132.600
G1 F2400 X206.610 Y132.600 E3466.50284
G0 F12000 X205.571 Y132.000
G1 F2400 X163.427 Y132.000 E3470.70798
G0 F12000 X164.466 Y131.400
G1 F2400 X204.532 Y131.400 E3474.70579
G0 F12000 X203.493 Y130.800
G1 F2400 X165.505 Y130.800 E3478.49624
G0 F12000 X166.544 Y130.200
G1 F2400 X202.454 Y130.200 E3482.07936
G0 F12000 X201.415 Y129.600
G1 F2400 X167.583 Y129.600 E3485.45513
G0 F12000 X168.622 Y129.000
G1 F2400 X200.376 Y129.000 E3488.62356
G0 F12000 X199.337 Y128.400
G1 F2400 X169.661 Y128.400 E3491.58464
G0 F12000 X170.700 Y127.800
G1 F2400 X198.298 Y127.800 E3494.33838
G0 F12000 X197.259 Y127.200
G1 F2400 X171.739 Y127.200 E3496.88477
G0 F12000 X172.778 Y126.600
G1 F2400 X196.220 Y126.600 E3499.22383
G0 F12000 X195.180 Y126.000
G1 F2400 X173.818 Y126.000 E3501.35534
G0 F12000 X174.857 Y125.400
G1 F2400 X194.141 Y125.400 E3503.27950
G0 F12000 X193.102 Y124.800
G1 F2400 X175.896 Y124.800 E3504.99632
G0 F12000 X176.935 Y124.200
G1 F2400 X192.063 Y124.200 E3506.50580
G0 F12000 X191.024 Y123.600
G1 F2400 X177.974 Y123.600 E3507.80793
G0 F12000 X179.013 Y123.000
G1 F2400 X189.985 Y123.000 E3508.90273
G0 F12000 X188.946 Y122.400
G1 F2400 X180.052 Y122.400 E3509.79017
G0 F12000 X181.091 Y121.800
G1 F2400 X187.907 Y121.800 E3510.47028
G0 F12000 X186.868 Y121.200
G1 F2400 X182.130 Y121.200 E3510.94304
G0 F12000 X183.169 Y120.600
G1 F2400 X185.829 Y120.600 E3511.20845
G1 F2100 E3510.80845
G1 Z2.000
G0 F12000 X186.646 Y143.400
G1 Z1.600
G1 F2100 E3511.20845
G1 F2400 X212.789 Y143.400 E3513.81701
G0 F12000 X212.789 Y144.000
G1 F2400 X188.404 Y144.000 E3516.25016
G0 F12000 X189.505 Y144.600
G1 F2400 X212.789 Y144.600 E3518.57344
G0 F12000 X212.789 Y145.200
G1 F2400 X190.352 Y145.200 E3520.81222
G0 F12000 X191.027 Y145.800
G1 F2400 X212.789 Y145.800 E3522.98364
G0 F12000 X212.789 Y146.400
G1 F2400 X191.590 Y146.400 E3525.09888
G0 F12000 X192.066 Y147.000
G1 F2400 X212.789 Y147.000 E3527.16663
G0 F12000 X212.789 Y147.600
G1 F2400 X192.469 Y147.600 E3529.19417
G0 F12000 X192.742 Y148.200
G1 F2400 X212.789 Y148.200 E3531.19447
G0 F12000 X212.789 Y148.800
G1 F2400 X192.942 Y148.800 E3533.17481
G0 F12000 X193.101 Y149.400
G1 F2400 X212.789 Y149.400 E3535.13928
G0 F12000 X212.789 Y150.000
G1 F2400 X193.224 Y150.000 E3537.09149
G0 F12000 X193.301 Y150.600
G1 F2400 X212.789 Y150.600 E3539.03601
G0 F12000 X212.789 Y151.200
G1 F2400 X193.330 Y151.200 E3540.97764
G0 F12000 X193.328 Y151.800
G1 F2400 X212.789 Y151.800 E3542.91946
G0 F12000 X212.789 Y152.400
G1 F2400 X193.274 Y152.400 E3544.86668
G0 F12000 X193.187 Y153.000
G1 F2400 X212.789 Y153.000 E3546.82257
G0 F12000 X212.789 Y153.600
G1 F2400 X193.058 Y153.600 E3548.79134
G0 F12000 X192.867 Y154.200
G1 F2400 X212.789 Y154.200 E3550.77916
G0 F12000 X212.789 Y154.800
G1 F2400 X192.642 Y154.800 E3552.78944
G0 F12000 X192.359 Y155.400
G1 F2400 X212.789 Y155.400 E3554.82795
G0 F12000 X212.789 Y156.000
G1 F2400 X192.012 Y156.000 E3556.90109
G0 F12000 X191.594 Y156.600
G1 F2400 X212.789 Y156.600 E3559.01594
G0 F12000 X212.789 Y157.200
G1 F2400 X191.073 Y157.200 E3561.18277
G0 F12000 X190.449 Y157.800
G1 F2400 X212.789 Y157.800 E3563.41186
G0 F12000 X212.789 Y158.400
G1 F2400 X189.646 Y158.400 E3565.72108
G0 F12000 X188.539 Y159.000
G1 F2400 X212.789 Y159.000 E3568.14076
G0 F12000 X212.789 Y159.600
G1 F2400 X186.124 Y159.600 E3570.80140
G1 F2100 E3570.40140
G1 Z2.000
G0 F12000 X183.298 Y159.600
G1 Z1.600
G1 F2100 E3570.80140
G1 F2400 X156.209 Y159.600 E3573.50435
G0 F12000 X156.209 Y159.000
G1 F2400 X181.423 Y159.000 E3576.02021
G0 F12000 X180.375 Y158.400
G1 F2400 X156.209 Y158.400 E3578.43151
G0 F12000 X156.209 Y157.800
G1 F2400 X179.391 Y157.800 E3580.74462
G0 F12000 X178.645 Y157.200
G1 F2400 X156.209 Y157.200 E3582.98329
G0 F12000 X156.209 Y156.600
G1 F2400 X178.077 Y156.600 E3585.16529
G0 F12000 X177.606 Y156.000
G1 F2400 X156.209 Y156.000 E3587.30029
G0 F12000 X156.209 Y155.400
G1 F2400 X177.223 Y155.400 E3589.39707
G0 F12000 X176.911 Y154.800
G1 F2400 X156.209 Y154.800 E3591.46273
G0 F12000 X156.209 Y154.200
G1 F2400 X176.678 Y154.200 E3593.50513
G0 F12000 X176.476 Y153.600
G1 F2400 X156.209 Y153.600 E3595.52738
G0 F12000 X156.209 Y153.000
G1 F2400 X176.326 Y153.000 E3597.53467
G0 F12000 X176.239 Y152.400
G1 F2400 X156.209 Y152.400 E3599.53327
G0 F12000 X156.209 Y151.800
G1 F2400 X176.187 Y151.800 E3601.52668
G0 F12000 X176.175 Y151.200
G1 F2400 X156.209 Y151.200 E3603.51890
G0 F12000 X156.209 Y150.600
G1 F2400 X176.226 Y150.600 E3605.51620
G0 F12000 X176.295 Y150.000
G1 F2400 X156.209 Y150.000 E3607.52039
G0 F12000 X156.209 Y149.400
G1 F2400 X176.420 Y149.400 E3609.53705
G0 F12000 X176.592 Y148.800
G1 F2400 X156.209 Y148.800 E3611.57088
G0 F12000 X156.209 Y148.200
G1 F2400 X176.810 Y148.200 E3613.62645
G0 F12000 X177.080 Y147.600
G1 F2400 X156.209 Y147.600 E3615.70897
G0 F12000 X156.209 Y147.000
G1 F2400 X177.407 Y147.000 E3617.82411
G0 F12000 X177.799 Y146.400
G1 F2400 X156.209 Y146.400 E3619.97837
G0 F12000 X156.209 Y145.800
G1 F2400 X178.263 Y145.800 E3622.17893
G0 F12000 X178.819 Y145.200
G1 F2400 X156.209 Y145.200 E3624.43496
G0 F12000 X156.209 Y144.600
G1 F2400 X179.490 Y144.600 E3626.75795
G0 F12000 X180.592 Y144.000
G1 F2400 X156.209 Y144.000 E3629.19090
G0 F12000 X156.209 Y143.400
G1 F2400 X182.332 Y143.400 E3631.79746
G1 F2100 E3631.39746
G1 Z2.000
G0 F12000 X156.209 Y142.800
G1 Z1.600
G1 F2100 E3631.79746
G1 F2400 X212.789 Y142.800 E3637.44304
G0 F12000 X212.789 Y142.200
G1 F2400 X156.209 Y142.200 E3643.08861
G0 F12000 X156.209 Y141.600
G1 F2400 X212.789 Y141.600 E3648.73419
G0 F12000 X212.789 Y141.000
G1 F2400 X156.209 Y141.000 E3654.37976
G0 F12000 X156.209 Y140.400
G1 F2400 X212.789 Y140.400 E3660.02534
G1 F2100 E3659.62534
G1 Z2.000
G0 F12000 X212.789 Y160.200
G1 Z1.600
G1 F2100 E3660.02534
G1 F2400 X156.209 Y160.200 E3665.67091
G0 F12000 X156.209 Y160.800
G1 F2400 X212.789 Y160.800 E3671.31649
G0 F12000 X212.789 Y161.400
G1 F2400 X156.209 Y161.400 E3676.96206
G0 F12000 X156.209 Y162.000
G1 F2400 X212.789 Y162.000 E3682.60764
G0 F12000 X212.789 Y162.600
G1 F2400 X156.209 Y162.600 E3688.25321
G0 F12000 X156.209 Y163.200
G1 F2400 X212.789 Y163.200 E3693.89879
G0 F12000 X212.789 Y163.800
G1 F2400 X156.209 Y163.800 E3699.54436
G0 F12000 X156.209 Y164.400
G1 F2400 X212.789 Y164.400 E3705.18994
G0 F12000 X212.789 Y165.000
G1 F2400 X156.209 Y165.000 E3710.83552
G0 F12000 X156.209 Y165.600
G1 F2400 X212.789 Y165.600 E3716.48109
G0 F12000 X212.789 Y166.200
G1 F2400 X156.209 Y166.200 E3722.12667
G0 F12000 X156.209 Y166.800
G1 F2400 X212.789 Y166.800 E3727.77224
G0 F12000 X212.765 Y167.400
G1 F2400 X156.232 Y167.400 E3733.41313
G0 F12000 X156.578 Y168.000
G1 F2400 X212.419 Y168.000 E3738.98496
G0 F12000 X212.072 Y168.600
G1 F2400 X156.924 Y168.600 E3744.48765
G0 F12000 X157.270 Y169.200
G1 F2400 X211.725 Y169.200 E3749.92120
G0 F12000 X211.108 Y169.800
G1 F2400 X157.887 Y169.800 E3755.23161
G0 F12000 X158.926 Y170.400
G1 F2400 X210.069 Y170.400 E3760.33468
G0 F12000 X209.030 Y171.000
G1 F2400 X159.965 Y171.000 E3765.23040
G0 F12000 X161.004 Y171.600
G1 F2400 X207.991 Y171.600 E3769.91879
G0 F12000 X206.952 Y172.200
G1 F2400 X162.043 Y172.200 E3774.39982
G0 F12000 X163.082 Y172.800
G1 F2400 X205.913 Y172.800 E3778.67352
G0 F12000 X204.874 Y173.400
G1 F2400 X164.121 Y173.400 E3782.73987
G0 F12000 X165.160 Y174.000
G1 F2400 X203.835 Y174.000 E3786.59888
G0 F12000 X202.796 Y174.600
G1 F2400 X166.200 Y174.600 E3790.25044
G0 F12000 X167.239 Y175.200
G1 F2400 X201.757 Y175.200 E3793.69466
G0 F12000 X200.718 Y175.800
G1 F2400 X168.278 Y175.800 E3796.93154
G0 F12000 X169.317 Y176.400
G1 F2400 X199.679 Y176.400 E3799.96107
G0 F12000 X198.640 Y177.000
G1 F2400 X170.356 Y177.000 E3802.78326
G0 F12000 X171.395 Y177.600
G1 F2400 X197.600 Y177.600 E3805.39800
G0 F12000 X196.561 Y178.200
G1 F2400 X172.434 Y178.200 E3807.80541
G0 F12000 X173.473 Y178.800
G1 F2400 X195.522 Y178.800 E3810.00546
G0 F12000 X194.483 Y179.400
G1 F2400 X174.512 Y179.400 E3811.99818
G0 F12000 X175.551 Y180.000
G1 F2400 X193.444 Y180.000 E3813.78355
G0 F12000 X192.405 Y180.600
G1 F2400 X176.591 Y180.600 E3815.36148
G0 F12000 X177.630 Y181.200
G1 F2400 X191.366 Y181.200 E3816.73206
G0 F12000 X190.327 Y181.800
G1 F2400 X178.669 Y181.800 E3817.89530
G0 F12000 X179.708 Y182.400
G1 F2400 X189.288 Y182.400 E3818.85120
G0 F12000 X188.249 Y183.000
G1 F2400 X180.747 Y183.000 E3819.59975
G0 F12000 X181.786 Y183.600
G1 F2400 X187.210 Y183.600 E3820.14096
G0 F12000 X186.171 Y184.200
G1 F2400 X182.825 Y184.200 E3820.47482
;LAYER:4
M106 S84
G1 F2100 E3820.07482
G1 Z2.000
G0 F12000 X149.400 Y167.525 Z2.000
;TYPE:WALL-INNER
G1 Z2.000
G1 F2100 E3820.47482
G1 F2700 X147.962 Y170.014 E3820.76165
G1 X121.939 Y185.041 E3823.76005
G1 X119.064 Y185.041 E3824.04692
G1 X93.038 Y170.013 E3827.04564
G1 X91.600 Y167.525 E3827.33238
G1 X91.600 Y137.475 E3830.33078
G1 X93.038 Y134.986 E3830.61760
G1 X119.062 Y119.959 E3833.61610
G1 X121.937 Y119.959 E3833.90297
G1 X147.963 Y134.987 E3836.90168
G1 X149.400 Y137.475 E3837.18837
G1 X149.400 Y167.525 E3840.18677
G1 F2100 E3839.78677
G1 Z2.400
G0 F12000 X128.602 Y155.949
G1 Z2.000
G1 F2100 E3840.18677
G1 F2700 X129.005 Y155.179 E3840.27349
G1 X129.292 Y154.468 E3840.34999
G1 X129.530 Y153.696 E3840.43060
G1 X129.605 Y153.348 E3840.46612
G1 X129.646 Y152.808 E3840.52016
G1 X129.637 Y152.150 E3840.58582
G1 X129.640 Y152.093 E3840.59152
G1 X129.636 Y151.972 E3840.60360
G1 X129.569 Y151.285 E3840.67247
G1 X129.437 Y150.535 E3840.74846
G1 X129.241 Y149.796 E3840.82474
G1 X128.985 Y149.077 E3840.90090
G1 X128.669 Y148.383 E3840.97699
G1 X128.299 Y147.715 E3841.05318
G1 X127.871 Y147.081 E3841.12951
G1 X127.394 Y146.486 E3841.20560
G1 X126.868 Y145.931 E3841.28190
G1 X126.298 Y145.423 E3841.35808
G1 X125.688 Y144.964 E3841.43425
G1 X125.044 Y144.561 E3841.51006
G1 X124.525 Y144.284 E3841.56876
G1 X123.790 Y143.963 E3841.64879
G1 X122.997 Y143.698 E3841.73221
G1 X122.319 Y143.537 E3841.80174
G1 X122.203 Y143.510 E3841.81363
G1 X121.452 Y143.400 E3841.88936
G1 X121.082 Y143.377 E3841.92635
G1 X120.527 Y143.418 E3841.98188
G1 X119.786 Y143.537 E3842.05677
G1 X119.055 Y143.719 E3842.13193
G1 X118.373 Y143.951 E3842.20381
G1 X117.681 Y144.253 E3842.27915
G1 X116.955 Y144.651 E3842.36176
G1 X116.464 Y144.979 E3842.42068
G1 X115.925 Y145.399 E3842.48886
G1 X115.158 Y146.139 E3842.59521
G1 X114.831 Y146.511 E3842.64463
G1 X114.430 Y147.053 E3842.71190
G1 X114.078 Y147.616 E3842.77815
G1 X113.781 Y148.199 E3842.84344
G1 X113.538 Y148.788 E3842.90701
G1 X113.349 Y149.376 E3842.96864
G1 X113.261 Y149.719 E3843.00397
G1 X113.135 Y150.400 E3843.07308
G1 X113.074 Y151.075 E3843.14070
G1 X113.070 Y151.478 E3843.18092
G1 X113.102 Y152.134 E3843.24645
G1 X113.194 Y152.771 E3843.31067
G1 X113.332 Y153.358 E3843.37084
G1 X113.472 Y153.809 E3843.41796
G1 X113.686 Y154.345 E3843.47555
G1 X113.867 Y154.712 E3843.51638
G1 X114.047 Y155.196 E3843.56790
G1 X114.278 Y155.694 E3843.62268
G1 X114.547 Y156.172 E3843.67741
G1 X114.854 Y156.629 E3843.73234
G1 X115.202 Y157.066 E3843.78808
G1 X115.718 Y157.599 E3843.86210
G1 X116.397 Y158.164 E3843.95024
G1 X116.898 Y158.493 E3844.01005
G1 X117.280 Y158.711 E3844.05393
G1 X117.678 Y158.984 E3844.10209
G1 X118.128 Y159.251 E3844.15430
G1 X118.644 Y159.500 E3844.21147
G1 X119.187 Y159.708 E3844.26949
G1 X119.753 Y159.876 E3844.32840
G1 X120.345 Y160.002 E3844.38879
G1 X120.958 Y160.078 E3844.45043
G1 X121.587 Y160.104 E3844.51324
G1 X122.230 Y160.075 E3844.57747
G1 X122.878 Y159.992 E3844.64265
G1 X123.535 Y159.851 E3844.70970
G1 X124.426 Y159.568 E3844.80298
G1 X125.050 Y159.293 E3844.87102
G1 X125.651 Y158.966 E3844.93929
G1 X126.231 Y158.583 E3845.00864
G1 X126.774 Y158.153 E3845.07776
G1 X127.288 Y157.675 E3845.14779
G1 X127.771 Y157.142 E3845.21956
G1 X128.277 Y156.474 E3845.30318
G1 X128.602 Y155.949 E3845.36479
G0 F12000 X128.091 Y155.635
;TYPE:WALL-OUTER
G1 F2700 X128.184 Y155.482 E3845.38266
G1 X128.458 Y154.932 E3845.44397
G1 X128.726 Y154.267 E3845.51551
G1 X128.949 Y153.544 E3845.59100
G1 X129.010 Y153.261 E3845.61989
G1 X129.046 Y152.789 E3845.66712
G1 X129.037 Y152.160 E3845.72989
G1 X129.039 Y152.092 E3845.73668
G1 X129.037 Y152.011 E3845.74476
G1 X128.974 Y151.366 E3845.80943
G1 X128.850 Y150.664 E3845.88056
G1 X128.668 Y149.974 E3845.95176
G1 X128.428 Y149.302 E3846.02296
G1 X128.133 Y148.653 E3846.09409
G1 X127.787 Y148.029 E3846.16529
G1 X127.388 Y147.437 E3846.23652
G1 X126.941 Y146.881 E3846.30771
G1 X126.450 Y146.362 E3846.37899
G1 X125.917 Y145.888 E3846.45017
G1 X125.347 Y145.459 E3846.52135
G1 X124.743 Y145.080 E3846.59250
G1 X124.264 Y144.825 E3846.64664
G1 X123.574 Y144.524 E3846.72176
G1 X122.832 Y144.275 E3846.79985
G1 X122.182 Y144.121 E3846.86651
G1 X121.390 Y143.997 E3846.94650
G1 X121.085 Y143.978 E3846.97699
G1 X120.597 Y144.015 E3847.02582
G1 X119.906 Y144.126 E3847.09565
G1 X119.224 Y144.295 E3847.16576
G1 X118.578 Y144.515 E3847.23385
G1 X117.948 Y144.791 E3847.30248
G1 X117.266 Y145.165 E3847.38009
G1 X116.815 Y145.466 E3847.43420
G1 X116.311 Y145.859 E3847.49797
G1 X115.596 Y146.550 E3847.59718
G1 X115.298 Y146.888 E3847.64215
G1 X114.926 Y147.391 E3847.70457
G1 X114.601 Y147.912 E3847.76584
G1 X114.326 Y148.450 E3847.82613
G1 X114.102 Y148.995 E3847.88492
G1 X113.926 Y149.542 E3847.94226
G1 X113.730 Y150.482 E3848.03807
G1 X113.674 Y151.106 E3848.10058
G1 X113.670 Y151.467 E3848.13661
G1 X113.700 Y152.076 E3848.19745
G1 X113.784 Y152.659 E3848.25622
G1 X113.911 Y153.200 E3848.31167
G1 X114.038 Y153.608 E3848.35430
G1 X114.235 Y154.101 E3848.40728
G1 X114.427 Y154.495 E3848.45101
G1 X114.601 Y154.965 E3848.50102
G1 X114.813 Y155.420 E3848.55110
G1 X115.058 Y155.857 E3848.60109
G1 X115.339 Y156.274 E3848.65127
G1 X115.653 Y156.669 E3848.70162
G1 X116.127 Y157.158 E3848.76957
G1 X116.755 Y157.681 E3848.85112
G1 X117.211 Y157.981 E3848.90558
G1 X117.593 Y158.198 E3848.94942
G1 X118.412 Y158.722 E3849.04643
G1 X118.882 Y158.949 E3849.09851
G1 X119.380 Y159.139 E3849.15170
G1 X119.901 Y159.294 E3849.20593
G1 X120.444 Y159.410 E3849.26134
G1 X121.007 Y159.479 E3849.31793
G1 X121.586 Y159.503 E3849.37576
G1 X122.178 Y159.477 E3849.43488
G1 X122.777 Y159.400 E3849.49514
G1 X123.381 Y159.270 E3849.55679
G1 X124.214 Y159.006 E3849.64398
G1 X124.785 Y158.754 E3849.70626
G1 X125.342 Y158.451 E3849.76953
G1 X125.879 Y158.096 E3849.83376
G1 X126.383 Y157.698 E3849.89784
G1 X126.861 Y157.253 E3849.96300
G1 X127.308 Y156.759 E3850.02948
G1 X127.782 Y156.134 E3850.10775
G1 X128.091 Y155.635 E3850.16631
G1 F2100 E3849.76631
G1 Z2.400
G0 F12000 X150.000 Y167.685
G1 Z2.000
G1 F2100 E3850.16631
G1 F2700 X148.401 Y170.453 E3850.48527
G1 X122.098 Y185.641 E3853.51591
G1 X118.903 Y185.641 E3853.83471
G1 X92.600 Y170.453 E3856.86535
G1 X91.000 Y167.685 E3857.18436
G1 X91.000 Y137.315 E3860.21469
G1 X92.600 Y134.547 E3860.53370
G1 X118.903 Y119.359 E3863.56434
G1 X122.098 Y119.359 E3863.88314
G1 X148.401 Y134.547 E3866.91378
G1 X150.000 Y137.315 E3867.23274
G1 X150.000 Y167.685 E3870.26307
G1 F2100 E3869.86307
G1 Z2.400
G0 F12000 X147.892 Y168.314
;TYPE:FILL
G1 Z2.000
G1 F2100 E3870.26307
G1 F2700 X128.188 Y156.938 E3872.53329
G1 F2100 E3872.13329
G1 Z2.400
G0 F12000 X128.598 Y147.823
G1 Z2.000
G1 F2100 E3872.53329
G1 F2700 X147.891 Y136.684 E3874.75617
G1 F2100 E3874.35617
G1 Z2.400
G0 F12000 X140.103 Y131.499
G1 Z2.000
G1 F2100 E3874.75617
G1 F2700 X140.103 Y173.502 E3878.94725
G1 F2100 E3878.54725
G1 Z2.400
G0 F12000 X138.686 Y174.317
G1 Z2.000
G1 F2100 E3878.94725
G1 F2700 X92.509 Y147.656 E3884.26764
G1 F2100 E3883.86764
G1 Z2.400
G0 F12000 X92.510 Y146.021
G1 Z2.000
G1 F2100 E3884.26764
G1 F2700 X128.884 Y125.021 E3888.45849
G1 F2100 E3888.05849
G1 Z2.400
G0 F12000 X130.301 Y125.840
G1 Z2.000
G1 F2100 E3888.45849
G1 F2700 X130.301 Y179.161 E3893.77888
G1 F2100 E3893.37888
G1 Z2.400
G0 F12000 X128.884 Y179.976
G1 Z2.000
G1 F2100 E3893.77888
G1 F2700 X92.510 Y158.975 E3897.96979
G1 F2100 E3897.56979
G1 Z2.400
G0 F12000 X92.511 Y157.339
G1 Z2.000
G1 F2100 E3897.96979
G1 F2700 X138.686 Y130.680 E3903.28991
G1 F2100 E3902.88991
G1 Z2.400
G0 F12000 X120.499 Y120.869
G1 Z2.000
G1 F2100 E3903.28991
G1 F2700 X120.499 Y143.211 E3905.51920
G1 F2100 E3905.11920
G1 Z2.400
G0 F12000 X113.456 Y148.432
G1 Z2.000
G1 F2100 E3905.51920
G1 F2700 X93.108 Y136.684 E3907.86363
G1 F2100 E3907.46363
G1 Z2.400
G0 F12000 X100.895 Y131.500
G1 Z2.000
G1 F2100 E3907.86363
G1 F2700 X100.895 Y173.499 E3912.05431
G1 F2100 E3911.65431
G1 Z2.400
G0 F12000 X102.312 Y174.318
G1 Z2.000
G1 F2100 E3912.05431
G1 F2700 X148.489 Y147.657 E3917.37469
G1 F2100 E3916.97469
G1 Z2.400
G0 F12000 X148.490 Y146.022
G1 Z2.000
G1 F2100 E3917.37469
G1 F2700 X112.115 Y125.021 E3921.56569
G1 F2100 E3921.16569
G1 Z2.400
G0 F12000 X110.697 Y125.840
G1 Z2.000
G1 F2100 E3921.56569
G1 F2700 X110.697 Y179.159 E3926.88588
G1 F2100 E3926.48588
G1 Z2.400
G0 F12000 X112.113 Y179.977
G1 Z2.000
G1 F2100 E3926.88588
G1 F2700 X148.488 Y158.976 E3931.07687
G1 F2100 E3930.67687
G1 Z2.400
G0 F12000 X148.490 Y157.340
G1 Z2.000
G1 F2100 E3931.07687
G1 F2700 X102.314 Y130.680 E3936.39712
G1 F2100 E3935.99712
G1 Z2.400
G0 F12000 X113.190 Y156.719
G1 Z2.000
G1 F2100 E3936.39712
G1 F2700 X93.107 Y168.313 E3938.71097
G1 F2100 E3938.31097
G1 Z2.400
G0 F12000 X120.499 Y160.956
G1 Z2.000
G1 F2100 E3938.71097
G1 F2700 X120.499 Y184.131 E3941.02338
G0 F12000 X120.600 Y184.831
;TYPE:SKIN
G1 F2700 X120.600 Y183.351 E3941.17105
G0 F12000 X120.000 Y183.351
G1 F2700 X120.000 Y184.831 E3941.31873
G0 F12000 X121.200 Y184.831
G1 F2700 X121.200 Y183.351 E3941.46640
G0 F12000 X121.800 Y183.169
G1 F2700 X121.800 Y184.831 E3941.63224
G0 F12000 X122.400 Y184.532
G1 F2700 X122.400 Y182.823 E3941.80276
G0 F12000 X123.000 Y182.476
G1 F2700 X123.000 Y184.186 E3941.97339
G0 F12000 X123.600 Y183.839
G1 F2700 X123.600 Y182.130 E3942.14391
G0 F12000 X124.200 Y181.783
G1 F2700 X124.200 Y183.493 E3942.31454
G0 F12000 X124.800 Y183.146
G1 F2700 X124.800 Y181.437 E3942.48506
G0 F12000 X125.400 Y181.091
G1 F2700 X125.400 Y182.800 E3942.65559
G0 F12000 X126.000 Y182.454
G1 F2700 X126.000 Y180.744 E3942.82621
G0 F12000 X126.600 Y180.398
G1 F2700 X126.600 Y182.107 E3942.99674
G0 F12000 X127.200 Y181.761
G1 F2700 X127.200 Y180.051 E3943.16736
G0 F12000 X127.800 Y179.705
G1 F2700 X127.800 Y181.414 E3943.33789
G0 F12000 X128.400 Y181.068
G1 F2700 X128.400 Y179.358 E3943.50851
G0 F12000 X129.000 Y179.012
G1 F2700 X129.000 Y180.721 E3943.67903
G0 F12000 X129.600 Y180.375
G1 F2700 X129.600 Y178.665 E3943.84966
G0 F12000 X130.200 Y178.319
G1 F2700 X130.200 Y180.028 E3944.02018
G0 F12000 X130.800 Y179.682
G1 F2700 X130.800 Y177.973 E3944.19071
G0 F12000 X131.400 Y177.626
G1 F2700 X131.400 Y179.335 E3944.36123
G0 F12000 X132.000 Y178.989
G1 F2700 X132.000 Y177.280 E3944.53176
G0 F12000 X132.600 Y176.933
G1 F2700 X132.600 Y178.642 E3944.70228
G0 F12000 X133.200 Y178.296
G1 F2700 X133.200 Y176.587 E3944.87281
G0 F12000 X133.800 Y176.240
G1 F2700 X133.800 Y177.949 E3945.04333
G0 F12000 X134.400 Y177.603
G1 F2700 X134.400 Y175.894 E3945.21386
G0 F12000 X135.000 Y175.548
G1 F2700 X135.000 Y177.256 E3945.38428
G0 F12000 X135.600 Y176.910
G1 F2700 X135.600 Y175.201 E3945.55481
G0 F12000 X136.200 Y174.855
G1 F2700 X136.200 Y176.564 E3945.72533
G0 F12000 X136.800 Y176.217
G1 F2700 X136.800 Y174.508 E3945.89586
G0 F12000 X137.400 Y174.162
G1 F2700 X137.400 Y175.871 E3946.06638
G0 F12000 X138.000 Y175.524
G1 F2700 X138.000 Y173.815 E3946.23690
G0 F12000 X138.600 Y173.469
G1 F2700 X138.600 Y175.178 E3946.40743
G0 F12000 X139.200 Y174.831
G1 F2700 X139.200 Y173.122 E3946.57795
G0 F12000 X139.800 Y172.776
G1 F2700 X139.800 Y174.485 E3946.74848
G1 F2100 E3946.34848
G1 Z2.400
G0 F12000 X125.400 Y160.330
G1 Z2.000
G1 F2100 E3946.74848
G1 F2700 X125.100 Y159.486 E3946.84724
G1 X124.500 Y160.815 E3946.95078
G1 X124.200 Y159.859 E3947.05076
G1 F2100 E3946.65076
G1 Z2.400
G0 F12000 X126.000 Y159.817
G1 Z2.000
G1 F2100 E3947.05076
G1 F2700 X126.300 Y159.084 E3947.13348
G1 X126.900 Y158.473 E3947.19571
G1 X127.200 Y158.043 E3947.24803
G1 F2100 E3946.84803
G1 Z2.400
G0 F12000 X123.600 Y160.050
G1 Z2.000
G1 F2100 E3947.24803
G1 F2700 X123.600 Y161.197 E3947.36247
G0 F12000 X123.000 Y161.392
G1 F2700 X123.000 Y160.180 E3947.48341
G0 F12000 X122.400 Y160.265
G1 F2700 X122.400 Y161.538 E3947.61043
G0 F12000 X121.800 Y161.640
G1 F2700 X121.800 Y160.304 E3947.74374
G0 F12000 X121.200 Y160.298
G1 F2700 X121.200 Y161.706 E3947.88423
G0 F12000 X120.600 Y161.736
G1 F2700 X120.600 Y160.246 E3948.03290
G0 F12000 X120.000 Y160.144
G1 F2700 X120.000 Y161.719 E3948.19005
G0 F12000 X119.400 Y161.671
G1 F2700 X119.400 Y159.991 E3948.35768
G0 F12000 X118.800 Y159.785
G1 F2700 X118.800 Y161.574 E3948.53619
G0 F12000 X118.200 Y161.438
G1 F2700 X118.200 Y159.520 E3948.72757
G0 F12000 X117.600 Y159.183
G1 F2700 X117.600 Y161.263 E3948.93511
G0 F12000 X117.000 Y161.044
G1 F2700 X117.000 Y158.794 E3949.15962
G0 F12000 X116.400 Y158.418
G1 F2700 X116.400 Y160.775 E3949.39480
G0 F12000 X115.800 Y160.451
G1 F2700 X115.800 Y157.940 E3949.64535
G0 F12000 X115.200 Y157.366
G1 F2700 X115.200 Y160.061 E3949.91426
G1 F2100 E3949.51426
G1 Z2.400
G0 F12000 X106.200 Y175.663
G1 Z2.000
G1 F2100 E3949.91426
G1 F2700 X106.200 Y177.370 E3950.08458
G0 F12000 X106.800 Y177.716
G1 F2700 X106.800 Y176.010 E3950.25481
G0 F12000 X107.400 Y176.356
G1 F2700 X107.400 Y178.063 E3950.42513
G0 F12000 X108.000 Y178.409
G1 F2700 X108.000 Y176.703 E3950.59536
G0 F12000 X108.600 Y177.049
G1 F2700 X108.600 Y178.755 E3950.76558
G0 F12000 X109.200 Y179.102
G1 F2700 X109.200 Y177.396 E3950.93581
G0 F12000 X109.800 Y177.742
G1 F2700 X109.800 Y179.448 E3951.10604
G0 F12000 X110.400 Y179.795
G1 F2700 X110.400 Y178.088 E3951.27636
G0 F12000 X111.000 Y178.435
G1 F2700 X111.000 Y180.141 E3951.44659
G0 F12000 X111.600 Y180.488
G1 F2700 X111.600 Y178.781 E3951.61691
G0 F12000 X112.200 Y179.128
G1 F2700 X112.200 Y180.834 E3951.78714
G0 F12000 X112.800 Y181.181
G1 F2700 X112.800 Y179.474 E3951.95746
G0 F12000 X113.400 Y179.821
G1 F2700 X113.400 Y181.527 E3952.12769
G0 F12000 X114.000 Y181.874
G1 F2700 X114.000 Y180.167 E3952.29801
G0 F12000 X114.600 Y180.514
G1 F2700 X114.600 Y182.220 E3952.46824
G0 F12000 X115.200 Y182.566
G1 F2700 X115.200 Y180.860 E3952.63846
G0 F12000 X115.800 Y181.206
G1 F2700 X115.800 Y182.913 E3952.80879
G0 F12000 X116.400 Y183.259
G1 F2700 X116.400 Y181.553 E3952.97901
G0 F12000 X117.000 Y181.899
G1 F2700 X117.000 Y183.606 E3953.14934
G0 F12000 X117.600 Y183.952
G1 F2700 X117.600 Y182.246 E3953.31956
G0 F12000 X118.200 Y182.592
G1 F2700 X118.200 Y184.299 E3953.48989
G0 F12000 X118.800 Y184.645
G1 F2700 X118.800 Y182.939 E3953.66011
G0 F12000 X119.400 Y183.285
G1 F2700 X119.400 Y184.831 E3953.81437
G1 F2100 E3953.41437
G1 Z2.400
G0 F12000 X105.600 Y177.023
G1 Z2.000
G1 F2100 E3953.81437
G1 F2700 X105.600 Y175.317 E3953.98460
G0 F12000 X105.000 Y174.971
G1 F2700 X105.000 Y176.677 E3954.15483
G0 F12000 X104.400 Y176.330
G1 F2700 X104.400 Y174.624 E3954.32505
G0 F12000 X103.800 Y174.278
G1 F2700 X103.800 Y175.984 E3954.49528
G0 F12000 X103.200 Y175.637
G1 F2700 X103.200 Y173.931 E3954.66550
G0 F12000 X102.600 Y173.585
G1 F2700 X102.600 Y175.291 E3954.83573
G0 F12000 X102.000 Y174.944
G1 F2700 X102.000 Y173.238 E3955.00595
G0 F12000 X101.400 Y172.892
G1 F2700 X101.400 Y174.598 E3955.17618
G0 F12000 X100.800 Y174.252
G1 F2700 X100.800 Y172.545 E3955.34650
G0 F12000 X100.200 Y172.199
G1 F2700 X100.200 Y173.905 E3955.51673
G0 F12000 X99.600 Y173.559
G1 F2700 X99.600 Y171.853 E3955.68695
G0 F12000 X99.000 Y171.506
G1 F2700 X99.000 Y173.212 E3955.85718
G0 F12000 X98.400 Y172.866
G1 F2700 X98.400 Y171.160 E3956.02740
G0 F12000 X97.800 Y170.813
G1 F2700 X97.800 Y172.519 E3956.19763
G0 F12000 X97.200 Y172.173
G1 F2700 X97.200 Y170.467 E3956.36786
G0 F12000 X96.600 Y170.120
G1 F2700 X96.600 Y171.826 E3956.53808
G0 F12000 X96.000 Y171.480
G1 F2700 X96.000 Y169.774 E3956.70831
G0 F12000 X95.400 Y169.427
G1 F2700 X95.400 Y171.133 E3956.87853
G0 F12000 X94.800 Y170.787
G1 F2700 X94.800 Y169.081 E3957.04876
G0 F12000 X94.200 Y168.647
G1 F2700 X94.200 Y170.441 E3957.22776
G0 F12000 X93.600 Y170.094
G1 F2700 X93.600 Y167.610 E3957.47562
G0 F12000 X92.400 Y168.488
G1 F2700 X92.400 Y136.510 E3960.66640
G0 F12000 X93.000 Y135.472
G1 F2700 X93.000 Y169.526 E3964.06432
G1 F2100 E3963.66432
G1 Z2.400
G0 F12000 X112.800 Y157.592
G1 Z2.000
G1 F2100 E3964.06432
G1 F2700 X112.800 Y149.562 E3964.86555
G1 F2100 E3964.46555
G1 Z2.400
G0 F12000 X112.200 Y150.950
G1 Z2.000
G1 F2100 E3964.86555
G1 F2700 X112.200 Y156.285 E3965.39788
G1 F2100 E3964.99788
G1 Z2.400
G0 F12000 X114.000 Y155.593
G1 Z2.000
G1 F2100 E3965.39788
G1 F2700 X114.000 Y159.062 E3965.74402
G0 F12000 X114.600 Y159.602
G1 F2700 X114.600 Y156.627 E3966.04087
G1 F2100 E3965.64087
G1 Z2.400
G0 F12000 X113.400 Y158.408
G1 Z2.000
G1 F2100 E3966.04087
G1 F2700 X113.400 Y154.195 E3966.46124
G1 F2100 E3966.06124
G1 Z2.400
G0 F12000 X100.800 Y132.455
G1 Z2.000
G1 F2100 E3966.46124
G1 F2700 X100.800 Y130.746 E3966.63177
G0 F12000 X101.400 Y130.400
G1 F2700 X101.400 Y132.109 E3966.80229
G0 F12000 X102.000 Y131.762
G1 F2700 X102.000 Y130.054 E3966.97272
G0 F12000 X102.600 Y129.707
G1 F2700 X102.600 Y131.416 E3967.14324
G0 F12000 X103.200 Y131.069
G1 F2700 X103.200 Y129.361 E3967.31367
G0 F12000 X103.800 Y129.014
G1 F2700 X103.800 Y130.723 E3967.48419
G0 F12000 X104.400 Y130.377
G1 F2700 X104.400 Y128.668 E3967.65472
G0 F12000 X105.000 Y128.321
G1 F2700 X105.000 Y130.030 E3967.82524
G0 F12000 X105.600 Y129.684
G1 F2700 X105.600 Y127.975 E3967.99576
G0 F12000 X106.200 Y127.628
G1 F2700 X106.200 Y129.337 E3968.16629
G0 F12000 X106.800 Y128.991
G1 F2700 X106.800 Y127.282 E3968.33681
G0 F12000 X107.400 Y126.935
G1 F2700 X107.400 Y128.644 E3968.50734
G0 F12000 X108.000 Y128.298
G1 F2700 X108.000 Y126.589 E3968.67786
G0 F12000 X108.600 Y126.242
G1 F2700 X108.600 Y127.952 E3968.84849
G0 F12000 X109.200 Y127.605
G1 F2700 X109.200 Y125.896 E3969.01901
G0 F12000 X109.800 Y125.550
G1 F2700 X109.800 Y127.259 E3969.18954
G0 F12000 X110.400 Y126.912
G1 F2700 X110.400 Y125.203 E3969.36006
G0 F12000 X111.000 Y124.857
G1 F2700 X111.000 Y126.566 E3969.53059
G0 F12000 X111.600 Y126.219
G1 F2700 X111.600 Y124.510 E3969.70111
G0 F12000 X112.200 Y124.164
G1 F2700 X112.200 Y125.873 E3969.87164
G0 F12000 X112.800 Y125.527
G1 F2700 X112.800 Y123.817 E3970.04226
G0 F12000 X113.400 Y123.471
G1 F2700 X113.400 Y125.180 E3970.21279
G0 F12000 X114.000 Y124.834
G1 F2700 X114.000 Y123.124 E3970.38341
G0 F12000 X114.600 Y122.778
G1 F2700 X114.600 Y124.487 E3970.55393
G0 F12000 X115.200 Y124.141
G1 F2700 X115.200 Y122.431 E3970.72456
G0 F12000 X115.800 Y122.085
G1 F2700 X115.800 Y123.794 E3970.89508
G0 F12000 X116.400 Y123.448
G1 F2700 X116.400 Y121.739 E3971.06561
G0 F12000 X117.000 Y121.392
G1 F2700 X117.000 Y123.102 E3971.23623
G0 F12000 X117.600 Y122.755
G1 F2700 X117.600 Y121.046 E3971.40676
G0 F12000 X118.200 Y120.699
G1 F2700 X118.200 Y122.409 E3971.57738
G0 F12000 X118.800 Y122.062
G1 F2700 X118.800 Y120.353 E3971.74791
G0 F12000 X119.400 Y120.169
G1 F2700 X119.400 Y121.716 E3971.90227
G1 F2100 E3971.50227
G1 Z2.400
G0 F12000 X100.200 Y131.093
G1 Z2.000
G1 F2100 E3971.90227
G1 F2700 X100.200 Y132.802 E3972.07279
G0 F12000 X99.600 Y133.148
G1 F2700 X99.600 Y131.439 E3972.24332
G0 F12000 X99.000 Y131.786
G1 F2700 X99.000 Y133.494 E3972.41374
G0 F12000 X98.400 Y133.841
G1 F2700 X98.400 Y132.132 E3972.58427
G0 F12000 X97.800 Y132.479
G1 F2700 X97.800 Y134.187 E3972.75469
G0 F12000 X97.200 Y134.534
G1 F2700 X97.200 Y132.825 E3972.92522
G0 F12000 X96.600 Y133.172
G1 F2700 X96.600 Y134.880 E3973.09564
G0 F12000 X96.000 Y135.227
G1 F2700 X96.000 Y133.518 E3973.26617
G0 F12000 X95.400 Y133.865
G1 F2700 X95.400 Y135.573 E3973.43659
G0 F12000 X94.800 Y135.919
G1 F2700 X94.800 Y134.211 E3973.60702
G0 F12000 X94.200 Y134.557
G1 F2700 X94.200 Y136.352 E3973.78612
G0 F12000 X93.600 Y137.391
G1 F2700 X93.600 Y134.904 E3974.03428
G1 F2100 E3973.63428
G1 Z2.400
G0 F12000 X120.000 Y121.649
G1 Z2.000
G1 F2100 E3974.03428
G1 F2700 X120.000 Y120.169 E3974.18195
G0 F12000 X120.600 Y120.169
G1 F2700 X120.600 Y121.649 E3974.32963
G0 F12000 X121.200 Y121.649
G1 F2700 X121.200 Y120.169 E3974.47730
G0 F12000 X121.800 Y120.169
G1 F2700 X121.800 Y121.830 E3974.64304
G0 F12000 X122.400 Y122.176
G1 F2700 X122.400 Y120.470 E3974.81326
G0 F12000 X123.000 Y120.816
G1 F2700 X123.000 Y122.523 E3974.98359
G0 F12000 X123.600 Y122.869
G1 F2700 X123.600 Y121.163 E3975.15381
G0 F12000 X124.200 Y121.509
G1 F2700 X124.200 Y123.216 E3975.32414
G0 F12000 X124.800 Y123.562
G1 F2700 X124.800 Y121.856 E3975.49436
G0 F12000 X125.400 Y122.202
G1 F2700 X125.400 Y123.909 E3975.66469
G0 F12000 X126.000 Y124.255
G1 F2700 X126.000 Y122.548 E3975.83501
G0 F12000 X126.600 Y122.895
G1 F2700 X126.600 Y124.601 E3976.00524
G0 F12000 X127.200 Y124.948
G1 F2700 X127.200 Y123.241 E3976.17556
G0 F12000 X127.800 Y123.588
G1 F2700 X127.800 Y125.294 E3976.34579
G0 F12000 X128.400 Y125.641
G1 F2700 X128.400 Y123.934 E3976.51611
G0 F12000 X129.000 Y124.281
G1 F2700 X129.000 Y125.987 E3976.68634
G0 F12000 X129.600 Y126.334
G1 F2700 X129.600 Y124.627 E3976.85666
G0 F12000 X130.200 Y124.974
G1 F2700 X130.200 Y126.680 E3977.02689
G0 F12000 X130.800 Y127.027
G1 F2700 X130.800 Y125.320 E3977.19721
G0 F12000 X131.400 Y125.667
G1 F2700 X131.400 Y127.373 E3977.36744
G0 F12000 X132.000 Y127.719
G1 F2700 X132.000 Y126.013 E3977.53767
G0 F12000 X132.600 Y126.359
G1 F2700 X132.600 Y128.066 E3977.70799
G0 F12000 X133.200 Y128.412
G1 F2700 X133.200 Y126.706 E3977.87822
G0 F12000 X133.800 Y127.052
G1 F2700 X133.800 Y128.759 E3978.04854
G0 F12000 X134.400 Y129.105
G1 F2700 X134.400 Y127.399 E3978.21877
G0 F12000 X135.000 Y127.745
G1 F2700 X135.000 Y129.452 E3978.38909
G0 F12000 X135.600 Y129.798
G1 F2700 X135.600 Y128.092 E3978.55932
G0 F12000 X136.200 Y128.438
G1 F2700 X136.200 Y130.145 E3978.72964
G0 F12000 X136.800 Y130.491
G1 F2700 X136.800 Y128.785 E3978.89987
G0 F12000 X137.400 Y129.131
G1 F2700 X137.400 Y130.838 E3979.07019
G0 F12000 X138.000 Y131.184
G1 F2700 X138.000 Y129.478 E3979.24042
G0 F12000 X138.600 Y129.824
G1 F2700 X138.600 Y131.530 E3979.41064
G0 F12000 X139.200 Y131.877
G1 F2700 X139.200 Y130.170 E3979.58097
G0 F12000 X139.800 Y130.517
G1 F2700 X139.800 Y132.223 E3979.75119
G0 F12000 X140.400 Y132.570
G1 F2700 X140.400 Y130.863 E3979.92152
G0 F12000 X141.000 Y131.210
G1 F2700 X141.000 Y132.916 E3980.09174
G0 F12000 X141.600 Y133.263
G1 F2700 X141.600 Y131.556 E3980.26207
G0 F12000 X142.200 Y131.903
G1 F2700 X142.200 Y133.609 E3980.43229
G0 F12000 X142.800 Y133.956
G1 F2700 X142.800 Y132.249 E3980.60262
G0 F12000 X143.400 Y132.596
G1 F2700 X143.400 Y134.302 E3980.77285
G0 F12000 X144.000 Y134.648
G1 F2700 X144.000 Y132.942 E3980.94307
G0 F12000 X144.600 Y133.289
G1 F2700 X144.600 Y134.995 E3981.11330
G0 F12000 X145.200 Y135.341
