;-- START GCODE --
;Sliced for Type A Machines Series 1
;Sliced at: Fri 02-12-2016 16:23:31
;Basic settings:
; Layer height: 0.2
; Walls: 1
; Fill: 8
; Print Speed: 45
; Support: 0
; Retraction Speed: 35
; Retraction Distance: 0.4
;Print time: 1 hour 46 minutes
;Filament used: 8.443m 25.0g
;Settings based on: Type A Machines Everyday PLA
G21        ;metric values
G90        ;absolute positioning
G28     ;move to endstops
G1 Z15.0 F12000 ;move the platform down 15mm
G1 X150 Y5 F12000 ;center
M140 S50 ;Prep Heat Bed
M109 S215 ;Heat To temp
M190 S50 ;Heat Bed to temp
G1 X150 Y5 Z0.3 ;move the platform to purge extrusion
G92 E0 ;zero the extruded length
G1 F200 X250 E30 ;extrude 30mm of feed stock
G92 E0 ;zero the extruded length again
G1 X150 Y150  Z25 F12000 ;recenter and begin
G1 F12000

;Layer count: 125
;LAYER:0
M107
G0 F12000 X122.615 Y134.133 Z0.200
;TYPE:SKIRT
G1 F1800 X149.762 Y118.459 E1.30326
G1 X151.544 Y117.431 E1.38879
G1 X153.457 Y117.431 E1.46832
G1 X180.612 Y133.108 E2.77193
G1 X182.385 Y134.134 E2.85709
G1 X183.350 Y135.786 E2.93663
G1 X183.350 Y169.214 E4.32641
G1 X182.385 Y170.867 E4.40599
G1 X155.238 Y186.541 E5.70924
G1 X153.456 Y187.569 E5.79477
G1 X151.543 Y187.569 E5.87431
G1 X124.388 Y171.892 E7.17791
G1 X122.615 Y170.866 E7.26308
G1 X121.650 Y169.214 E7.34262
G1 X121.650 Y135.786 E8.73240
G1 X122.615 Y134.133 E8.81197
G1 F2100 E8.41197
G0 F12000 X125.650 Y137.000
;TYPE:WALL-INNER
G1 F2100 E8.81197
G1 F1800 X152.500 Y121.498 E10.10096
G1 X179.350 Y137.000 E11.38995
G1 X179.350 Y168.000 E12.67878
G1 X152.500 Y183.502 E13.96777
G1 X125.650 Y168.000 E15.25675
G1 X125.650 Y137.000 E16.54558
G0 F12000 X125.150 Y136.733
;TYPE:WALL-OUTER
G1 F1800 X125.169 Y136.700 E16.54717
G1 X152.482 Y120.931 E17.85837
G1 X152.518 Y120.931 E17.85987
G1 X179.831 Y136.700 E19.17108
G1 X179.850 Y136.733 E19.17266
G1 X179.850 Y168.267 E20.48369
G1 X179.831 Y168.300 E20.48528
G1 X152.518 Y184.069 E21.79649
G1 X152.482 Y184.069 E21.79798
G1 X125.169 Y168.300 E23.10919
G1 X125.150 Y168.267 E23.11077
G1 X125.150 Y136.733 E24.42180
G0 F12000 X126.000 Y137.000
;TYPE:SKIN
G1 F1800 X126.000 Y167.999 E25.71059
G0 F12000 X126.500 Y168.287
G1 F1800 X126.500 Y136.712 E27.02333
G0 F12000 X127.000 Y136.423
G1 F1800 X127.000 Y168.576 E28.36010
G0 F12000 X127.500 Y168.865
G1 F1800 X127.500 Y136.134 E29.72089
G0 F12000 X128.000 Y135.846
G1 F1800 X128.000 Y169.153 E31.10564
G0 F12000 X128.500 Y169.442
G1 F1800 X128.500 Y135.557 E32.51441
G0 F12000 X129.000 Y135.268
G1 F1800 X129.000 Y169.731 E33.94722
G0 F12000 X129.500 Y170.019
G1 F1800 X129.500 Y134.980 E35.40397
G0 F12000 X130.000 Y134.691
G1 F1800 X130.000 Y170.308 E36.88475
G0 F12000 X130.500 Y170.597
G1 F1800 X130.500 Y134.402 E38.38956
G0 F12000 X131.000 Y134.113
G1 F1800 X131.000 Y170.886 E39.91841
G0 F12000 X131.500 Y171.174
G1 F1800 X131.500 Y133.825 E41.47120
G0 F12000 X132.000 Y133.536
G1 F1800 X132.000 Y171.463 E43.04802
G0 F12000 X132.500 Y171.752
G1 F1800 X132.500 Y133.247 E44.64887
G0 F12000 X133.000 Y132.959
G1 F1800 X133.000 Y172.040 E46.27367
G0 F12000 X133.500 Y172.329
G1 F1800 X133.500 Y132.670 E47.92250
G0 F12000 X134.000 Y132.381
G1 F1800 X134.000 Y172.618 E49.59536
G0 F12000 X134.500 Y172.906
G1 F1800 X134.500 Y132.093 E51.29217
G0 F12000 X135.000 Y131.804
G1 F1800 X135.000 Y173.195 E53.01301
G0 F12000 X135.500 Y173.484
G1 F1800 X135.500 Y131.515 E54.75787
G0 F12000 X136.000 Y131.227
G1 F1800 X136.000 Y173.772 E56.52669
G0 F12000 X136.500 Y174.061
G1 F1800 X136.500 Y130.938 E58.31954
G0 F12000 X137.000 Y130.649
G1 F1800 X137.000 Y174.350 E60.13641
G0 F12000 X137.500 Y174.639
G1 F1800 X137.500 Y130.360 E61.97732
G0 F12000 X138.000 Y130.072
G1 F1800 X138.000 Y174.927 E63.84217
G0 F12000 X138.500 Y175.216
G1 F1800 X138.500 Y129.783 E65.73106
G0 F12000 X139.000 Y129.494
G1 F1800 X139.000 Y175.505 E67.64397
G0 F12000 X139.500 Y175.793
G1 F1800 X139.500 Y129.206 E69.58084
G0 F12000 X140.000 Y128.917
G1 F1800 X140.000 Y176.082 E71.54173
G0 F12000 X140.500 Y176.371
G1 F1800 X140.500 Y128.628 E73.52665
G0 F12000 X141.000 Y128.340
G1 F1800 X141.000 Y176.659 E75.53552
G0 F12000 X141.500 Y176.948
G1 F1800 X141.500 Y128.051 E77.56842
G0 F12000 X142.000 Y127.762
G1 F1800 X142.000 Y177.237 E79.62536
G0 F12000 X142.500 Y177.526
G1 F1800 X142.500 Y127.473 E81.70632
G0 F12000 X143.000 Y127.185
G1 F1800 X143.000 Y177.814 E83.81123
G0 F12000 X143.500 Y178.103
G1 F1800 X143.500 Y126.896 E85.94017
G0 F12000 X144.000 Y126.607
G1 F1800 X144.000 Y178.392 E88.09314
G0 F12000 X144.500 Y178.680
G1 F1800 X144.500 Y126.319 E90.27005
G0 F12000 X145.000 Y126.030
G1 F1800 X145.000 Y178.969 E92.47100
G0 F12000 X145.500 Y179.258
G1 F1800 X145.500 Y125.741 E94.69598
G0 F12000 X146.000 Y125.453
G1 F1800 X146.000 Y179.546 E96.94491
G0 F12000 X146.500 Y179.835
G1 F1800 X146.500 Y125.164 E99.21786
G0 F12000 X147.000 Y124.875
G1 F1800 X147.000 Y180.124 E101.51485
G0 F12000 X147.500 Y180.413
G1 F1800 X147.500 Y124.586 E103.83586
G0 F12000 X148.000 Y124.298
G1 F1800 X148.000 Y180.701 E106.18083
G0 F12000 X148.500 Y180.990
G1 F1800 X148.500 Y124.009 E108.54982
G0 F12000 X149.000 Y123.720
G1 F1800 X149.000 Y181.279 E110.94285
G0 F12000 X149.500 Y181.567
G1 F1800 X149.500 Y123.432 E113.35982
G0 F12000 X150.000 Y123.143
G1 F1800 X150.000 Y181.856 E115.80082
G0 F12000 X150.500 Y182.145
G1 F1800 X150.500 Y122.854 E118.26586
G0 F12000 X151.000 Y122.566
G1 F1800 X151.000 Y182.433 E120.75484
G0 F12000 X151.500 Y182.722
G1 F1800 X151.500 Y122.277 E123.26785
G0 F12000 X152.000 Y121.988
G1 F1800 X152.000 Y183.011 E125.80489
G0 F12000 X152.500 Y183.300
G1 F1800 X152.500 Y121.700 E128.36592
G0 F12000 X153.000 Y121.989
G1 F1800 X153.000 Y183.012 E130.90296
G0 F12000 X153.500 Y182.723
G1 F1800 X153.500 Y122.278 E133.41597
G0 F12000 X154.000 Y122.567
G1 F1800 X154.000 Y182.434 E135.90495
G0 F12000 X154.500 Y182.146
G1 F1800 X154.500 Y122.855 E138.36999
G0 F12000 X155.000 Y123.144
G1 F1800 X155.000 Y181.857 E140.81099
G0 F12000 X155.500 Y181.568
G1 F1800 X155.500 Y123.433 E143.22796
G0 F12000 X156.000 Y123.721
G1 F1800 X156.000 Y181.280 E145.62099
G0 F12000 X156.500 Y180.991
G1 F1800 X156.500 Y124.010 E147.98998
G0 F12000 X157.000 Y124.299
G1 F1800 X157.000 Y180.702 E150.33495
G0 F12000 X157.500 Y180.414
G1 F1800 X157.500 Y124.587 E152.65596
G0 F12000 X158.000 Y124.876
G1 F1800 X158.000 Y180.125 E154.95295
G0 F12000 X158.500 Y179.836
G1 F1800 X158.500 Y125.165 E157.22591
G0 F12000 X159.000 Y125.454
G1 F1800 X159.000 Y179.547 E159.47483
G0 F12000 X159.500 Y179.259
G1 F1800 X159.500 Y125.742 E161.69981
G0 F12000 X160.000 Y126.031
G1 F1800 X160.000 Y178.970 E163.90076
G0 F12000 X160.500 Y178.681
G1 F1800 X160.500 Y126.320 E166.07768
G0 F12000 X161.000 Y126.608
G1 F1800 X161.000 Y178.393 E168.23065
G0 F12000 X161.500 Y178.104
G1 F1800 X161.500 Y126.897 E170.35959
G0 F12000 X162.000 Y127.186
G1 F1800 X162.000 Y177.815 E172.46449
G0 F12000 X162.500 Y177.527
G1 F1800 X162.500 Y127.474 E174.54546
G0 F12000 X163.000 Y127.763
G1 F1800 X163.000 Y177.238 E176.60239
G0 F12000 X163.500 Y176.949
G1 F1800 X163.500 Y128.052 E178.63529
G0 F12000 X164.000 Y128.341
G1 F1800 X164.000 Y176.660 E180.64416
G0 F12000 X164.500 Y176.372
G1 F1800 X164.500 Y128.629 E182.62908
G0 F12000 X165.000 Y128.918
G1 F1800 X165.000 Y176.083 E184.58998
G0 F12000 X165.500 Y175.794
G1 F1800 X165.500 Y129.207 E186.52684
G0 F12000 X166.000 Y129.495
G1 F1800 X166.000 Y175.506 E188.43975
G0 F12000 X166.500 Y175.217
G1 F1800 X166.500 Y129.784 E190.32864
G0 F12000 X167.000 Y130.073
G1 F1800 X167.000 Y174.928 E192.19349
G0 F12000 X167.500 Y174.640
G1 F1800 X167.500 Y130.361 E194.03440
G0 F12000 X168.000 Y130.650
G1 F1800 X168.000 Y174.351 E195.85128
G0 F12000 X168.500 Y174.062
G1 F1800 X168.500 Y130.939 E197.64412
G0 F12000 X169.000 Y131.228
G1 F1800 X169.000 Y173.773 E199.41294
G0 F12000 X169.500 Y173.485
G1 F1800 X169.500 Y131.516 E201.15781
G0 F12000 X170.000 Y131.805
G1 F1800 X170.000 Y173.196 E202.87864
G0 F12000 X170.500 Y172.907
G1 F1800 X170.500 Y132.094 E204.57545
G0 F12000 X171.000 Y132.382
G1 F1800 X171.000 Y172.619 E206.24831
G0 F12000 X171.500 Y172.330
G1 F1800 X171.500 Y132.671 E207.89714
G0 F12000 X172.000 Y132.960
G1 F1800 X172.000 Y172.041 E209.52194
G0 F12000 X172.500 Y171.753
G1 F1800 X172.500 Y133.248 E211.12279
G0 F12000 X173.000 Y133.537
G1 F1800 X173.000 Y171.464 E212.69961
G0 F12000 X173.500 Y171.175
G1 F1800 X173.500 Y133.826 E214.25240
G0 F12000 X174.000 Y134.114
G1 F1800 X174.000 Y170.887 E215.78125
G0 F12000 X174.500 Y170.598
G1 F1800 X174.500 Y134.403 E217.28606
G0 F12000 X175.000 Y134.692
G1 F1800 X175.000 Y170.309 E218.76684
G0 F12000 X175.500 Y170.020
G1 F1800 X175.500 Y134.981 E220.22360
G0 F12000 X176.000 Y135.269
G1 F1800 X176.000 Y169.732 E221.65640
G0 F12000 X176.500 Y169.443
G1 F1800 X176.500 Y135.558 E223.06518
G0 F12000 X177.000 Y135.847
G1 F1800 X177.000 Y169.154 E224.44992
G0 F12000 X177.500 Y168.866
G1 F1800 X177.500 Y136.135 E225.81072
G0 F12000 X178.000 Y136.424
G1 F1800 X178.000 Y168.577 E227.14748
G0 F12000 X178.500 Y168.288
G1 F1800 X178.500 Y136.713 E228.46022
G0 F12000 X179.000 Y137.001
G1 F1800 X179.000 Y168.000 E229.74901
;LAYER:1
M106 S10
G0 F12000 X179.492 Y168.150 Z0.400
;TYPE:WALL-INNER
G1 F1980 X152.557 Y183.700 E231.04205
G1 X152.443 Y183.700 E231.04679
G1 X125.508 Y168.150 E232.33984
G1 X125.450 Y168.049 E232.34468
G1 X125.450 Y136.950 E233.63763
G1 X125.508 Y136.850 E233.64243
G1 X152.443 Y121.300 E234.93548
G1 X152.557 Y121.300 E234.94022
G1 X179.492 Y136.850 E236.23326
G1 X179.550 Y136.950 E236.23807
G1 X179.550 Y168.049 E237.53102
G1 X179.492 Y168.150 E237.53586
G0 F12000 X179.858 Y168.516
;TYPE:WALL-OUTER
G1 F1980 X152.691 Y184.200 E238.84004
G1 X152.309 Y184.200 E238.85592
G1 X125.142 Y168.516 E240.16011
G1 X124.950 Y168.185 E240.17602
G1 X124.950 Y136.815 E241.48023
G1 X125.142 Y136.484 E241.49614
G1 X152.309 Y120.800 E242.80032
G1 X152.691 Y120.800 E242.81621
G1 X179.858 Y136.484 E244.12039
G1 X180.050 Y136.815 E244.13630
G1 X180.050 Y168.185 E245.44051
G1 X179.858 Y168.516 E245.45642
G0 F12000 X179.374 Y168.000
;TYPE:SKIN
G1 F1980 X125.624 Y168.000 E247.69109
G0 F12000 X125.624 Y167.500
G1 F1980 X179.374 Y167.500 E249.92575
G0 F12000 X179.374 Y167.000
G1 F1980 X125.624 Y167.000 E252.16042
G0 F12000 X125.624 Y166.500
G1 F1980 X179.374 Y166.500 E254.39508
G0 F12000 X179.374 Y166.000
G1 F1980 X125.624 Y166.000 E256.62975
G0 F12000 X125.624 Y165.500
G1 F1980 X179.374 Y165.500 E258.86441
G0 F12000 X179.374 Y165.000
G1 F1980 X125.624 Y165.000 E261.09908
G0 F12000 X125.624 Y164.500
G1 F1980 X179.374 Y164.500 E263.33374
G0 F12000 X179.374 Y164.000
G1 F1980 X125.624 Y164.000 E265.56841
G0 F12000 X125.624 Y163.500
G1 F1980 X179.374 Y163.500 E267.80308
G0 F12000 X179.374 Y163.000
G1 F1980 X125.624 Y163.000 E270.03774
G0 F12000 X125.624 Y162.500
G1 F1980 X179.374 Y162.500 E272.27241
G0 F12000 X179.374 Y162.000
G1 F1980 X125.624 Y162.000 E274.50707
G0 F12000 X125.624 Y161.500
G1 F1980 X179.374 Y161.500 E276.74174
G0 F12000 X179.374 Y161.000
G1 F1980 X125.624 Y161.000 E278.97640
G0 F12000 X125.624 Y160.500
G1 F1980 X179.374 Y160.500 E281.21107
G0 F12000 X179.374 Y160.000
G1 F1980 X125.624 Y160.000 E283.44573
G1 F2100 E283.04573
G0 F12000 X126.465 Y168.500
G1 F2100 E283.44573
G1 F1980 X178.532 Y168.500 E285.61043
G0 F12000 X177.666 Y169.000
G1 F1980 X127.331 Y169.000 E287.70311
G0 F12000 X128.197 Y169.500
G1 F1980 X176.800 Y169.500 E289.72379
G0 F12000 X175.934 Y170.000
G1 F1980 X129.063 Y170.000 E291.67246
G0 F12000 X129.929 Y170.500
G1 F1980 X175.068 Y170.500 E293.54912
G0 F12000 X174.202 Y171.000
G1 F1980 X130.795 Y171.000 E295.35378
G0 F12000 X131.662 Y171.500
G1 F1980 X173.335 Y171.500 E297.08634
G0 F12000 X172.469 Y172.000
G1 F1980 X132.528 Y172.000 E298.74689
G0 F12000 X133.394 Y172.500
G1 F1980 X171.603 Y172.500 E300.33544
G0 F12000 X170.737 Y173.000
G1 F1980 X134.260 Y173.000 E301.85197
G0 F12000 X135.126 Y173.500
G1 F1980 X169.871 Y173.500 E303.29650
G0 F12000 X169.005 Y174.000
G1 F1980 X135.992 Y174.000 E304.66902
G0 F12000 X136.858 Y174.500
G1 F1980 X168.139 Y174.500 E305.96954
G0 F12000 X167.273 Y175.000
G1 F1980 X137.724 Y175.000 E307.19804
G0 F12000 X138.590 Y175.500
G1 F1980 X166.407 Y175.500 E308.35454
G0 F12000 X165.541 Y176.000
G1 F1980 X139.456 Y176.000 E309.43903
G0 F12000 X140.322 Y176.500
G1 F1980 X164.675 Y176.500 E310.45151
G0 F12000 X163.809 Y177.000
G1 F1980 X141.188 Y177.000 E311.39198
G0 F12000 X142.054 Y177.500
G1 F1980 X162.943 Y177.500 E312.26044
G0 F12000 X162.077 Y178.000
G1 F1980 X142.920 Y178.000 E313.05690
G0 F12000 X143.786 Y178.500
G1 F1980 X161.211 Y178.500 E313.78135
G0 F12000 X160.345 Y179.000
G1 F1980 X144.652 Y179.000 E314.43378
G0 F12000 X145.518 Y179.500
G1 F1980 X159.479 Y179.500 E315.01422
G0 F12000 X158.613 Y180.000
G1 F1980 X146.384 Y180.000 E315.52264
G0 F12000 X147.250 Y180.500
G1 F1980 X157.747 Y180.500 E315.95905
G0 F12000 X156.881 Y181.000
G1 F1980 X148.116 Y181.000 E316.32346
G0 F12000 X148.982 Y181.500
G1 F1980 X156.015 Y181.500 E316.61586
G0 F12000 X155.149 Y182.000
G1 F1980 X149.848 Y182.000 E316.83625
G0 F12000 X150.714 Y182.500
G1 F1980 X154.283 Y182.500 E316.98463
G0 F12000 X153.417 Y183.000
G1 F1980 X151.580 Y183.000 E317.06100
G0 F12000 X152.447 Y183.500
G1 F1980 X152.550 Y183.500 E317.06528
G1 F2100 E316.66528
G0 F12000 X179.374 Y159.500
G1 F2100 E317.06528
G1 F1980 X125.624 Y159.500 E319.29995
G0 F12000 X125.624 Y159.000
G1 F1980 X179.374 Y159.000 E321.53462
G0 F12000 X179.374 Y158.500
G1 F1980 X125.624 Y158.500 E323.76928
G0 F12000 X125.624 Y158.000
G1 F1980 X179.374 Y158.000 E326.00395
G0 F12000 X179.374 Y157.500
G1 F1980 X125.624 Y157.500 E328.23861
G0 F12000 X125.624 Y157.000
G1 F1980 X179.374 Y157.000 E330.47328
G0 F12000 X179.374 Y156.500
G1 F1980 X125.624 Y156.500 E332.70794
G0 F12000 X125.624 Y156.000
G1 F1980 X179.374 Y156.000 E334.94261
G0 F12000 X179.374 Y155.500
G1 F1980 X125.624 Y155.500 E337.17727
G0 F12000 X125.624 Y155.000
G1 F1980 X179.374 Y155.000 E339.41194
G0 F12000 X179.374 Y154.500
G1 F1980 X125.624 Y154.500 E341.64660
G0 F12000 X125.624 Y154.000
G1 F1980 X179.374 Y154.000 E343.88127
G0 F12000 X179.374 Y153.500
G1 F1980 X125.624 Y153.500 E346.11593
G0 F12000 X125.624 Y153.000
G1 F1980 X179.374 Y153.000 E348.35060
G0 F12000 X179.374 Y152.500
G1 F1980 X125.624 Y152.500 E350.58526
G0 F12000 X125.624 Y152.000
G1 F1980 X179.374 Y152.000 E352.81993
G0 F12000 X179.374 Y151.500
G1 F1980 X125.624 Y151.500 E355.05460
G0 F12000 X125.624 Y151.000
G1 F1980 X179.374 Y151.000 E357.28926
G0 F12000 X179.374 Y150.500
G1 F1980 X125.624 Y150.500 E359.52393
G0 F12000 X125.624 Y150.000
G1 F1980 X179.374 Y150.000 E361.75859
G0 F12000 X179.374 Y149.500
G1 F1980 X125.624 Y149.500 E363.99326
G0 F12000 X125.624 Y149.000
G1 F1980 X179.374 Y149.000 E366.22792
G0 F12000 X179.374 Y148.500
G1 F1980 X125.624 Y148.500 E368.46259
G0 F12000 X125.624 Y148.000
G1 F1980 X179.374 Y148.000 E370.69725
G0 F12000 X179.374 Y147.500
G1 F1980 X125.624 Y147.500 E372.93192
G0 F12000 X125.624 Y147.000
G1 F1980 X179.374 Y147.000 E375.16658
G0 F12000 X179.374 Y146.500
G1 F1980 X125.624 Y146.500 E377.40125
G0 F12000 X125.624 Y146.000
G1 F1980 X179.374 Y146.000 E379.63591
G0 F12000 X179.374 Y145.500
G1 F1980 X125.624 Y145.500 E381.87058
G0 F12000 X125.624 Y145.000
G1 F1980 X179.374 Y145.000 E384.10524
G0 F12000 X179.374 Y144.500
G1 F1980 X125.624 Y144.500 E386.33991
G0 F12000 X125.624 Y144.000
G1 F1980 X179.374 Y144.000 E388.57458
G0 F12000 X179.374 Y143.500
G1 F1980 X125.624 Y143.500 E390.80924
G0 F12000 X125.624 Y143.000
G1 F1980 X179.374 Y143.000 E393.04391
G0 F12000 X179.374 Y142.500
G1 F1980 X125.624 Y142.500 E395.27857
G0 F12000 X125.624 Y142.000
G1 F1980 X179.374 Y142.000 E397.51324
G0 F12000 X179.374 Y141.500
G1 F1980 X125.624 Y141.500 E399.74790
G0 F12000 X125.624 Y141.000
G1 F1980 X179.374 Y141.000 E401.98257
G0 F12000 X179.374 Y140.500
G1 F1980 X125.624 Y140.500 E404.21723
G0 F12000 X125.624 Y140.000
G1 F1980 X179.374 Y140.000 E406.45190
G0 F12000 X179.374 Y139.500
G1 F1980 X125.624 Y139.500 E408.68656
G0 F12000 X125.624 Y139.000
G1 F1980 X179.374 Y139.000 E410.92123
G0 F12000 X179.374 Y138.500
G1 F1980 X125.624 Y138.500 E413.15589
G0 F12000 X125.624 Y138.000
G1 F1980 X179.374 Y138.000 E415.39056
G0 F12000 X179.374 Y137.500
G1 F1980 X125.624 Y137.500 E417.62522
G0 F12000 X125.624 Y137.000
G1 F1980 X179.374 Y137.000 E419.85989
G0 F12000 X178.536 Y136.500
G1 F1980 X126.463 Y136.500 E422.02483
G0 F12000 X127.329 Y136.000
G1 F1980 X177.670 Y136.000 E424.11777
G0 F12000 X176.804 Y135.500
G1 F1980 X128.195 Y135.500 E426.13870
G0 F12000 X129.061 Y135.000
G1 F1980 X175.938 Y135.000 E428.08762
G0 F12000 X175.072 Y134.500
G1 F1980 X129.927 Y134.500 E429.96453
G0 F12000 X130.793 Y134.000
G1 F1980 X174.206 Y134.000 E431.76943
G0 F12000 X173.340 Y133.500
G1 F1980 X131.659 Y133.500 E433.50232
G0 F12000 X132.525 Y133.000
G1 F1980 X172.474 Y133.000 E435.16321
G0 F12000 X171.608 Y132.500
G1 F1980 X133.391 Y132.500 E436.75209
G0 F12000 X134.257 Y132.000
G1 F1980 X170.742 Y132.000 E438.26896
G0 F12000 X169.876 Y131.500
G1 F1980 X135.123 Y131.500 E439.71382
G0 F12000 X135.989 Y131.000
G1 F1980 X169.010 Y131.000 E441.08667
G0 F12000 X168.144 Y130.500
G1 F1980 X136.855 Y130.500 E442.38752
G0 F12000 X137.721 Y130.000
G1 F1980 X167.278 Y130.000 E443.61636
G0 F12000 X166.412 Y129.500
G1 F1980 X138.587 Y129.500 E444.77319
G0 F12000 X139.453 Y129.000
G1 F1980 X165.546 Y129.000 E445.85801
G0 F12000 X164.680 Y128.500
G1 F1980 X140.319 Y128.500 E446.87082
G0 F12000 X141.186 Y128.000
G1 F1980 X163.813 Y128.000 E447.81154
G0 F12000 X162.947 Y127.500
G1 F1980 X142.052 Y127.500 E448.68025
G0 F12000 X142.918 Y127.000
G1 F1980 X162.081 Y127.000 E449.47696
G0 F12000 X161.215 Y126.500
G1 F1980 X143.784 Y126.500 E450.20166
G0 F12000 X144.650 Y126.000
G1 F1980 X160.349 Y126.000 E450.85434
G0 F12000 X159.483 Y125.500
G1 F1980 X145.516 Y125.500 E451.43502
G0 F12000 X146.382 Y125.000
G1 F1980 X158.617 Y125.000 E451.94370
G0 F12000 X157.751 Y124.500
G1 F1980 X147.248 Y124.500 E452.38036
G0 F12000 X148.114 Y124.000
G1 F1980 X156.885 Y124.000 E452.74502
G0 F12000 X156.019 Y123.500
G1 F1980 X148.980 Y123.500 E453.03766
G0 F12000 X149.846 Y123.000
G1 F1980 X155.153 Y123.000 E453.25830
G0 F12000 X154.287 Y122.500
G1 F1980 X150.712 Y122.500 E453.40693
G0 F12000 X151.578 Y122.000
G1 F1980 X153.421 Y122.000 E453.48356
G0 F12000 X152.555 Y121.500
G1 F1980 X152.444 Y121.500 E453.48817
;LAYER:2
M106 S20
G0 F12000 X152.269 Y121.169 Z0.600
;TYPE:WALL-INNER
G1 F2220 X152.731 Y121.169 E453.50738
G1 X179.518 Y136.635 E454.79335
G1 X179.750 Y137.036 E454.81261
G1 X179.750 Y167.964 E456.09845
G1 X179.518 Y168.365 E456.11771
G1 X152.731 Y183.831 E457.40368
G1 X152.269 Y183.831 E457.42289
G1 X125.482 Y168.365 E458.70886
G1 X125.250 Y167.964 E458.72812
G1 X125.250 Y137.036 E460.01396
G1 X125.482 Y136.635 E460.03322
G1 X152.269 Y121.169 E461.31919
G0 F12000 X152.135 Y120.669
;TYPE:WALL-OUTER
G1 F2220 X152.865 Y120.669 E461.34954
G1 X179.884 Y136.269 E462.64665
G1 X180.250 Y136.900 E462.67698
G1 X180.250 Y168.100 E463.97412
G1 X179.884 Y168.731 E464.00445
G1 X152.865 Y184.331 E465.30156
G1 X152.135 Y184.331 E465.33191
G1 X125.116 Y168.731 E466.62902
G1 X124.750 Y168.100 E466.65934
G1 X124.750 Y136.900 E467.95649
G1 X125.116 Y136.269 E467.98682
G1 X152.135 Y120.669 E469.28393
G0 F12000 X152.500 Y121.344
;TYPE:SKIN
G1 F2220 X152.500 Y183.656 E471.87456
G0 F12000 X153.000 Y183.473
G1 F2220 X153.000 Y121.528 E474.44993
G0 F12000 X153.500 Y121.816
G1 F2220 X153.500 Y183.185 E477.00136
G0 F12000 X154.000 Y182.896
G1 F2220 X154.000 Y122.105 E479.52876
G0 F12000 X154.500 Y122.394
G1 F2220 X154.500 Y182.607 E482.03212
G0 F12000 X155.000 Y182.319
G1 F2220 X155.000 Y122.682 E484.51154
G0 F12000 X155.500 Y122.971
G1 F2220 X155.500 Y182.030 E486.96693
G0 F12000 X156.000 Y181.741
G1 F2220 X156.000 Y123.260 E489.39828
G0 F12000 X156.500 Y123.548
G1 F2220 X156.500 Y181.453 E491.80569
G0 F12000 X157.000 Y181.164
G1 F2220 X157.000 Y123.837 E494.18907
G0 F12000 X157.500 Y124.126
G1 F2220 X157.500 Y180.875 E496.54842
G0 F12000 X158.000 Y180.587
G1 F2220 X158.000 Y124.414 E498.88383
G0 F12000 X158.500 Y124.703
G1 F2220 X158.500 Y180.298 E501.19520
G0 F12000 X159.000 Y180.009
G1 F2220 X159.000 Y124.992 E503.48254
G0 F12000 X159.500 Y125.280
G1 F2220 X159.500 Y179.721 E505.74593
G1 F2100 E505.34593
G0 F12000 X145.500 Y179.720
G1 F2100 E505.74593
G1 F2220 X145.500 Y125.279 E508.00933
G0 F12000 X146.000 Y124.991
G1 F2220 X146.000 Y180.008 E510.29667
G0 F12000 X146.500 Y180.297
G1 F2220 X146.500 Y124.702 E512.60804
G0 F12000 X147.000 Y124.413
G1 F2220 X147.000 Y180.586 E514.94344
G0 F12000 X147.500 Y180.874
G1 F2220 X147.500 Y124.125 E517.30279
G0 F12000 X148.000 Y123.836
G1 F2220 X148.000 Y181.163 E519.68617
G0 F12000 X148.500 Y181.452
G1 F2220 X148.500 Y123.547 E522.09358
G0 F12000 X149.000 Y123.259
G1 F2220 X149.000 Y181.740 E524.52494
G0 F12000 X149.500 Y182.029
G1 F2220 X149.500 Y122.970 E526.98032
G0 F12000 X150.000 Y122.681
G1 F2220 X150.000 Y182.318 E529.45974
G0 F12000 X150.500 Y182.606
G1 F2220 X150.500 Y122.393 E531.96311
G0 F12000 X151.000 Y122.104
G1 F2220 X151.000 Y182.895 E534.49050
G0 F12000 X151.500 Y183.184
G1 F2220 X151.500 Y121.815 E537.04193
G0 F12000 X152.000 Y121.527
G1 F2220 X152.000 Y183.472 E539.61731
G1 F2100 E539.21731
G0 F12000 X145.000 Y179.431
G1 F2100 E539.61731
G1 F2220 X145.000 Y125.568 E541.85667
G0 F12000 X144.500 Y125.857
G1 F2220 X144.500 Y179.142 E544.07200
G0 F12000 X144.000 Y178.854
G1 F2220 X144.000 Y126.145 E546.26339
G0 F12000 X143.500 Y126.434
G1 F2220 X143.500 Y178.565 E548.43074
G0 F12000 X143.000 Y178.276
G1 F2220 X143.000 Y126.723 E550.57407
G0 F12000 X142.500 Y127.011
G1 F2220 X142.500 Y177.988 E552.69344
G0 F12000 X142.000 Y177.699
G1 F2220 X142.000 Y127.300 E554.78879
G0 F12000 X141.500 Y127.589
G1 F2220 X141.500 Y177.410 E556.86011
G0 F12000 X141.000 Y177.122
G1 F2220 X141.000 Y127.877 E558.90748
G0 F12000 X140.500 Y128.166
G1 F2220 X140.500 Y176.833 E560.93082
G0 F12000 X140.000 Y176.544
G1 F2220 X140.000 Y128.455 E562.93012
G0 F12000 X139.500 Y128.743
G1 F2220 X139.500 Y176.256 E564.90548
G0 F12000 X139.000 Y175.967
G1 F2220 X139.000 Y129.032 E566.85682
G0 F12000 X138.500 Y129.321
G1 F2220 X138.500 Y175.678 E568.78412
G0 F12000 X138.000 Y175.390
G1 F2220 X138.000 Y129.609 E570.68747
G0 F12000 X137.500 Y129.898
G1 F2220 X137.500 Y175.101 E572.56679
G0 F12000 X137.000 Y174.812
G1 F2220 X137.000 Y130.187 E574.42208
G0 F12000 X136.500 Y130.476
G1 F2220 X136.500 Y174.523 E576.25334
G0 F12000 X136.000 Y174.235
G1 F2220 X136.000 Y130.764 E578.06066
G0 F12000 X135.500 Y131.053
G1 F2220 X135.500 Y173.946 E579.84394
G0 F12000 X135.000 Y173.657
G1 F2220 X135.000 Y131.342 E581.60320
G0 F12000 X134.500 Y131.630
G1 F2220 X134.500 Y173.369 E583.33850
G0 F12000 X134.000 Y173.080
G1 F2220 X134.000 Y131.919 E585.04978
G0 F12000 X133.500 Y132.208
G1 F2220 X133.500 Y172.791 E586.73702
G0 F12000 X133.000 Y172.503
G1 F2220 X133.000 Y132.496 E588.40032
G0 F12000 X132.500 Y132.785
G1 F2220 X132.500 Y172.214 E590.03959
G0 F12000 X132.000 Y171.925
G1 F2220 X132.000 Y133.074 E591.65482
G0 F12000 X131.500 Y133.362
G1 F2220 X131.500 Y171.637 E593.24611
G0 F12000 X131.000 Y171.348
G1 F2220 X131.000 Y133.651 E594.81337
G0 F12000 X130.500 Y133.940
G1 F2220 X130.500 Y171.059 E596.35660
G0 F12000 X130.000 Y170.771
G1 F2220 X130.000 Y134.228 E597.87588
G0 F12000 X129.500 Y134.517
G1 F2220 X129.500 Y170.482 E599.37113
G0 F12000 X129.000 Y170.193
G1 F2220 X129.000 Y134.806 E600.84235
G0 F12000 X128.500 Y135.094
G1 F2220 X128.500 Y169.905 E602.28963
G0 F12000 X128.000 Y169.616
G1 F2220 X128.000 Y135.383 E603.71287
G0 F12000 X127.500 Y135.672
G1 F2220 X127.500 Y169.327 E605.11208
G0 F12000 X127.000 Y169.039
G1 F2220 X127.000 Y135.960 E606.48735
G0 F12000 X126.500 Y136.249
G1 F2220 X126.500 Y168.750 E607.83858
G0 F12000 X126.000 Y168.461
G1 F2220 X126.000 Y136.538 E609.16579
G0 F12000 X125.500 Y136.952
G1 F2220 X125.500 Y168.047 E610.45857
G1 F2100 E610.05857
G0 F12000 X160.000 Y179.432
G1 F2100 E610.45857
G1 F2220 X160.000 Y125.569 E612.69793
G0 F12000 X160.500 Y125.858
G1 F2220 X160.500 Y179.143 E614.91326
G0 F12000 X161.000 Y178.855
G1 F2220 X161.000 Y126.146 E617.10465
G0 F12000 X161.500 Y126.435
G1 F2220 X161.500 Y178.566 E619.27200
G0 F12000 X162.000 Y178.277
G1 F2220 X162.000 Y126.724 E621.41533
G0 F12000 X162.500 Y127.012
G1 F2220 X162.500 Y177.989 E623.53470
G0 F12000 X163.000 Y177.700
G1 F2220 X163.000 Y127.301 E625.63005
G0 F12000 X163.500 Y127.590
G1 F2220 X163.500 Y177.411 E627.70137
G0 F12000 X164.000 Y177.123
G1 F2220 X164.000 Y127.878 E629.74874
G0 F12000 X164.500 Y128.167
G1 F2220 X164.500 Y176.834 E631.77208
G0 F12000 X165.000 Y176.545
G1 F2220 X165.000 Y128.456 E633.77138
G0 F12000 X165.500 Y128.744
G1 F2220 X165.500 Y176.257 E635.74675
G0 F12000 X166.000 Y175.968
G1 F2220 X166.000 Y129.033 E637.69808
G0 F12000 X166.500 Y129.322
G1 F2220 X166.500 Y175.679 E639.62538
G0 F12000 X167.000 Y175.391
G1 F2220 X167.000 Y129.610 E641.52873
G0 F12000 X167.500 Y129.899
G1 F2220 X167.500 Y175.102 E643.40805
G0 F12000 X168.000 Y174.813
G1 F2220 X168.000 Y130.188 E645.26334
G0 F12000 X168.500 Y130.477
G1 F2220 X168.500 Y174.524 E647.09460
G0 F12000 X169.000 Y174.236
G1 F2220 X169.000 Y130.765 E648.90192
G0 F12000 X169.500 Y131.054
G1 F2220 X169.500 Y173.947 E650.68520
G0 F12000 X170.000 Y173.658
G1 F2220 X170.000 Y131.343 E652.44446
G0 F12000 X170.500 Y131.631
G1 F2220 X170.500 Y173.370 E654.17976
G0 F12000 X171.000 Y173.081
G1 F2220 X171.000 Y131.920 E655.89104
G0 F12000 X171.500 Y132.209
G1 F2220 X171.500 Y172.792 E657.57828
G0 F12000 X172.000 Y172.504
G1 F2220 X172.000 Y132.497 E659.24158
G0 F12000 X172.500 Y132.786
G1 F2220 X172.500 Y172.215 E660.88085
G0 F12000 X173.000 Y171.926
G1 F2220 X173.000 Y133.075 E662.49608
G0 F12000 X173.500 Y133.363
G1 F2220 X173.500 Y171.638 E664.08737
G0 F12000 X174.000 Y171.349
G1 F2220 X174.000 Y133.652 E665.65463
G0 F12000 X174.500 Y133.941
G1 F2220 X174.500 Y171.060 E667.19786
G0 F12000 X175.000 Y170.772
G1 F2220 X175.000 Y134.229 E668.71714
G0 F12000 X175.500 Y134.518
G1 F2220 X175.500 Y170.483 E670.21239
G0 F12000 X176.000 Y170.194
G1 F2220 X176.000 Y134.807 E671.68361
G0 F12000 X176.500 Y135.095
G1 F2220 X176.500 Y169.906 E673.13089
G0 F12000 X177.000 Y169.617
G1 F2220 X177.000 Y135.384 E674.55413
G0 F12000 X177.500 Y135.673
G1 F2220 X177.500 Y169.328 E675.95334
G0 F12000 X178.000 Y169.040
G1 F2220 X178.000 Y135.961 E677.32861
G0 F12000 X178.500 Y136.250
G1 F2220 X178.500 Y168.751 E678.67984
G0 F12000 X179.000 Y168.462
G1 F2220 X179.000 Y136.539 E680.00705
G0 F12000 X179.500 Y136.953
G1 F2220 X179.500 Y168.048 E681.29983
;LAYER:3
M106 S30
G0 F12000 X179.950 Y167.881 Z0.800
;TYPE:WALL-INNER
G1 F2400 X179.545 Y168.581 E681.33345
G1 X152.904 Y183.962 E682.61240
G1 X152.096 Y183.962 E682.64599
G1 X125.455 Y168.581 E683.92494
G1 X125.050 Y167.881 E683.95856
G1 X125.050 Y137.119 E685.23749
G1 X125.455 Y136.419 E685.27112
G1 X152.096 Y121.038 E686.55006
G1 X152.904 Y121.038 E686.58366
G1 X179.545 Y136.419 E687.86260
G1 X179.950 Y137.119 E687.89623
G1 X179.950 Y167.881 E689.17516
G0 F12000 X180.450 Y168.016
;TYPE:WALL-OUTER
G1 F2400 X179.911 Y168.947 E689.21989
G1 X153.038 Y184.462 E690.50997
G1 X151.962 Y184.462 E690.55471
G1 X125.089 Y168.947 E691.84479
G1 X124.550 Y168.016 E691.88952
G1 X124.550 Y136.984 E693.17968
G1 X125.089 Y136.053 E693.22440
G1 X151.962 Y120.538 E694.51449
G1 X153.038 Y120.538 E694.55923
G1 X179.911 Y136.053 E695.84931
G1 X180.450 Y136.984 E695.89404
G1 X180.450 Y168.016 E697.18420
G0 F12000 X179.677 Y168.000
;TYPE:SKIN
G1 F2400 X125.320 Y168.000 E699.44410
G0 F12000 X125.224 Y167.500
G1 F2400 X179.774 Y167.500 E701.71202
G0 F12000 X179.774 Y167.000
G1 F2400 X125.224 Y167.000 E703.97995
G0 F12000 X125.224 Y166.500
G1 F2400 X179.774 Y166.500 E706.24787
G0 F12000 X179.774 Y166.000
G1 F2400 X125.224 Y166.000 E708.51580
G0 F12000 X125.224 Y165.500
G1 F2400 X179.774 Y165.500 E710.78373
G0 F12000 X179.774 Y165.000
G1 F2400 X125.224 Y165.000 E713.05165
G0 F12000 X125.224 Y164.500
G1 F2400 X179.774 Y164.500 E715.31958
G0 F12000 X179.774 Y164.000
G1 F2400 X125.224 Y164.000 E717.58750
G0 F12000 X125.224 Y163.500
G1 F2400 X179.774 Y163.500 E719.85543
G0 F12000 X179.774 Y163.000
G1 F2400 X125.224 Y163.000 E722.12335
G0 F12000 X125.224 Y162.500
G1 F2400 X179.774 Y162.500 E724.39128
G0 F12000 X179.774 Y162.000
G1 F2400 X125.224 Y162.000 E726.65920
G0 F12000 X125.224 Y161.500
G1 F2400 X179.774 Y161.500 E728.92713
G0 F12000 X179.774 Y161.000
G1 F2400 X125.224 Y161.000 E731.19505
G0 F12000 X125.224 Y160.500
G1 F2400 X179.774 Y160.500 E733.46298
G0 F12000 X179.774 Y160.000
G1 F2400 X125.224 Y160.000 E735.73091
G1 F2100 E735.33091
G0 F12000 X125.665 Y168.500
G1 F2100 E735.73091
G1 F2400 X179.332 Y168.500 E737.96212
G0 F12000 X178.466 Y169.000
G1 F2400 X126.531 Y169.000 E740.12133
G0 F12000 X127.397 Y169.500
G1 F2400 X177.600 Y169.500 E742.20852
G0 F12000 X176.733 Y170.000
G1 F2400 X128.264 Y170.000 E744.22363
G0 F12000 X129.130 Y170.500
G1 F2400 X175.867 Y170.500 E746.16673
G0 F12000 X175.001 Y171.000
G1 F2400 X129.996 Y171.000 E748.03782
G0 F12000 X130.862 Y171.500
G1 F2400 X174.135 Y171.500 E749.83690
G0 F12000 X173.269 Y172.000
G1 F2400 X131.728 Y172.000 E751.56398
G0 F12000 X132.594 Y172.500
G1 F2400 X172.403 Y172.500 E753.21904
G0 F12000 X171.537 Y173.000
G1 F2400 X133.460 Y173.000 E754.80210
G0 F12000 X134.326 Y173.500
G1 F2400 X170.671 Y173.500 E756.31315
G0 F12000 X169.805 Y174.000
G1 F2400 X135.192 Y174.000 E757.75219
G0 F12000 X136.058 Y174.500
G1 F2400 X168.939 Y174.500 E759.11922
G0 F12000 X168.073 Y175.000
G1 F2400 X136.924 Y175.000 E760.41425
G0 F12000 X137.790 Y175.500
G1 F2400 X167.207 Y175.500 E761.63727
G0 F12000 X166.341 Y176.000
G1 F2400 X138.656 Y176.000 E762.78828
G0 F12000 X139.522 Y176.500
G1 F2400 X165.475 Y176.500 E763.86728
G0 F12000 X164.609 Y177.000
G1 F2400 X140.388 Y177.000 E764.87427
G0 F12000 X141.254 Y177.500
G1 F2400 X163.743 Y177.500 E765.80925
G0 F12000 X162.877 Y178.000
G1 F2400 X142.120 Y178.000 E766.67223
G0 F12000 X142.987 Y178.500
G1 F2400 X162.010 Y178.500 E767.46311
G0 F12000 X161.144 Y179.000
G1 F2400 X143.853 Y179.000 E768.18199
G0 F12000 X144.719 Y179.500
G1 F2400 X160.278 Y179.500 E768.82886
G0 F12000 X159.412 Y180.000
G1 F2400 X145.585 Y180.000 E769.40372
G0 F12000 X146.451 Y180.500
G1 F2400 X158.546 Y180.500 E769.90657
G0 F12000 X157.680 Y181.000
G1 F2400 X147.317 Y181.000 E770.33741
G0 F12000 X148.183 Y181.500
G1 F2400 X156.814 Y181.500 E770.69625
G0 F12000 X155.948 Y182.000
G1 F2400 X149.049 Y182.000 E770.98307
G0 F12000 X149.915 Y182.500
G1 F2400 X155.082 Y182.500 E771.19789
G0 F12000 X154.216 Y183.000
G1 F2400 X150.781 Y183.000 E771.34070
G0 F12000 X151.647 Y183.500
G1 F2400 X153.350 Y183.500 E771.41151
G1 F2100 E771.01151
G0 F12000 X179.774 Y159.500
G1 F2100 E771.41151
G1 F2400 X125.224 Y159.500 E773.67943
G0 F12000 X125.224 Y159.000
G1 F2400 X179.774 Y159.000 E775.94736
G0 F12000 X179.774 Y158.500
G1 F2400 X125.224 Y158.500 E778.21528
G0 F12000 X125.224 Y158.000
G1 F2400 X179.774 Y158.000 E780.48321
G0 F12000 X179.774 Y157.500
G1 F2400 X125.224 Y157.500 E782.75113
G0 F12000 X125.224 Y157.000
G1 F2400 X179.774 Y157.000 E785.01906
G0 F12000 X179.774 Y156.500
G1 F2400 X125.224 Y156.500 E787.28698
G0 F12000 X125.224 Y156.000
G1 F2400 X179.774 Y156.000 E789.55491
G0 F12000 X179.774 Y155.500
G1 F2400 X125.224 Y155.500 E791.82283
G0 F12000 X125.224 Y155.000
G1 F2400 X179.774 Y155.000 E794.09076
G0 F12000 X179.774 Y154.500
G1 F2400 X125.224 Y154.500 E796.35869
G0 F12000 X125.224 Y154.000
G1 F2400 X179.774 Y154.000 E798.62661
G0 F12000 X179.774 Y153.500
G1 F2400 X125.224 Y153.500 E800.89454
G0 F12000 X125.224 Y153.000
G1 F2400 X179.774 Y153.000 E803.16246
G0 F12000 X179.774 Y152.500
G1 F2400 X125.224 Y152.500 E805.43039
G0 F12000 X125.224 Y152.000
G1 F2400 X179.774 Y152.000 E807.69831
G0 F12000 X179.774 Y151.500
G1 F2400 X125.224 Y151.500 E809.96624
G0 F12000 X125.224 Y151.000
G1 F2400 X179.774 Y151.000 E812.23416
G0 F12000 X179.774 Y150.500
G1 F2400 X125.224 Y150.500 E814.50209
G0 F12000 X125.224 Y150.000
G1 F2400 X179.774 Y150.000 E816.77001
G0 F12000 X179.774 Y149.500
G1 F2400 X125.224 Y149.500 E819.03794
G0 F12000 X125.224 Y149.000
G1 F2400 X179.774 Y149.000 E821.30587
G0 F12000 X179.774 Y148.500
G1 F2400 X125.224 Y148.500 E823.57379
G0 F12000 X125.224 Y148.000
G1 F2400 X179.774 Y148.000 E825.84172
G0 F12000 X179.774 Y147.500
G1 F2400 X125.224 Y147.500 E828.10964
G0 F12000 X125.224 Y147.000
G1 F2400 X179.774 Y147.000 E830.37757
G0 F12000 X179.774 Y146.500
G1 F2400 X125.224 Y146.500 E832.64549
G0 F12000 X125.224 Y146.000
G1 F2400 X179.774 Y146.000 E834.91342
G0 F12000 X179.774 Y145.500
G1 F2400 X125.224 Y145.500 E837.18134
G0 F12000 X125.224 Y145.000
G1 F2400 X179.774 Y145.000 E839.44927
G0 F12000 X179.774 Y144.500
G1 F2400 X125.224 Y144.500 E841.71719
G0 F12000 X125.224 Y144.000
G1 F2400 X179.774 Y144.000 E843.98512
G0 F12000 X179.774 Y143.500
G1 F2400 X125.224 Y143.500 E846.25305
G0 F12000 X125.224 Y143.000
G1 F2400 X179.774 Y143.000 E848.52097
G0 F12000 X179.774 Y142.500
G1 F2400 X125.224 Y142.500 E850.78890
G0 F12000 X125.224 Y142.000
G1 F2400 X179.774 Y142.000 E853.05682
G0 F12000 X179.774 Y141.500
G1 F2400 X125.224 Y141.500 E855.32475
G0 F12000 X125.224 Y141.000
G1 F2400 X179.774 Y141.000 E857.59267
G0 F12000 X179.774 Y140.500
G1 F2400 X125.224 Y140.500 E859.86060
G0 F12000 X125.224 Y140.000
G1 F2400 X179.774 Y140.000 E862.12852
G0 F12000 X179.774 Y139.500
G1 F2400 X125.224 Y139.500 E864.39645
G0 F12000 X125.224 Y139.000
G1 F2400 X179.774 Y139.000 E866.66437
G0 F12000 X179.774 Y138.500
G1 F2400 X125.224 Y138.500 E868.93230
G0 F12000 X125.224 Y138.000
G1 F2400 X179.774 Y138.000 E871.20023
G0 F12000 X179.774 Y137.500
G1 F2400 X125.224 Y137.500 E873.46815
G0 F12000 X125.319 Y137.000
G1 F2400 X179.680 Y137.000 E875.72822
G0 F12000 X179.336 Y136.500
G1 F2400 X125.663 Y136.500 E877.95968
G0 F12000 X126.529 Y136.000
G1 F2400 X178.470 Y136.000 E880.11914
G0 F12000 X177.604 Y135.500
G1 F2400 X127.395 Y135.500 E882.20659
G0 F12000 X128.261 Y135.000
G1 F2400 X176.738 Y135.000 E884.22203
G0 F12000 X175.872 Y134.500
G1 F2400 X129.127 Y134.500 E886.16546
G0 F12000 X129.993 Y134.000
G1 F2400 X175.006 Y134.000 E888.03688
G0 F12000 X174.140 Y133.500
G1 F2400 X130.859 Y133.500 E889.83630
G0 F12000 X131.725 Y133.000
G1 F2400 X173.274 Y133.000 E891.56370
G0 F12000 X172.408 Y132.500
G1 F2400 X132.591 Y132.500 E893.21910
G0 F12000 X133.457 Y132.000
G1 F2400 X171.542 Y132.000 E894.80249
G0 F12000 X170.676 Y131.500
G1 F2400 X134.323 Y131.500 E896.31387
G0 F12000 X135.190 Y131.000
G1 F2400 X169.809 Y131.000 E897.75316
G0 F12000 X168.943 Y130.500
G1 F2400 X136.056 Y130.500 E899.12045
G0 F12000 X136.922 Y130.000
G1 F2400 X168.077 Y130.000 E900.41572
G0 F12000 X167.211 Y129.500
G1 F2400 X137.788 Y129.500 E901.63899
G0 F12000 X138.654 Y129.000
G1 F2400 X166.345 Y129.000 E902.79024
G0 F12000 X165.479 Y128.500
G1 F2400 X139.520 Y128.500 E903.86949
G0 F12000 X140.386 Y128.000
G1 F2400 X164.613 Y128.000 E904.87674
G0 F12000 X163.747 Y127.500
G1 F2400 X141.252 Y127.500 E905.81197
G0 F12000 X142.118 Y127.000
G1 F2400 X162.881 Y127.000 E906.67519
G0 F12000 X162.015 Y126.500
G1 F2400 X142.984 Y126.500 E907.46641
G0 F12000 X143.850 Y126.000
G1 F2400 X161.149 Y126.000 E908.18562
G0 F12000 X160.283 Y125.500
G1 F2400 X144.716 Y125.500 E908.83282
G0 F12000 X145.582 Y125.000
G1 F2400 X159.417 Y125.000 E909.40801
G0 F12000 X158.551 Y124.500
G1 F2400 X146.448 Y124.500 E909.91120
G0 F12000 X147.314 Y124.000
G1 F2400 X157.685 Y124.000 E910.34237
G0 F12000 X156.819 Y123.500
G1 F2400 X148.180 Y123.500 E910.70154
G0 F12000 X149.046 Y123.000
G1 F2400 X155.953 Y123.000 E910.98870
G0 F12000 X155.086 Y122.500
G1 F2400 X149.913 Y122.500 E911.20377
G0 F12000 X150.779 Y122.000
G1 F2400 X154.220 Y122.000 E911.34683
G0 F12000 X153.354 Y121.500
G1 F2400 X151.645 Y121.500 E911.41788
;LAYER:4
M106 S40
G0 F12000 X151.923 Y120.907 Z1.000
;TYPE:WALL-INNER
G1 F2700 X153.077 Y120.907 E911.46586
G1 X179.572 Y136.204 E912.73780
G1 X180.150 Y137.203 E912.78579
G1 X180.150 Y167.797 E914.05774
G1 X179.572 Y168.796 E914.10572
G1 X153.077 Y184.093 E915.37767
G1 X151.923 Y184.093 E915.42565
G1 X125.428 Y168.796 E916.69759
G1 X124.850 Y167.797 E916.74557
G1 X124.850 Y137.203 E918.01752
G1 X125.428 Y136.204 E918.06551
G1 X151.923 Y120.907 E919.33745
G0 F12000 X151.789 Y120.407
;TYPE:WALL-OUTER
G1 F2700 X153.211 Y120.407 E919.39657
G1 X179.938 Y135.838 E920.67966
G1 X180.650 Y137.069 E920.73878
G1 X180.650 Y167.931 E922.02187
G1 X179.938 Y169.162 E922.08100
G1 X153.211 Y184.593 E923.36408
G1 X151.789 Y184.593 E923.42320
G1 X125.062 Y169.162 E924.70628
G1 X124.350 Y167.931 E924.76540
G1 X124.350 Y137.069 E926.04850
G1 X125.062 Y135.838 E926.10762
G1 X151.789 Y120.407 E927.39070
G0 F12000 X152.000 Y121.082
;TYPE:SKIN
G1 F2700 X152.000 Y183.918 E930.00312
G0 F12000 X152.500 Y183.918
G1 F2700 X152.500 Y121.082 E932.61554
G0 F12000 X153.000 Y121.082
G1 F2700 X153.000 Y183.918 E935.22795
G0 F12000 X153.500 Y183.647
G1 F2700 X153.500 Y121.354 E937.81780
G0 F12000 X154.000 Y121.643
G1 F2700 X154.000 Y183.358 E940.38361
G0 F12000 X154.500 Y183.069
G1 F2700 X154.500 Y121.932 E942.92539
G0 F12000 X155.000 Y122.220
G1 F2700 X155.000 Y182.781 E945.44322
G0 F12000 X155.500 Y182.492
G1 F2700 X155.500 Y122.509 E947.93703
G0 F12000 X156.000 Y122.798
G1 F2700 X156.000 Y182.203 E950.40680
G0 F12000 X156.500 Y181.915
G1 F2700 X156.500 Y123.086 E952.85263
G0 F12000 X157.000 Y123.375
G1 F2700 X157.000 Y181.626 E955.27442
G0 F12000 X157.500 Y181.337
G1 F2700 X157.500 Y123.664 E957.67219
G0 F12000 X158.000 Y123.952
G1 F2700 X158.000 Y181.049 E960.04600
G0 F12000 X158.500 Y180.760
G1 F2700 X158.500 Y124.241 E962.39579
G0 F12000 X159.000 Y124.530
G1 F2700 X159.000 Y180.471 E964.72155
G0 F12000 X159.500 Y180.183
G1 F2700 X159.500 Y124.818 E967.02336
G1 F2100 E966.62336
G0 F12000 X151.500 Y121.353
G1 F2100 E967.02336
G1 F2700 X151.500 Y183.646 E969.61320
G0 F12000 X151.000 Y183.357
G1 F2700 X151.000 Y121.642 E972.17901
G0 F12000 X150.500 Y121.931
G1 F2700 X150.500 Y183.068 E974.72079
G0 F12000 X150.000 Y182.780
G1 F2700 X150.000 Y122.219 E977.23862
G0 F12000 X149.500 Y122.508
G1 F2700 X149.500 Y182.491 E979.73243
G0 F12000 X149.000 Y182.202
G1 F2700 X149.000 Y122.797 E982.20220
G0 F12000 X148.500 Y123.085
G1 F2700 X148.500 Y181.914 E984.64803
G0 F12000 X148.000 Y181.625
G1 F2700 X148.000 Y123.374 E987.06982
G0 F12000 X147.500 Y123.663
G1 F2700 X147.500 Y181.336 E989.46759
G0 F12000 X147.000 Y181.048
G1 F2700 X147.000 Y123.951 E991.84140
G0 F12000 X146.500 Y124.240
G1 F2700 X146.500 Y180.759 E994.19119
G0 F12000 X146.000 Y180.470
G1 F2700 X146.000 Y124.529 E996.51695
G0 F12000 X145.500 Y124.817
G1 F2700 X145.500 Y180.182 E998.81876
G0 F12000 X145.000 Y179.893
G1 F2700 X145.000 Y125.106 E1001.09653
G0 F12000 X144.500 Y125.395
G1 F2700 X144.500 Y179.604 E1003.35028
G0 F12000 X144.000 Y179.316
G1 F2700 X144.000 Y125.683 E1005.58008
G0 F12000 X143.500 Y125.972
G1 F2700 X143.500 Y179.027 E1007.78585
G0 F12000 X143.000 Y178.738
G1 F2700 X143.000 Y126.261 E1009.96759
G0 F12000 X142.500 Y126.549
G1 F2700 X142.500 Y178.450 E1012.12539
G0 F12000 X142.000 Y178.161
G1 F2700 X142.000 Y126.838 E1014.25915
G0 F12000 X141.500 Y127.127
G1 F2700 X141.500 Y177.872 E1016.36888
G0 F12000 X141.000 Y177.584
G1 F2700 X141.000 Y127.415 E1018.45467
G0 F12000 X140.500 Y127.704
G1 F2700 X140.500 Y177.295 E1020.51642
G0 F12000 X140.000 Y177.006
G1 F2700 X140.000 Y127.993 E1022.55414
G0 F12000 X139.500 Y128.282
G1 F2700 X139.500 Y176.717 E1024.56784
G0 F12000 X139.000 Y176.429
G1 F2700 X139.000 Y128.570 E1026.55758
G0 F12000 X138.500 Y128.859
G1 F2700 X138.500 Y176.140 E1028.52330
G0 F12000 X138.000 Y175.851
G1 F2700 X138.000 Y129.148 E1030.46498
G0 F12000 X137.500 Y129.436
G1 F2700 X137.500 Y175.563 E1032.38272
G0 F12000 X137.000 Y175.274
G1 F2700 X137.000 Y129.725 E1034.27643
G0 F12000 X136.500 Y130.014
G1 F2700 X136.500 Y174.985 E1036.14611
G0 F12000 X136.000 Y174.697
G1 F2700 X136.000 Y130.302 E1037.99184
G0 F12000 X135.500 Y130.591
G1 F2700 X135.500 Y174.408 E1039.81353
G0 F12000 X135.000 Y174.119
G1 F2700 X135.000 Y130.880 E1041.61120
G0 F12000 X134.500 Y131.168
G1 F2700 X134.500 Y173.831 E1043.38493
G0 F12000 X134.000 Y173.542
G1 F2700 X134.000 Y131.457 E1045.13462
G0 F12000 X133.500 Y131.746
G1 F2700 X133.500 Y173.253 E1046.86028
G0 F12000 X133.000 Y172.965
G1 F2700 X133.000 Y132.034 E1048.56199
G0 F12000 X132.500 Y132.323
G1 F2700 X132.500 Y172.676 E1050.23967
G0 F12000 X132.000 Y172.387
G1 F2700 X132.000 Y132.612 E1051.89332
G0 F12000 X131.500 Y132.900
G1 F2700 X131.500 Y172.099 E1053.52303
G0 F12000 X131.000 Y171.810
G1 F2700 X131.000 Y133.189 E1055.12870
G0 F12000 X130.500 Y133.478
G1 F2700 X130.500 Y171.521 E1056.71035
G0 F12000 X130.000 Y171.233
G1 F2700 X130.000 Y133.766 E1058.26805
G0 F12000 X129.500 Y134.055
G1 F2700 X129.500 Y170.944 E1059.80171
G0 F12000 X129.000 Y170.655
G1 F2700 X129.000 Y134.344 E1061.31135
G0 F12000 X128.500 Y134.632
G1 F2700 X128.500 Y170.367 E1062.79704
G0 F12000 X128.000 Y170.078
G1 F2700 X128.000 Y134.921 E1064.25869
G0 F12000 X127.500 Y135.210
G1 F2700 X127.500 Y169.789 E1065.69632
G0 F12000 X127.000 Y169.501
G1 F2700 X127.000 Y135.498 E1067.11000
G0 F12000 X126.500 Y135.787
G1 F2700 X126.500 Y169.212 E1068.49965
G0 F12000 X126.000 Y168.923
G1 F2700 X126.000 Y136.076 E1069.86527
G0 F12000 X125.500 Y136.428
G1 F2700 X125.500 Y168.571 E1071.20162
G1 F2100 E1070.80162
G0 F12000 X160.000 Y179.894
G1 F2100 E1071.20162
G1 F2700 X160.000 Y125.107 E1073.47940
G0 F12000 X160.500 Y125.396
G1 F2700 X160.500 Y179.605 E1075.73315
G0 F12000 X161.000 Y179.317
G1 F2700 X161.000 Y125.684 E1077.96295
G0 F12000 X161.500 Y125.973
G1 F2700 X161.500 Y179.028 E1080.16872
G0 F12000 X162.000 Y178.739
G1 F2700 X162.000 Y126.262 E1082.35046
G0 F12000 X162.500 Y126.550
G1 F2700 X162.500 Y178.451 E1084.50825
G0 F12000 X163.000 Y178.162
G1 F2700 X163.000 Y126.839 E1086.64202
G0 F12000 X163.500 Y127.128
G1 F2700 X163.500 Y177.873 E1088.75175
G0 F12000 X164.000 Y177.585
G1 F2700 X164.000 Y127.416 E1090.83753
G0 F12000 X164.500 Y127.705
G1 F2700 X164.500 Y177.296 E1092.89929
G0 F12000 X165.000 Y177.007
G1 F2700 X165.000 Y127.994 E1094.93701
G0 F12000 X165.500 Y128.283
G1 F2700 X165.500 Y176.718 E1096.95071
G0 F12000 X166.000 Y176.430
G1 F2700 X166.000 Y128.571 E1098.94045
G0 F12000 X166.500 Y128.860
G1 F2700 X166.500 Y176.141 E1100.90617
G0 F12000 X167.000 Y175.852
G1 F2700 X167.000 Y129.149 E1102.84785
G0 F12000 X167.500 Y129.437
G1 F2700 X167.500 Y175.564 E1104.76559
G0 F12000 X168.000 Y175.275
G1 F2700 X168.000 Y129.726 E1106.65930
G0 F12000 X168.500 Y130.015
G1 F2700 X168.500 Y174.986 E1108.52897
G0 F12000 X169.000 Y174.698
G1 F2700 X169.000 Y130.303 E1110.37470
G0 F12000 X169.500 Y130.592
G1 F2700 X169.500 Y174.409 E1112.19640
G0 F12000 X170.000 Y174.120
G1 F2700 X170.000 Y130.881 E1113.99407
G0 F12000 X170.500 Y131.169
G1 F2700 X170.500 Y173.832 E1115.76779
G0 F12000 X171.000 Y173.543
G1 F2700 X171.000 Y131.458 E1117.51748
G0 F12000 X171.500 Y131.747
G1 F2700 X171.500 Y173.254 E1119.24314
G0 F12000 X172.000 Y172.966
G1 F2700 X172.000 Y132.035 E1120.94486
G0 F12000 X172.500 Y132.324
G1 F2700 X172.500 Y172.677 E1122.62254
G0 F12000 X173.000 Y172.388
G1 F2700 X173.000 Y132.613 E1124.27619
G0 F12000 X173.500 Y132.901
G1 F2700 X173.500 Y172.100 E1125.90590
G0 F12000 X174.000 Y171.811
G1 F2700 X174.000 Y133.190 E1127.51157
G0 F12000 X174.500 Y133.479
G1 F2700 X174.500 Y171.522 E1129.09322
G0 F12000 X175.000 Y171.234
G1 F2700 X175.000 Y133.767 E1130.65091
G0 F12000 X175.500 Y134.056
G1 F2700 X175.500 Y170.945 E1132.18458
G0 F12000 X176.000 Y170.656
G1 F2700 X176.000 Y134.345 E1133.69422
G0 F12000 X176.500 Y134.633
G1 F2700 X176.500 Y170.368 E1135.17990
G0 F12000 X177.000 Y170.079
G1 F2700 X177.000 Y134.922 E1136.64156
G0 F12000 X177.500 Y135.211
G1 F2700 X177.500 Y169.790 E1138.07919
G0 F12000 X178.000 Y169.502
G1 F2700 X178.000 Y135.499 E1139.49287
G0 F12000 X178.500 Y135.788
G1 F2700 X178.500 Y169.213 E1140.88252
G0 F12000 X179.000 Y168.924
G1 F2700 X179.000 Y136.077 E1142.24814
G0 F12000 X179.500 Y136.429
G1 F2700 X179.500 Y168.572 E1143.58449
;LAYER:5
M106 S51
G0 F12000 X179.597 Y169.013 Z1.200
;TYPE:WALL-INNER
G1 F2700 X153.252 Y184.224 E1144.84925
G1 X151.750 Y184.224 E1144.91169
G1 X125.402 Y169.011 E1146.17660
G1 X124.650 Y167.711 E1146.23904
G1 X124.650 Y137.289 E1147.50384
G1 X125.403 Y135.987 E1147.56637
G1 X151.748 Y120.776 E1148.83112
G1 X153.250 Y120.776 E1148.89357
G1 X179.598 Y135.989 E1150.15848
G1 X180.350 Y137.289 E1150.22091
G1 X180.350 Y167.711 E1151.48571
G1 X179.597 Y169.013 E1151.54825
G0 F12000 X179.963 Y169.378
;TYPE:WALL-OUTER
G1 F2700 X153.386 Y184.724 E1152.82416
G1 X151.616 Y184.724 E1152.89775
G1 X125.036 Y169.377 E1154.17379
G1 X124.150 Y167.846 E1154.24733
G1 X124.150 Y137.154 E1155.52336
G1 X125.037 Y135.622 E1155.59696
G1 X151.614 Y120.276 E1156.87287
G1 X153.384 Y120.276 E1156.94646
G1 X179.964 Y135.623 E1158.22251
G1 X180.850 Y137.154 E1158.29605
G1 X180.850 Y167.846 E1159.57207
G1 X179.963 Y169.378 E1159.64567
G0 F12000 X178.790 Y168.986
;TYPE:FILL
G1 F2700 X125.074 Y137.973 E1162.22441
G1 F2100 E1161.82441
G0 F12000 X133.745 Y131.661
G1 F2100 E1162.22441
G1 F2700 X179.925 Y158.323 E1164.44137
G0 F12000 X179.924 Y157.994
G1 F2700 X143.546 Y178.997 E1166.18776
G0 F12000 X143.829 Y179.159
G1 F2700 X143.829 Y125.839 E1168.40455
G0 F12000 X143.547 Y126.001
G1 F2700 X179.926 Y147.004 E1170.15098
G0 F12000 X179.924 Y146.675
G1 F2700 X133.743 Y173.338 E1172.36800
G0 F12000 X134.027 Y173.500
G1 F2700 X134.027 Y131.499 E1174.11420
G1 F2100 E1173.71420
G0 F12000 X125.074 Y144.387
G1 F2100 E1174.11420
G1 F2700 X159.185 Y124.693 E1175.75176
G1 F2100 E1175.35176
G0 F12000 X153.631 Y121.487
G1 F2100 E1175.75176
G1 F2700 X153.631 Y183.514 E1178.33054
G1 F2100 E1177.93054
G0 F12000 X159.186 Y180.304
G1 F2100 E1178.33054
G1 F2700 X125.073 Y160.609 E1179.96820
G1 F2100 E1179.56820
G0 F12000 X125.074 Y167.024
G1 F2100 E1179.96820
G1 F2700 X178.789 Y136.012 E1182.54688
G1 F2100 E1182.14688
G0 F12000 X173.235 Y132.806
G1 F2100 E1182.54688
G1 F2700 X173.235 Y172.195 E1184.18448
G1 F2100 E1183.78448
G0 F12000 X168.988 Y174.645
G1 F2100 E1184.18448
G1 F2700 X125.074 Y149.291 E1186.29266
G1 F2100 E1185.89266
G0 F12000 X125.074 Y155.706
G1 F2100 E1186.29266
G1 F2700 X168.987 Y130.353 E1188.40078
G1 F2100 E1188.00078
G0 F12000 X163.433 Y127.147
G1 F2100 E1188.40078
G1 F2700 X163.433 Y177.854 E1190.50893
G0 F12000 X163.678 Y178.000
;TYPE:SKIN
G1 F2700 X161.877 Y178.000 E1190.58381
G0 F12000 X161.011 Y178.500
G1 F2700 X162.812 Y178.500 E1190.65869
G0 F12000 X161.946 Y179.000
G1 F2700 X160.145 Y179.000 E1190.73357
G0 F12000 X159.279 Y179.500
G1 F2700 X161.080 Y179.500 E1190.80844
G1 F2100 E1190.40844
G0 F12000 X162.743 Y177.500
G1 F2100 E1190.80844
G1 F2700 X164.544 Y177.500 E1190.88332
G0 F12000 X165.410 Y177.000
G1 F2700 X163.609 Y177.000 E1190.95820
G0 F12000 X164.475 Y176.500
G1 F2700 X166.276 Y176.500 E1191.03307
G0 F12000 X167.142 Y176.000
G1 F2700 X165.341 Y176.000 E1191.10795
G0 F12000 X166.207 Y175.500
G1 F2700 X168.008 Y175.500 E1191.18283
G0 F12000 X168.874 Y175.000
G1 F2700 X167.073 Y175.000 E1191.25770
G0 F12000 X167.939 Y174.500
G1 F2700 X169.740 Y174.500 E1191.33258
G0 F12000 X170.606 Y174.000
G1 F2700 X168.805 Y174.000 E1191.40746
G0 F12000 X169.671 Y173.500
G1 F2700 X171.472 Y173.500 E1191.48233
G0 F12000 X172.338 Y173.000
G1 F2700 X170.537 Y173.000 E1191.55721
G0 F12000 X171.403 Y172.500
G1 F2700 X173.204 Y172.500 E1191.63209
G0 F12000 X174.070 Y172.000
G1 F2700 X172.269 Y172.000 E1191.70696
G0 F12000 X173.135 Y171.500
G1 F2700 X174.936 Y171.500 E1191.78184
G0 F12000 X175.802 Y171.000
G1 F2700 X174.001 Y171.000 E1191.85672
G0 F12000 X174.867 Y170.500
G1 F2700 X176.668 Y170.500 E1191.93160
G0 F12000 X177.534 Y170.000
G1 F2700 X175.733 Y170.000 E1192.00647
G0 F12000 X176.599 Y169.500
G1 F2700 X178.400 Y169.500 E1192.08135
G0 F12000 X179.266 Y169.000
G1 F2700 X177.465 Y169.000 E1192.15623
G0 F12000 X178.331 Y168.500
G1 F2700 X179.690 Y168.500 E1192.21273
G0 F12000 X179.979 Y168.000
G1 F2700 X179.235 Y167.750 E1192.24523
G1 X180.174 Y167.250 E1192.28265
G1 X179.274 Y166.750 E1192.32006
G1 X180.174 Y166.250 E1192.35747
G1 X179.274 Y165.750 E1192.39488
G1 X180.174 Y165.250 E1192.43229
G1 X179.274 Y164.750 E1192.46970
G1 X180.174 Y164.250 E1192.50711
G1 X179.274 Y163.750 E1192.54452
G1 X180.174 Y163.250 E1192.58193
G1 X179.274 Y162.750 E1192.61934
G1 X180.174 Y162.250 E1192.65675
G1 X179.274 Y161.750 E1192.69417
G1 X180.174 Y161.250 E1192.73158
G1 X179.274 Y160.750 E1192.76899
G1 X180.174 Y160.250 E1192.80640
G1 X179.274 Y159.750 E1192.84381
G1 X180.174 Y159.250 E1192.88122
G1 X179.274 Y158.750 E1192.91863
G1 X180.174 Y158.250 E1192.95604
G1 X179.274 Y157.750 E1192.99345
G1 X180.174 Y157.250 E1193.03086
G1 X179.274 Y156.750 E1193.06827
G1 X180.174 Y156.250 E1193.10569
G1 X179.274 Y155.750 E1193.14310
G1 X180.174 Y155.250 E1193.18051
G1 X179.274 Y154.750 E1193.21792
G1 X180.174 Y154.250 E1193.25533
G1 X179.274 Y153.750 E1193.29274
G1 X180.174 Y153.250 E1193.33015
G1 X179.274 Y152.750 E1193.36756
G1 X180.174 Y152.250 E1193.40497
G1 X179.274 Y151.750 E1193.44238
G1 X180.174 Y151.250 E1193.47979
G1 X179.274 Y150.750 E1193.51721
G1 X180.174 Y150.250 E1193.55462
G1 X179.274 Y149.750 E1193.59203
G1 X180.174 Y149.250 E1193.62944
G1 X179.274 Y148.750 E1193.66685
G1 X180.174 Y148.250 E1193.70426
G1 X179.274 Y147.750 E1193.74167
G1 X180.174 Y147.250 E1193.77908
G1 X179.274 Y146.750 E1193.81649
G1 X180.174 Y146.250 E1193.85390
G1 X179.274 Y145.750 E1193.89131
G1 X180.174 Y145.250 E1193.92873
G1 X179.274 Y144.750 E1193.96614
G1 X180.174 Y144.250 E1194.00355
G1 X179.274 Y143.750 E1194.04096
G1 X180.174 Y143.250 E1194.07837
G1 X179.274 Y142.750 E1194.11578
G1 X180.174 Y142.250 E1194.15319
G1 X179.274 Y141.750 E1194.19060
G1 X180.174 Y141.250 E1194.22801
G1 X179.274 Y140.750 E1194.26542
G1 X180.174 Y140.250 E1194.30283
G1 X179.274 Y139.750 E1194.34025
G1 X180.174 Y139.250 E1194.37766
G1 X179.274 Y138.750 E1194.41507
G1 X180.174 Y138.250 E1194.45248
G1 X179.274 Y137.750 E1194.48989
G1 X180.077 Y137.250 E1194.52733
G1 X179.199 Y137.000 E1194.56528
G0 F12000 X179.692 Y136.500
G1 F2700 X178.333 Y136.500 E1194.62178
G0 F12000 X177.467 Y136.000
G1 F2700 X179.268 Y136.000 E1194.69666
G0 F12000 X178.402 Y135.500
G1 F2700 X176.601 Y135.500 E1194.77154
G0 F12000 X175.735 Y135.000
G1 F2700 X177.536 Y135.000 E1194.84641
G0 F12000 X176.670 Y134.500
G1 F2700 X174.869 Y134.500 E1194.92129
G0 F12000 X174.003 Y134.000
G1 F2700 X175.804 Y134.000 E1194.99617
G0 F12000 X174.938 Y133.500
G1 F2700 X173.137 Y133.500 E1195.07105
G0 F12000 X172.271 Y133.000
G1 F2700 X174.072 Y133.000 E1195.14592
G0 F12000 X173.206 Y132.500
G1 F2700 X171.405 Y132.500 E1195.22080
G0 F12000 X170.539 Y132.000
G1 F2700 X172.340 Y132.000 E1195.29568
G0 F12000 X171.474 Y131.500
G1 F2700 X169.673 Y131.500 E1195.37055
G0 F12000 X168.807 Y131.000
G1 F2700 X170.608 Y131.000 E1195.44543
G0 F12000 X169.742 Y130.500
G1 F2700 X167.941 Y130.500 E1195.52031
G0 F12000 X167.075 Y130.000
G1 F2700 X168.876 Y130.000 E1195.59518
G0 F12000 X168.010 Y129.500
G1 F2700 X166.209 Y129.500 E1195.67006
G0 F12000 X165.343 Y129.000
G1 F2700 X167.144 Y129.000 E1195.74494
G0 F12000 X166.278 Y128.500
G1 F2700 X164.477 Y128.500 E1195.81981
G0 F12000 X163.611 Y128.000
G1 F2700 X165.412 Y128.000 E1195.89469
G0 F12000 X164.546 Y127.500
G1 F2700 X162.745 Y127.500 E1195.96957
G0 F12000 X161.879 Y127.000
G1 F2700 X163.680 Y127.000 E1196.04444
G0 F12000 X162.814 Y126.500
G1 F2700 X161.013 Y126.500 E1196.11932
G0 F12000 X160.147 Y126.000
G1 F2700 X161.948 Y126.000 E1196.19420
G0 F12000 X161.082 Y125.500
G1 F2700 X159.281 Y125.500 E1196.26908
G0 F12000 X158.415 Y125.000
G1 F2700 X160.216 Y125.000 E1196.34395
G0 F12000 X159.350 Y124.500
G1 F2700 X157.549 Y124.500 E1196.41883
G0 F12000 X156.683 Y124.000
G1 F2700 X158.484 Y124.000 E1196.49371
G0 F12000 X157.618 Y123.500
G1 F2700 X155.817 Y123.500 E1196.56858
G0 F12000 X154.951 Y123.000
G1 F2700 X156.752 Y123.000 E1196.64346
G0 F12000 X155.886 Y122.500
G1 F2700 X154.085 Y122.500 E1196.71834
G0 F12000 X153.219 Y122.000
G1 F2700 X155.020 Y122.000 E1196.79321
G0 F12000 X154.154 Y121.500
G1 F2700 X150.843 Y121.500 E1196.93087
G0 F12000 X149.977 Y122.000
G1 F2700 X151.778 Y122.000 E1197.00575
G0 F12000 X150.912 Y122.500
G1 F2700 X149.111 Y122.500 E1197.08062
G0 F12000 X148.245 Y123.000
G1 F2700 X150.046 Y123.000 E1197.15550
G0 F12000 X149.180 Y123.500
G1 F2700 X147.379 Y123.500 E1197.23038
G0 F12000 X146.513 Y124.000
G1 F2700 X148.314 Y124.000 E1197.30525
G0 F12000 X147.448 Y124.500
G1 F2700 X145.647 Y124.500 E1197.38013
G0 F12000 X144.781 Y125.000
G1 F2700 X146.582 Y125.000 E1197.45501
G0 F12000 X145.716 Y125.500
G1 F2700 X143.915 Y125.500 E1197.52988
G0 F12000 X143.049 Y126.000
G1 F2700 X144.850 Y126.000 E1197.60476
G0 F12000 X143.984 Y126.500
G1 F2700 X142.183 Y126.500 E1197.67964
G0 F12000 X141.317 Y127.000
G1 F2700 X143.118 Y127.000 E1197.75451
G0 F12000 X142.252 Y127.500
G1 F2700 X140.451 Y127.500 E1197.82939
G0 F12000 X139.585 Y128.000
G1 F2700 X141.386 Y128.000 E1197.90427
G0 F12000 X140.520 Y128.500
G1 F2700 X138.719 Y128.500 E1197.97915
G0 F12000 X137.853 Y129.000
G1 F2700 X139.654 Y129.000 E1198.05402
G0 F12000 X138.788 Y129.500
G1 F2700 X136.987 Y129.500 E1198.12890
G0 F12000 X136.121 Y130.000
G1 F2700 X137.922 Y130.000 E1198.20378
G0 F12000 X137.056 Y130.500
G1 F2700 X135.255 Y130.500 E1198.27865
G0 F12000 X134.389 Y131.000
G1 F2700 X136.190 Y131.000 E1198.35353
G0 F12000 X135.324 Y131.500
G1 F2700 X133.523 Y131.500 E1198.42841
G0 F12000 X132.657 Y132.000
G1 F2700 X134.458 Y132.000 E1198.50328
G0 F12000 X133.592 Y132.500
G1 F2700 X131.791 Y132.500 E1198.57816
G0 F12000 X130.925 Y133.000
G1 F2700 X132.726 Y133.000 E1198.65304
G0 F12000 X131.860 Y133.500
G1 F2700 X130.059 Y133.500 E1198.72791
G0 F12000 X129.193 Y134.000
G1 F2700 X130.994 Y134.000 E1198.80279
G0 F12000 X130.128 Y134.500
G1 F2700 X128.327 Y134.500 E1198.87767
G0 F12000 X127.461 Y135.000
G1 F2700 X129.262 Y135.000 E1198.95254
G0 F12000 X128.396 Y135.500
G1 F2700 X126.595 Y135.500 E1199.02742
G0 F12000 X125.729 Y136.000
G1 F2700 X127.530 Y136.000 E1199.10230
G0 F12000 X126.664 Y136.500
G1 F2700 X125.307 Y136.500 E1199.15872
G0 F12000 X125.018 Y137.000
G1 F2700 X125.761 Y137.250 E1199.19118
G1 X124.824 Y137.750 E1199.22853
G1 X125.724 Y138.250 E1199.26594
G1 X124.824 Y138.750 E1199.30335
G1 X125.724 Y139.250 E1199.34077
G1 X124.824 Y139.750 E1199.37818
G1 X125.724 Y140.250 E1199.41559
G1 X124.824 Y140.750 E1199.45300
G1 X125.724 Y141.250 E1199.49041
G1 X124.824 Y141.750 E1199.52782
G1 X125.724 Y142.250 E1199.56523
G1 X124.824 Y142.750 E1199.60264
G1 X125.724 Y143.250 E1199.64005
G1 X124.824 Y143.750 E1199.67746
G1 X125.724 Y144.250 E1199.71488
G1 X124.824 Y144.750 E1199.75229
G1 X125.724 Y145.250 E1199.78970
G1 X124.824 Y145.750 E1199.82711
G1 X125.724 Y146.250 E1199.86452
G1 X124.824 Y146.750 E1199.90193
G1 X125.724 Y147.250 E1199.93934
G1 X124.824 Y147.750 E1199.97675
G1 X125.724 Y148.250 E1200.01416
G1 X124.824 Y148.750 E1200.05157
G1 X125.724 Y149.250 E1200.08898
G1 X124.824 Y149.750 E1200.12640
G1 X125.724 Y150.250 E1200.16381
G1 X124.824 Y150.750 E1200.20122
G1 X125.724 Y151.250 E1200.23863
G1 X124.824 Y151.750 E1200.27604
G1 X125.724 Y152.250 E1200.31345
G1 X124.824 Y152.750 E1200.35086
G1 X125.724 Y153.250 E1200.38827
G1 X124.824 Y153.750 E1200.42568
G1 X125.724 Y154.250 E1200.46309
G1 X124.824 Y154.750 E1200.50050
G1 X125.724 Y155.250 E1200.53792
G1 X124.824 Y155.750 E1200.57533
G1 X125.724 Y156.250 E1200.61274
G1 X124.824 Y156.750 E1200.65015
G1 X125.724 Y157.250 E1200.68756
G1 X124.824 Y157.750 E1200.72497
G1 X125.724 Y158.250 E1200.76238
G1 X124.824 Y158.750 E1200.79979
G1 X125.724 Y159.250 E1200.83720
G1 X124.824 Y159.750 E1200.87461
G1 X125.724 Y160.250 E1200.91202
G1 X124.824 Y160.750 E1200.94944
G1 X125.724 Y161.250 E1200.98685
G1 X124.824 Y161.750 E1201.02426
G1 X125.724 Y162.250 E1201.06167
G1 X124.824 Y162.750 E1201.09908
G1 X125.724 Y163.250 E1201.13649
G1 X124.824 Y163.750 E1201.17390
G1 X125.724 Y164.250 E1201.21131
G1 X124.824 Y164.750 E1201.24872
G1 X125.724 Y165.250 E1201.28613
G1 X124.824 Y165.750 E1201.32354
G1 X125.724 Y166.250 E1201.36096
G1 X124.824 Y166.750 E1201.39837
G1 X125.724 Y167.250 E1201.43578
G1 X124.921 Y167.750 E1201.47322
G1 X125.802 Y168.000 E1201.51129
G0 F12000 X125.307 Y168.500
G1 F2700 X126.668 Y168.500 E1201.56788
G0 F12000 X127.534 Y169.000
G1 F2700 X125.734 Y169.000 E1201.64271
G0 F12000 X126.600 Y169.500
G1 F2700 X128.400 Y169.500 E1201.71755
G0 F12000 X129.266 Y170.000
G1 F2700 X127.466 Y170.000 E1201.79238
G0 F12000 X128.332 Y170.500
G1 F2700 X130.132 Y170.500 E1201.86722
G0 F12000 X130.998 Y171.000
G1 F2700 X129.198 Y171.000 E1201.94205
G0 F12000 X130.064 Y171.500
G1 F2700 X131.864 Y171.500 E1202.01689
G0 F12000 X132.730 Y172.000
G1 F2700 X130.930 Y172.000 E1202.09172
G0 F12000 X131.796 Y172.500
G1 F2700 X133.596 Y172.500 E1202.16656
G0 F12000 X134.462 Y173.000
G1 F2700 X132.662 Y173.000 E1202.24139
G0 F12000 X133.528 Y173.500
G1 F2700 X135.328 Y173.500 E1202.31623
G0 F12000 X136.194 Y174.000
G1 F2700 X134.394 Y174.000 E1202.39106
G0 F12000 X135.260 Y174.500
G1 F2700 X137.060 Y174.500 E1202.46590
G0 F12000 X137.926 Y175.000
G1 F2700 X136.126 Y175.000 E1202.54073
G0 F12000 X136.992 Y175.500
G1 F2700 X138.792 Y175.500 E1202.61557
G0 F12000 X139.658 Y176.000
G1 F2700 X137.857 Y176.000 E1202.69045
G0 F12000 X138.723 Y176.500
G1 F2700 X140.524 Y176.500 E1202.76532
G0 F12000 X141.390 Y177.000
G1 F2700 X139.589 Y177.000 E1202.84020
G0 F12000 X140.455 Y177.500
G1 F2700 X142.256 Y177.500 E1202.91508
G0 F12000 X143.122 Y178.000
G1 F2700 X141.321 Y178.000 E1202.98995
G0 F12000 X142.187 Y178.500
G1 F2700 X143.988 Y178.500 E1203.06483
G0 F12000 X144.854 Y179.000
G1 F2700 X143.053 Y179.000 E1203.13971
G0 F12000 X143.919 Y179.500
G1 F2700 X145.720 Y179.500 E1203.21458
G0 F12000 X146.586 Y180.000
G1 F2700 X144.785 Y180.000 E1203.28946
G0 F12000 X145.651 Y180.500
G1 F2700 X147.452 Y180.500 E1203.36434
G0 F12000 X148.318 Y181.000
G1 F2700 X146.517 Y181.000 E1203.43921
G0 F12000 X147.383 Y181.500
G1 F2700 X149.184 Y181.500 E1203.51409
G0 F12000 X150.050 Y182.000
G1 F2700 X148.249 Y182.000 E1203.58897
G0 F12000 X149.115 Y182.500
G1 F2700 X150.916 Y182.500 E1203.66385
G0 F12000 X151.782 Y183.000
G1 F2700 X149.981 Y183.000 E1203.73872
G0 F12000 X150.847 Y183.500
G1 F2700 X154.152 Y183.500 E1203.87613
G0 F12000 X153.286 Y184.000
G1 F2700 X151.713 Y184.000 E1203.94153
G1 F2100 E1203.54153
G0 F12000 X153.217 Y183.000
G1 F2100 E1203.94153
G1 F2700 X155.018 Y183.000 E1204.01640
G0 F12000 X155.884 Y182.500
G1 F2700 X154.083 Y182.500 E1204.09128
G0 F12000 X154.949 Y182.000
G1 F2700 X156.750 Y182.000 E1204.16616
G0 F12000 X157.616 Y181.500
G1 F2700 X155.815 Y181.500 E1204.24103
G0 F12000 X156.681 Y181.000
G1 F2700 X158.482 Y181.000 E1204.31591
G0 F12000 X159.348 Y180.500
G1 F2700 X157.547 Y180.500 E1204.39079
G0 F12000 X158.413 Y180.000
G1 F2700 X160.214 Y180.000 E1204.46566
G1 F2100 E1204.06566
G0 F12000 X153.288 Y121.000
G1 F2100 E1204.46566
G1 F2700 X151.709 Y121.000 E1204.53131
;LAYER:6
M106 S63
G0 F12000 X151.577 Y120.645 Z1.400
;TYPE:WALL-INNER
G1 F2700 X153.423 Y120.645 E1204.60806
G1 X179.625 Y135.773 E1205.86594
G1 X180.550 Y137.372 E1205.94274
G1 X180.550 Y167.628 E1207.20064
G1 X179.625 Y169.227 E1207.27744
G1 X153.423 Y184.355 E1208.53532
G1 X151.577 Y184.355 E1208.61207
G1 X125.375 Y169.227 E1209.86995
G1 X124.450 Y167.628 E1209.94675
G1 X124.450 Y137.372 E1211.20465
G1 X125.375 Y135.773 E1211.28145
G1 X151.577 Y120.645 E1212.53933
G0 F12000 X151.443 Y120.145
;TYPE:WALL-OUTER
G1 F2700 X153.557 Y120.145 E1212.62722
G1 X179.991 Y135.407 E1213.89624
G1 X181.050 Y137.238 E1213.98418
G1 X181.050 Y167.762 E1215.25322
G1 X179.991 Y169.593 E1215.34116
G1 X153.557 Y184.855 E1216.61018
G1 X151.443 Y184.855 E1216.69807
G1 X125.009 Y169.593 E1217.96709
G1 X123.950 Y167.762 E1218.05503
G1 X123.950 Y137.238 E1219.32407
G1 X125.009 Y135.407 E1219.41201
G1 X151.443 Y120.145 E1220.68103
G1 F2100 E1220.28103
G0 F12000 X153.289 Y121.059
;TYPE:FILL
G1 F2100 E1220.68103
G1 F2700 X153.289 Y183.942 E1223.29540
G1 F2100 E1222.89540
G0 F12000 X159.729 Y180.222
G1 F2100 E1223.29540
G1 F2700 X124.873 Y160.098 E1224.96873
G1 F2100 E1224.56873
G0 F12000 X124.874 Y167.536
G1 F2100 E1224.96873
G1 F2700 X179.333 Y136.094 E1227.58314
G1 F2100 E1227.18314
G0 F12000 X172.893 Y132.377
G1 F2100 E1227.58314
G1 F2700 X172.893 Y172.624 E1229.25641
G1 F2100 E1228.85641
G0 F12000 X169.531 Y174.562
G1 F2100 E1229.25641
G1 F2700 X124.874 Y148.779 E1231.40026
G1 F2100 E1231.00026
G0 F12000 X124.874 Y144.899
G1 F2100 E1231.40026
G1 F2700 X159.728 Y124.776 E1233.07349
G1 F2100 E1232.67349
G0 F12000 X143.691 Y125.688
G1 F2100 E1233.07349
G1 F2700 X180.125 Y146.723 E1234.82257
G0 F12000 X180.123 Y146.956
G1 F2700 X133.886 Y173.651 E1237.04227
G0 F12000 X133.685 Y173.534
G1 F2700 X133.685 Y131.465 E1238.79129
G0 F12000 X133.889 Y131.348
G1 F2700 X180.125 Y158.042 E1241.01093
G0 F12000 X180.123 Y158.275
G1 F2700 X143.688 Y179.310 E1242.76005
G0 F12000 X143.487 Y179.193
G1 F2700 X143.487 Y125.806 E1244.97962
G1 F2100 E1244.57962
G0 F12000 X163.091 Y126.718
G1 F2100 E1244.97962
G1 F2700 X163.091 Y178.283 E1247.12344
G1 F2100 E1246.72344
G0 F12000 X179.334 Y168.903
G1 F2100 E1247.12344
G1 F2700 X124.874 Y137.461 E1249.73789
G1 F2100 E1249.33789
G0 F12000 X124.874 Y156.218
G1 F2100 E1249.73789
G1 F2700 X169.531 Y130.435 E1251.88173
G0 F12000 X169.500 Y130.130
;TYPE:SKIN
G1 F2700 X169.500 Y131.167 E1251.92485
G0 F12000 X169.000 Y130.879
G1 F2700 X169.000 Y129.842 E1251.96796
G0 F12000 X168.500 Y129.553
G1 F2700 X168.500 Y130.590 E1252.01107
G0 F12000 X168.000 Y130.301
G1 F2700 X168.000 Y129.264 E1252.05419
G0 F12000 X167.500 Y128.976
G1 F2700 X167.500 Y130.013 E1252.09730
G0 F12000 X167.000 Y129.724
G1 F2700 X167.000 Y128.687 E1252.14042
G0 F12000 X166.500 Y128.398
G1 F2700 X166.500 Y129.435 E1252.18353
G0 F12000 X166.000 Y129.147
G1 F2700 X166.000 Y128.109 E1252.22668
G0 F12000 X165.500 Y127.821
G1 F2700 X165.500 Y128.858 E1252.26980
G0 F12000 X165.000 Y128.569
G1 F2700 X165.000 Y127.532 E1252.31291
G0 F12000 X164.500 Y127.243
G1 F2700 X164.500 Y128.281 E1252.35607
G0 F12000 X164.000 Y127.992
G1 F2700 X164.000 Y126.955 E1252.39918
G0 F12000 X163.500 Y126.666
G1 F2700 X163.500 Y127.704 E1252.44233
G0 F12000 X163.000 Y127.415
G1 F2700 X163.000 Y126.377 E1252.48549
G0 F12000 X162.500 Y126.089
G1 F2700 X162.500 Y127.126 E1252.52860
G0 F12000 X162.000 Y126.838
G1 F2700 X162.000 Y125.800 E1252.57176
G0 F12000 X161.500 Y125.511
G1 F2700 X161.500 Y126.549 E1252.61491
G0 F12000 X161.000 Y126.260
G1 F2700 X161.000 Y125.223 E1252.65803
G0 F12000 X160.500 Y124.934
G1 F2700 X160.500 Y125.972 E1252.70118
G0 F12000 X160.000 Y125.683
G1 F2700 X160.000 Y124.645 E1252.74434
G1 F2100 E1252.34434
G0 F12000 X170.000 Y130.419
G1 F2100 E1252.74434
G1 F2700 X170.000 Y131.456 E1252.78745
G0 F12000 X170.500 Y131.745
G1 F2700 X170.500 Y130.708 E1252.83056
G0 F12000 X171.000 Y130.996
G1 F2700 X171.000 Y132.033 E1252.87368
G0 F12000 X171.500 Y132.322
G1 F2700 X171.500 Y131.285 E1252.91679
G0 F12000 X172.000 Y131.574
G1 F2700 X172.000 Y132.611 E1252.95990
G0 F12000 X172.500 Y132.899
G1 F2700 X172.500 Y131.862 E1253.00302
G0 F12000 X173.000 Y132.151
G1 F2700 X173.000 Y133.188 E1253.04613
G0 F12000 X173.500 Y133.477
G1 F2700 X173.500 Y132.440 E1253.08924
G0 F12000 X174.000 Y132.728
G1 F2700 X174.000 Y133.765 E1253.13236
G0 F12000 X174.500 Y134.054
G1 F2700 X174.500 Y133.017 E1253.17547
G0 F12000 X175.000 Y133.306
G1 F2700 X175.000 Y134.343 E1253.21858
G0 F12000 X175.500 Y134.631
G1 F2700 X175.500 Y133.594 E1253.26170
G0 F12000 X176.000 Y133.883
G1 F2700 X176.000 Y134.920 E1253.30481
G0 F12000 X176.500 Y135.209
G1 F2700 X176.500 Y134.172 E1253.34792
G0 F12000 X177.000 Y134.460
G1 F2700 X177.000 Y135.497 E1253.39104
G0 F12000 X177.500 Y135.786
G1 F2700 X177.500 Y134.749 E1253.43415
G0 F12000 X178.000 Y135.038
G1 F2700 X178.000 Y136.074 E1253.47722
G0 F12000 X178.500 Y136.363
G1 F2700 X178.500 Y135.326 E1253.52034
G0 F12000 X179.000 Y135.615
G1 F2700 X179.000 Y136.652 E1253.56345
G0 F12000 X179.500 Y135.906
G1 F2700 X179.500 Y169.095 E1254.94329
G0 F12000 X179.000 Y169.386
G1 F2700 X179.000 Y168.347 E1254.98649
G0 F12000 X178.500 Y168.635
G1 F2700 X178.500 Y169.675 E1255.02972
G0 F12000 X178.000 Y169.963
G1 F2700 X178.000 Y168.924 E1255.07292
G0 F12000 X177.500 Y169.213
G1 F2700 X177.500 Y170.252 E1255.11612
G0 F12000 X177.000 Y170.541
G1 F2700 X177.000 Y169.501 E1255.15935
G0 F12000 X176.500 Y169.790
G1 F2700 X176.500 Y170.829 E1255.20255
G0 F12000 X176.000 Y171.118
G1 F2700 X176.000 Y170.079 E1255.24575
G0 F12000 X175.500 Y170.367
G1 F2700 X175.500 Y171.407 E1255.28899
G0 F12000 X175.000 Y171.695
G1 F2700 X175.000 Y170.656 E1255.33218
G0 F12000 X174.500 Y170.945
G1 F2700 X174.500 Y171.984 E1255.37538
G0 F12000 X174.000 Y172.273
G1 F2700 X174.000 Y171.233 E1255.41862
G0 F12000 X173.500 Y171.522
G1 F2700 X173.500 Y172.561 E1255.46181
G0 F12000 X173.000 Y172.850
G1 F2700 X173.000 Y171.811 E1255.50501
G0 F12000 X172.500 Y172.099
G1 F2700 X172.500 Y173.139 E1255.54825
G0 F12000 X172.000 Y173.427
G1 F2700 X172.000 Y172.388 E1255.59145
G0 F12000 X171.500 Y172.677
G1 F2700 X171.500 Y173.716 E1255.63464
G0 F12000 X171.000 Y174.005
G1 F2700 X171.000 Y172.965 E1255.67788
G0 F12000 X170.500 Y173.254
G1 F2700 X170.500 Y174.293 E1255.72108
G0 F12000 X170.000 Y174.582
G1 F2700 X170.000 Y173.543 E1255.76427
G0 F12000 X169.500 Y173.831
G1 F2700 X169.500 Y174.871 E1255.80751
G0 F12000 X169.000 Y175.159
G1 F2700 X169.000 Y174.120 E1255.85071
G0 F12000 X168.500 Y174.409
G1 F2700 X168.500 Y175.448 E1255.89390
G0 F12000 X168.000 Y175.737
G1 F2700 X168.000 Y174.697 E1255.93714
G0 F12000 X167.500 Y174.986
G1 F2700 X167.500 Y176.025 E1255.98034
G0 F12000 X167.000 Y176.314
G1 F2700 X167.000 Y175.275 E1256.02354
G0 F12000 X166.500 Y175.563
G1 F2700 X166.500 Y176.603 E1256.06677
G0 F12000 X166.000 Y176.892
G1 F2700 X166.000 Y175.852 E1256.11001
G0 F12000 X165.500 Y176.141
G1 F2700 X165.500 Y177.180 E1256.15321
G0 F12000 X165.000 Y177.469
G1 F2700 X165.000 Y176.429 E1256.19645
G0 F12000 X164.500 Y176.718
G1 F2700 X164.500 Y177.758 E1256.23969
G0 F12000 X164.000 Y178.046
G1 F2700 X164.000 Y177.007 E1256.28288
G0 F12000 X163.500 Y177.295
G1 F2700 X163.500 Y178.335 E1256.32612
G0 F12000 X163.000 Y178.624
G1 F2700 X163.000 Y177.584 E1256.36936
G0 F12000 X162.500 Y177.873
G1 F2700 X162.500 Y178.912 E1256.41255
G0 F12000 X162.000 Y179.201
G1 F2700 X162.000 Y178.161 E1256.45579
G0 F12000 X161.500 Y178.450
G1 F2700 X161.500 Y179.490 E1256.49903
G0 F12000 X161.000 Y179.778
G1 F2700 X161.000 Y178.739 E1256.54223
G0 F12000 X160.500 Y179.027
G1 F2700 X160.500 Y180.067 E1256.58547
G0 F12000 X160.000 Y180.356
G1 F2700 X160.000 Y179.316 E1256.62870
G0 F12000 X159.500 Y179.605
G1 F2700 X159.500 Y180.644 E1256.67190
G0 F12000 X159.000 Y180.933
G1 F2700 X159.000 Y179.893 E1256.71514
G1 F2100 E1256.31514
G0 F12000 X146.000 Y179.894
G1 F2100 E1256.71514
G1 F2700 X146.000 Y180.932 E1256.75829
G0 F12000 X145.500 Y180.643
G1 F2700 X145.500 Y179.606 E1256.80141
G0 F12000 X145.000 Y179.317
G1 F2700 X145.000 Y180.355 E1256.84456
G0 F12000 X144.500 Y180.066
G1 F2700 X144.500 Y179.028 E1256.88772
G0 F12000 X144.000 Y178.740
G1 F2700 X144.000 Y179.777 E1256.93083
G0 F12000 X143.500 Y179.489
G1 F2700 X143.500 Y178.451 E1256.97399
G0 F12000 X143.000 Y178.162
G1 F2700 X143.000 Y179.200 E1257.01714
G0 F12000 X142.500 Y178.911
G1 F2700 X142.500 Y177.874 E1257.06025
G0 F12000 X142.000 Y177.585
G1 F2700 X142.000 Y178.623 E1257.10341
G0 F12000 X141.500 Y178.334
G1 F2700 X141.500 Y177.296 E1257.14656
G0 F12000 X141.000 Y177.008
G1 F2700 X141.000 Y178.045 E1257.18968
G0 F12000 X140.500 Y177.757
G1 F2700 X140.500 Y176.719 E1257.23283
G0 F12000 X140.000 Y176.430
G1 F2700 X140.000 Y177.468 E1257.27599
G0 F12000 X139.500 Y177.179
G1 F2700 X139.500 Y176.142 E1257.31910
G0 F12000 X139.000 Y175.853
G1 F2700 X139.000 Y176.891 E1257.36226
G0 F12000 X138.500 Y176.602
G1 F2700 X138.500 Y175.564 E1257.40541
G0 F12000 X138.000 Y175.276
G1 F2700 X138.000 Y176.313 E1257.44852
G0 F12000 X137.500 Y176.024
G1 F2700 X137.500 Y174.987 E1257.49164
G0 F12000 X137.000 Y174.698
G1 F2700 X137.000 Y175.736 E1257.53479
G0 F12000 X136.500 Y175.447
G1 F2700 X136.500 Y174.410 E1257.57791
G0 F12000 X136.000 Y174.121
G1 F2700 X136.000 Y175.158 E1257.62102
G0 F12000 X135.500 Y174.870
G1 F2700 X135.500 Y173.832 E1257.66418
G0 F12000 X135.000 Y173.544
G1 F2700 X135.000 Y174.581 E1257.70729
G0 F12000 X134.500 Y174.292
G1 F2700 X134.500 Y173.255 E1257.75040
G0 F12000 X134.000 Y172.966
G1 F2700 X134.000 Y174.004 E1257.79356
G0 F12000 X133.500 Y173.715
G1 F2700 X133.500 Y172.678 E1257.83667
G0 F12000 X133.000 Y172.389
G1 F2700 X133.000 Y173.426 E1257.87978
G0 F12000 X132.500 Y173.138
G1 F2700 X132.500 Y172.100 E1257.92294
G0 F12000 X132.000 Y171.812
G1 F2700 X132.000 Y172.849 E1257.96605
G0 F12000 X131.500 Y172.560
G1 F2700 X131.500 Y171.523 E1258.00917
G0 F12000 X131.000 Y171.234
G1 F2700 X131.000 Y172.272 E1258.05232
G0 F12000 X130.500 Y171.983
G1 F2700 X130.500 Y170.946 E1258.09543
G0 F12000 X130.000 Y170.657
G1 F2700 X130.000 Y171.694 E1258.13855
G0 F12000 X129.500 Y171.406
G1 F2700 X129.500 Y170.368 E1258.18170
G0 F12000 X129.000 Y170.080
G1 F2700 X129.000 Y171.117 E1258.22482
G0 F12000 X128.500 Y170.828
G1 F2700 X128.500 Y169.791 E1258.26793
G0 F12000 X128.000 Y169.502
G1 F2700 X128.000 Y170.540 E1258.31108
G0 F12000 X127.500 Y170.251
G1 F2700 X127.500 Y169.214 E1258.35420
G0 F12000 X127.000 Y168.925
G1 F2700 X127.000 Y169.962 E1258.39731
G0 F12000 X126.500 Y169.674
G1 F2700 X126.500 Y168.636 E1258.44047
G0 F12000 X126.000 Y168.348
G1 F2700 X126.000 Y169.385 E1258.48358
G0 F12000 X125.500 Y169.094
G1 F2700 X125.500 Y135.905 E1259.86342
G0 F12000 X126.000 Y135.614
G1 F2700 X126.000 Y136.653 E1259.90662
G0 F12000 X126.500 Y136.364
G1 F2700 X126.500 Y135.325 E1259.94981
G0 F12000 X127.000 Y135.037
G1 F2700 X127.000 Y136.075 E1259.99297
G0 F12000 X127.500 Y135.787
G1 F2700 X127.500 Y134.748 E1260.03616
G0 F12000 X128.000 Y134.459
G1 F2700 X128.000 Y135.498 E1260.07936
G0 F12000 X128.500 Y135.210
G1 F2700 X128.500 Y134.171 E1260.12256
G0 F12000 X129.000 Y133.882
G1 F2700 X129.000 Y134.921 E1260.16575
G0 F12000 X129.500 Y134.632
G1 F2700 X129.500 Y133.593 E1260.20895
G0 F12000 X130.000 Y133.305
G1 F2700 X130.000 Y134.344 E1260.25215
G0 F12000 X130.500 Y134.055
G1 F2700 X130.500 Y133.016 E1260.29534
G0 F12000 X131.000 Y132.727
G1 F2700 X131.000 Y133.766 E1260.33854
G0 F12000 X131.500 Y133.478
G1 F2700 X131.500 Y132.439 E1260.38174
G0 F12000 X132.000 Y132.150
G1 F2700 X132.000 Y133.189 E1260.42493
G0 F12000 X132.500 Y132.900
G1 F2700 X132.500 Y131.861 E1260.46813
G0 F12000 X133.000 Y131.573
G1 F2700 X133.000 Y132.612 E1260.51133
G0 F12000 X133.500 Y132.323
G1 F2700 X133.500 Y131.284 E1260.55452
G0 F12000 X134.000 Y130.995
G1 F2700 X134.000 Y132.034 E1260.59772
G0 F12000 X134.500 Y131.746
G1 F2700 X134.500 Y130.707 E1260.64092
G0 F12000 X135.000 Y130.418
G1 F2700 X135.000 Y131.457 E1260.68411
G0 F12000 X135.500 Y131.168
G1 F2700 X135.500 Y130.129 E1260.72731
G0 F12000 X136.000 Y129.841
G1 F2700 X136.000 Y130.880 E1260.77051
G0 F12000 X136.500 Y130.591
G1 F2700 X136.500 Y129.552 E1260.81370
G0 F12000 X137.000 Y129.263
G1 F2700 X137.000 Y130.302 E1260.85690
G0 F12000 X137.500 Y130.014
G1 F2700 X137.500 Y128.975 E1260.90010
G0 F12000 X138.000 Y128.686
G1 F2700 X138.000 Y129.725 E1260.94329
G0 F12000 X138.500 Y129.436
G1 F2700 X138.500 Y128.397 E1260.98649
G0 F12000 X139.000 Y128.108
G1 F2700 X139.000 Y129.148 E1261.02973
G0 F12000 X139.500 Y128.859
G1 F2700 X139.500 Y127.820 E1261.07292
G1 F2100 E1260.67292
G0 F12000 X125.000 Y136.769
G1 F2100 E1261.07292
G1 F2700 X125.000 Y168.230 E1262.38092
G1 F2100 E1261.98092
G0 F12000 X146.500 Y180.183
G1 F2100 E1262.38092
G1 F2700 X146.500 Y181.221 E1262.42407
G0 F12000 X147.000 Y181.509
G1 F2700 X147.000 Y180.472 E1262.46719
G0 F12000 X147.500 Y180.760
G1 F2700 X147.500 Y181.798 E1262.51034
G0 F12000 X148.000 Y182.087
G1 F2700 X148.000 Y181.049 E1262.55350
G0 F12000 X148.500 Y181.338
G1 F2700 X148.500 Y182.375 E1262.59661
G0 F12000 X149.000 Y182.664
G1 F2700 X149.000 Y181.626 E1262.63977
G0 F12000 X149.500 Y181.915
G1 F2700 X149.500 Y182.953 E1262.68292
G0 F12000 X150.000 Y183.241
G1 F2700 X150.000 Y182.204 E1262.72604
G0 F12000 X150.500 Y182.492
G1 F2700 X150.500 Y183.530 E1262.76919
G0 F12000 X151.000 Y183.819
G1 F2700 X151.000 Y182.781 E1262.81235
G0 F12000 X151.500 Y183.070
G1 F2700 X151.500 Y184.107 E1262.85546
G0 F12000 X152.000 Y184.180
G1 F2700 X152.250 Y183.491 E1262.88965
G1 X152.750 Y184.180 E1262.91273
G1 X153.000 Y183.357 E1262.94849
G0 F12000 X153.500 Y183.069
G1 F2700 X153.500 Y184.108 E1262.99168
G0 F12000 X154.000 Y183.820
G1 F2700 X154.000 Y182.780 E1263.03492
G0 F12000 X154.500 Y182.491
G1 F2700 X154.500 Y183.531 E1263.07816
G0 F12000 X155.000 Y183.242
G1 F2700 X155.000 Y182.203 E1263.12136
G0 F12000 X155.500 Y181.914
G1 F2700 X155.500 Y182.954 E1263.16459
G0 F12000 X156.000 Y182.665
G1 F2700 X156.000 Y181.625 E1263.20783
G0 F12000 X156.500 Y181.337
G1 F2700 X156.500 Y182.376 E1263.25103
G0 F12000 X157.000 Y182.088
G1 F2700 X157.000 Y181.048 E1263.29427
G0 F12000 X157.500 Y180.759
G1 F2700 X157.500 Y181.799 E1263.33750
G0 F12000 X158.000 Y181.510
G1 F2700 X158.000 Y180.471 E1263.38070
G0 F12000 X158.500 Y180.182
G1 F2700 X158.500 Y181.222 E1263.42394
G1 F2100 E1263.02394
G0 F12000 X180.000 Y168.231
G1 F2100 E1263.42394
G1 F2700 X180.000 Y136.770 E1264.73194
G1 F2100 E1264.33194
G0 F12000 X159.500 Y125.394
G1 F2100 E1264.73194
G1 F2700 X159.500 Y124.357 E1264.77505
G0 F12000 X159.000 Y124.068
G1 F2700 X159.000 Y125.106 E1264.81820
G0 F12000 X158.500 Y124.817
G1 F2700 X158.500 Y123.779 E1264.86136
G0 F12000 X158.000 Y123.491
G1 F2700 X158.000 Y124.528 E1264.90447
G0 F12000 X157.500 Y124.240
G1 F2700 X157.500 Y123.202 E1264.94763
G0 F12000 X157.000 Y122.913
G1 F2700 X157.000 Y123.951 E1264.99078
G0 F12000 X156.500 Y123.662
G1 F2700 X156.500 Y122.625 E1265.03390
G0 F12000 X156.000 Y122.336
G1 F2700 X156.000 Y123.374 E1265.07705
G0 F12000 X155.500 Y123.085
G1 F2700 X155.500 Y122.047 E1265.12021
G0 F12000 X155.000 Y121.759
G1 F2700 X155.000 Y122.796 E1265.16332
G0 F12000 X154.500 Y122.508
G1 F2700 X154.500 Y121.470 E1265.20647
G0 F12000 X154.000 Y121.181
G1 F2700 X154.000 Y122.219 E1265.24963
G0 F12000 X153.500 Y121.930
G1 F2700 X153.500 Y120.893 E1265.29274
G0 F12000 X153.000 Y120.820
G1 F2700 X152.750 Y121.508 E1265.32689
G1 X152.250 Y120.820 E1265.34994
G1 X152.000 Y121.643 E1265.38570
G0 F12000 X151.500 Y121.931
G1 F2700 X151.500 Y120.892 E1265.42890
G0 F12000 X151.000 Y121.180
G1 F2700 X151.000 Y122.220 E1265.47214
G0 F12000 X150.500 Y122.509
G1 F2700 X150.500 Y121.469 E1265.51538
G0 F12000 X150.000 Y121.758
G1 F2700 X150.000 Y122.797 E1265.55857
G0 F12000 X149.500 Y123.086
G1 F2700 X149.500 Y122.046 E1265.60181
G0 F12000 X149.000 Y122.335
G1 F2700 X149.000 Y123.375 E1265.64505
G0 F12000 X148.500 Y123.663
G1 F2700 X148.500 Y122.624 E1265.68825
G0 F12000 X148.000 Y122.912
G1 F2700 X148.000 Y123.952 E1265.73148
G0 F12000 X147.500 Y124.241
G1 F2700 X147.500 Y123.201 E1265.77472
G0 F12000 X147.000 Y123.490
G1 F2700 X147.000 Y124.529 E1265.81792
G0 F12000 X146.500 Y124.818
G1 F2700 X146.500 Y123.778 E1265.86116
G0 F12000 X146.000 Y124.067
G1 F2700 X146.000 Y125.107 E1265.90440
G0 F12000 X145.500 Y125.395
G1 F2700 X145.500 Y124.356 E1265.94759
G0 F12000 X145.000 Y124.644
G1 F2700 X145.000 Y125.684 E1265.99083
G0 F12000 X144.500 Y125.973
G1 F2700 X144.500 Y124.933 E1266.03407
G0 F12000 X144.000 Y125.222
G1 F2700 X144.000 Y126.261 E1266.07727
G0 F12000 X143.500 Y126.550
G1 F2700 X143.500 Y125.510 E1266.12050
G0 F12000 X143.000 Y125.799
G1 F2700 X143.000 Y126.839 E1266.16374
G0 F12000 X142.500 Y127.127
G1 F2700 X142.500 Y126.088 E1266.20694
G0 F12000 X142.000 Y126.376
G1 F2700 X142.000 Y127.416 E1266.25018
G0 F12000 X141.500 Y127.705
G1 F2700 X141.500 Y126.665 E1266.29341
G0 F12000 X141.000 Y126.954
G1 F2700 X141.000 Y127.993 E1266.33661
G0 F12000 X140.500 Y128.282
G1 F2700 X140.500 Y127.242 E1266.37985
G0 F12000 X140.000 Y127.531
G1 F2700 X140.000 Y128.570 E1266.42305
;LAYER:7
M106 S73
G1 F2100 E1266.02305
G0 F12000 X151.403 Y120.514 Z1.600
;TYPE:WALL-INNER
G1 F2100 E1266.42305
G1 F2700 X153.597 Y120.514 E1266.51426
G1 X179.652 Y135.558 E1267.76510
G1 X180.750 Y137.457 E1267.85630
G1 X180.750 Y167.543 E1269.10713
G1 X179.652 Y169.442 E1269.19833
G1 X153.597 Y184.486 E1270.44918
G1 X151.403 Y184.486 E1270.54039
G1 X125.348 Y169.442 E1271.79123
G1 X124.250 Y167.543 E1271.88243
G1 X124.250 Y137.457 E1273.13326
G1 X125.348 Y135.558 E1273.22446
G1 X151.403 Y120.514 E1274.47530
G0 F12000 X151.269 Y120.014
;TYPE:WALL-OUTER
G1 F2700 X153.731 Y120.014 E1274.57766
G1 X180.018 Y135.192 E1275.83964
G1 X181.250 Y137.323 E1275.94198
G1 X181.250 Y167.677 E1277.20395
G1 X180.018 Y169.808 E1277.30629
G1 X153.731 Y184.986 E1278.56827
G1 X151.269 Y184.986 E1278.67063
G1 X124.982 Y169.808 E1279.93261
G1 X123.750 Y167.677 E1280.03495
G1 X123.750 Y137.323 E1281.29692
G1 X124.982 Y135.192 E1281.39926
G1 X151.269 Y120.014 E1282.66124
G1 F2100 E1282.26124
G0 F12000 X152.947 Y120.689
;TYPE:FILL
G1 F2100 E1282.66124
G1 F2700 X152.947 Y184.311 E1285.30634
G1 F2100 E1284.90634
G0 F12000 X160.270 Y180.140
G1 F2100 E1285.30634
G1 F2700 X124.674 Y159.589 E1287.01518
G1 F2100 E1286.61518
G0 F12000 X124.674 Y156.727
G1 F2100 E1287.01518
G1 F2700 X170.072 Y130.516 E1289.19461
G1 F2100 E1288.79461
G0 F12000 X172.551 Y131.949
G1 F2100 E1289.19461
G1 F2700 X172.551 Y173.052 E1290.90347
G1 F2100 E1290.50347
G0 F12000 X170.072 Y174.481
G1 F2100 E1290.90347
G1 F2700 X124.674 Y148.270 E1293.08290
G1 F2100 E1292.68290
G0 F12000 X124.674 Y145.408
G1 F2100 E1293.08290
G1 F2700 X160.269 Y124.857 E1294.79170
G1 F2100 E1294.39170
G0 F12000 X162.749 Y126.289
G1 F2100 E1294.79170
G1 F2700 X162.749 Y178.712 E1296.97120
G1 F2100 E1296.57120
G0 F12000 X179.825 Y168.793
G1 F2100 E1296.97120
G1 F2700 X124.855 Y137.057 E1299.61012
G1 F2100 E1299.21012
G0 F12000 X133.343 Y131.431
G1 F2100 E1299.61012
G1 F2700 X133.343 Y173.568 E1301.36197
G0 F12000 X134.027 Y173.964
G1 F2700 X180.324 Y147.234 E1303.58455
G0 F12000 X180.325 Y146.445
G1 F2700 X143.831 Y125.376 E1305.33650
G0 F12000 X143.145 Y125.772
G1 F2700 X143.145 Y179.227 E1307.55890
G0 F12000 X143.829 Y179.623
G1 F2700 X180.324 Y158.552 E1309.31092
G0 F12000 X180.325 Y157.763
G1 F2700 X134.029 Y131.035 E1311.53343
G1 F2100 E1311.13343
G0 F12000 X124.725 Y168.016
G1 F2100 E1311.53343
G1 F2700 X179.824 Y136.204 E1314.17857
G0 F12000 X179.706 Y136.000
;TYPE:SKIN
G1 F2700 X178.268 Y136.000 E1314.23836
G0 F12000 X179.134 Y136.500
G1 F2700 X180.139 Y136.750 E1314.27409
G1 X179.657 Y137.250 E1314.30083
G1 X180.573 Y137.750 E1314.33814
G1 X179.674 Y138.250 E1314.37552
G1 X180.574 Y138.750 E1314.41293
G1 X179.674 Y139.250 E1314.45034
G1 X180.574 Y139.750 E1314.48775
G1 X179.674 Y140.250 E1314.52516
G1 X180.574 Y140.750 E1314.56258
G1 X179.674 Y141.250 E1314.59999
G1 X180.574 Y141.750 E1314.63740
G1 X179.674 Y142.250 E1314.67481
G1 X180.574 Y142.750 E1314.71222
G1 X179.674 Y143.250 E1314.74963
G1 X180.574 Y143.750 E1314.78704
G1 X179.674 Y144.250 E1314.82445
G1 X180.574 Y144.750 E1314.86186
G1 X179.674 Y145.250 E1314.89927
G1 X180.574 Y145.750 E1314.93669
G1 X179.674 Y146.250 E1314.97410
G1 X180.574 Y146.750 E1315.01151
G1 X179.674 Y147.250 E1315.04892
G1 X180.574 Y147.750 E1315.08633
G1 X179.674 Y148.250 E1315.12374
G1 X180.574 Y148.750 E1315.16115
G1 X179.674 Y149.250 E1315.19856
G1 X180.574 Y149.750 E1315.23597
G1 X179.674 Y150.250 E1315.27338
G1 X180.574 Y150.750 E1315.31079
G1 X179.674 Y151.250 E1315.34821
G1 X180.574 Y151.750 E1315.38562
G1 X179.674 Y152.250 E1315.42303
G1 X180.574 Y152.750 E1315.46044
G1 X179.674 Y153.250 E1315.49785
G1 X180.574 Y153.750 E1315.53526
G1 X179.674 Y154.250 E1315.57267
G1 X180.574 Y154.750 E1315.61008
G1 X179.674 Y155.250 E1315.64749
G1 X180.574 Y155.750 E1315.68490
G1 X179.674 Y156.250 E1315.72231
G1 X180.574 Y156.750 E1315.75973
G1 X179.674 Y157.250 E1315.79714
G1 X180.574 Y157.750 E1315.83455
G1 X179.674 Y158.250 E1315.87196
G1 X180.574 Y158.750 E1315.90937
G1 X179.674 Y159.250 E1315.94678
G1 X180.574 Y159.750 E1315.98419
G1 X179.674 Y160.250 E1316.02160
G1 X180.574 Y160.750 E1316.05901
G1 X179.674 Y161.250 E1316.09642
G1 X180.574 Y161.750 E1316.13383
G1 X179.674 Y162.250 E1316.17125
G1 X180.574 Y162.750 E1316.20866
G1 X179.674 Y163.250 E1316.24607
G1 X180.574 Y163.750 E1316.28348
G1 X179.674 Y164.250 E1316.32089
G1 X180.574 Y164.750 E1316.35830
G1 X179.674 Y165.250 E1316.39571
G1 X180.574 Y165.750 E1316.43312
G1 X179.674 Y166.250 E1316.47053
G1 X180.574 Y166.750 E1316.50794
G1 X179.674 Y167.250 E1316.54535
G1 X180.426 Y167.750 E1316.58260
G1 X179.817 Y168.250 E1316.60927
G1 X179.132 Y168.500 E1316.63958
G0 F12000 X179.704 Y169.000
G1 F2700 X178.266 Y169.000 E1316.69937
G0 F12000 X177.400 Y169.500
G1 F2700 X179.198 Y169.500 E1316.77412
G0 F12000 X178.332 Y170.000
G1 F2700 X176.534 Y170.000 E1316.84887
G0 F12000 X175.668 Y170.500
G1 F2700 X177.466 Y170.500 E1316.92362
G0 F12000 X176.600 Y171.000
G1 F2700 X174.802 Y171.000 E1316.99838
G0 F12000 X173.936 Y171.500
G1 F2700 X175.734 Y171.500 E1317.07313
G0 F12000 X174.868 Y172.000
G1 F2700 X173.070 Y172.000 E1317.14788
G0 F12000 X172.204 Y172.500
G1 F2700 X174.002 Y172.500 E1317.22263
G0 F12000 X173.136 Y173.000
G1 F2700 X171.338 Y173.000 E1317.29738
G0 F12000 X170.472 Y173.500
G1 F2700 X172.270 Y173.500 E1317.37214
G0 F12000 X171.404 Y174.000
G1 F2700 X169.605 Y174.000 E1317.44693
G0 F12000 X168.739 Y174.500
G1 F2700 X170.538 Y174.500 E1317.52172
G0 F12000 X169.672 Y175.000
G1 F2700 X167.873 Y175.000 E1317.59652
G0 F12000 X167.007 Y175.500
G1 F2700 X168.806 Y175.500 E1317.67131
G0 F12000 X167.940 Y176.000
G1 F2700 X166.141 Y176.000 E1317.74610
G0 F12000 X165.275 Y176.500
G1 F2700 X167.074 Y176.500 E1317.82090
G0 F12000 X166.208 Y177.000
G1 F2700 X164.409 Y177.000 E1317.89569
G0 F12000 X163.543 Y177.500
G1 F2700 X165.342 Y177.500 E1317.97049
G0 F12000 X164.476 Y178.000
G1 F2700 X162.677 Y178.000 E1318.04528
G0 F12000 X161.811 Y178.500
G1 F2700 X163.610 Y178.500 E1318.12007
G0 F12000 X162.744 Y179.000
G1 F2700 X160.945 Y179.000 E1318.19487
G0 F12000 X160.079 Y179.500
G1 F2700 X161.878 Y179.500 E1318.26966
G0 F12000 X161.012 Y180.000
G1 F2700 X159.213 Y180.000 E1318.34445
G0 F12000 X158.347 Y180.500
G1 F2700 X160.146 Y180.500 E1318.41925
G0 F12000 X159.280 Y181.000
G1 F2700 X157.481 Y181.000 E1318.49404
G0 F12000 X156.615 Y181.500
G1 F2700 X158.414 Y181.500 E1318.56884
G0 F12000 X157.548 Y182.000
G1 F2700 X155.749 Y182.000 E1318.64363
G0 F12000 X154.883 Y182.500
G1 F2700 X156.682 Y182.500 E1318.71842
G0 F12000 X155.816 Y183.000
G1 F2700 X154.017 Y183.000 E1318.79322
G0 F12000 X153.151 Y183.500
G1 F2700 X154.950 Y183.500 E1318.86801
G0 F12000 X154.084 Y184.000
G1 F2700 X150.913 Y184.000 E1318.99985
G0 F12000 X150.047 Y183.500
G1 F2700 X151.848 Y183.500 E1319.07472
G0 F12000 X150.982 Y183.000
G1 F2700 X149.181 Y183.000 E1319.14960
G0 F12000 X148.315 Y182.500
G1 F2700 X150.116 Y182.500 E1319.22448
G0 F12000 X149.250 Y182.000
G1 F2700 X147.449 Y182.000 E1319.29935
G0 F12000 X146.583 Y181.500
G1 F2700 X148.384 Y181.500 E1319.37423
G0 F12000 X147.518 Y181.000
G1 F2700 X145.717 Y181.000 E1319.44911
G0 F12000 X144.851 Y180.500
G1 F2700 X146.652 Y180.500 E1319.52398
G0 F12000 X145.786 Y180.000
G1 F2700 X143.985 Y180.000 E1319.59886
G0 F12000 X143.119 Y179.500
G1 F2700 X144.920 Y179.500 E1319.67374
G0 F12000 X144.054 Y179.000
G1 F2700 X142.253 Y179.000 E1319.74861
G0 F12000 X141.387 Y178.500
G1 F2700 X143.188 Y178.500 E1319.82349
G0 F12000 X142.322 Y178.000
G1 F2700 X140.521 Y178.000 E1319.89837
G0 F12000 X139.655 Y177.500
G1 F2700 X141.456 Y177.500 E1319.97324
G0 F12000 X140.590 Y177.000
G1 F2700 X138.789 Y177.000 E1320.04812
G0 F12000 X137.923 Y176.500
G1 F2700 X139.724 Y176.500 E1320.12300
G0 F12000 X138.858 Y176.000
G1 F2700 X137.057 Y176.000 E1320.19788
G0 F12000 X136.191 Y175.500
G1 F2700 X137.992 Y175.500 E1320.27275
G0 F12000 X137.126 Y175.000
G1 F2700 X135.325 Y175.000 E1320.34763
G0 F12000 X134.459 Y174.500
G1 F2700 X136.260 Y174.500 E1320.42251
G0 F12000 X135.394 Y174.000
G1 F2700 X133.593 Y174.000 E1320.49738
G0 F12000 X132.727 Y173.500
G1 F2700 X134.527 Y173.500 E1320.57222
G0 F12000 X133.661 Y173.000
G1 F2700 X131.861 Y173.000 E1320.64705
G0 F12000 X130.995 Y172.500
G1 F2700 X132.795 Y172.500 E1320.72189
G0 F12000 X131.929 Y172.000
G1 F2700 X130.129 Y172.000 E1320.79672
G0 F12000 X129.263 Y171.500
G1 F2700 X131.063 Y171.500 E1320.87156
G0 F12000 X130.197 Y171.000
G1 F2700 X128.397 Y171.000 E1320.94639
G0 F12000 X127.531 Y170.500
G1 F2700 X129.331 Y170.500 E1321.02123
G0 F12000 X128.465 Y170.000
G1 F2700 X126.665 Y170.000 E1321.09607
G0 F12000 X125.799 Y169.500
G1 F2700 X127.599 Y169.500 E1321.17090
G0 F12000 X126.733 Y169.000
G1 F2700 X125.293 Y169.000 E1321.23077
G0 F12000 X125.004 Y168.500
G1 F2700 X125.612 Y168.250 E1321.26663
G1 X124.570 Y167.750 E1321.29334
G1 X125.324 Y167.250 E1321.33066
G1 X124.424 Y166.750 E1321.36807
G1 X125.324 Y166.250 E1321.40548
G1 X124.424 Y165.750 E1321.44289
G1 X125.324 Y165.250 E1321.48030
G1 X124.424 Y164.750 E1321.51771
G1 X125.324 Y164.250 E1321.55512
G1 X124.424 Y163.750 E1321.59253
G1 X125.324 Y163.250 E1321.62994
G1 X124.424 Y162.750 E1321.66735
G1 X125.324 Y162.250 E1321.70477
G1 X124.424 Y161.750 E1321.74218
G1 X125.324 Y161.250 E1321.77959
G1 X124.424 Y160.750 E1321.81700
G1 X125.324 Y160.250 E1321.85441
G1 X124.424 Y159.750 E1321.89182
G1 X125.324 Y159.250 E1321.92923
G1 X124.424 Y158.750 E1321.96664
G1 X125.324 Y158.250 E1322.00405
G1 X124.424 Y157.750 E1322.04146
G1 X125.324 Y157.250 E1322.07887
G1 X124.424 Y156.750 E1322.11629
G1 X125.324 Y156.250 E1322.15370
G1 X124.424 Y155.750 E1322.19111
G1 X125.324 Y155.250 E1322.22852
G1 X124.424 Y154.750 E1322.26593
G1 X125.324 Y154.250 E1322.30334
G1 X124.424 Y153.750 E1322.34075
G1 X125.324 Y153.250 E1322.37816
G1 X124.424 Y152.750 E1322.41557
G1 X125.324 Y152.250 E1322.45298
G1 X124.424 Y151.750 E1322.49040
G1 X125.324 Y151.250 E1322.52781
G1 X124.424 Y150.750 E1322.56522
G1 X125.324 Y150.250 E1322.60263
G1 X124.424 Y149.750 E1322.64004
G1 X125.324 Y149.250 E1322.67745
G1 X124.424 Y148.750 E1322.71486
G1 X125.324 Y148.250 E1322.75227
G1 X124.424 Y147.750 E1322.78968
G1 X125.324 Y147.250 E1322.82709
G1 X124.424 Y146.750 E1322.86450
G1 X125.324 Y146.250 E1322.90192
G1 X124.424 Y145.750 E1322.93933
G1 X125.324 Y145.250 E1322.97674
G1 X124.424 Y144.750 E1323.01415
G1 X125.324 Y144.250 E1323.05156
G1 X124.424 Y143.750 E1323.08897
G1 X125.324 Y143.250 E1323.12638
G1 X124.424 Y142.750 E1323.16379
G1 X125.324 Y142.250 E1323.20120
G1 X124.424 Y141.750 E1323.23861
G1 X125.324 Y141.250 E1323.27602
G1 X124.424 Y140.750 E1323.31344
G1 X125.324 Y140.250 E1323.35085
G1 X124.424 Y139.750 E1323.38826
G1 X125.324 Y139.250 E1323.42567
G1 X124.424 Y138.750 E1323.46308
G1 X125.324 Y138.250 E1323.50049
G1 X124.425 Y137.750 E1323.53787
G1 X125.340 Y137.250 E1323.57515
G1 X124.859 Y136.750 E1323.60180
G1 X125.863 Y136.500 E1323.64482
G0 F12000 X125.293 Y136.000
G1 F2700 X126.729 Y136.000 E1323.70452
G0 F12000 X127.595 Y135.500
G1 F2700 X125.797 Y135.500 E1323.77927
G0 F12000 X126.663 Y135.000
G1 F2700 X128.461 Y135.000 E1323.85403
G0 F12000 X129.327 Y134.500
G1 F2700 X127.529 Y134.500 E1323.92878
G0 F12000 X128.395 Y134.000
G1 F2700 X130.193 Y134.000 E1324.00353
G0 F12000 X131.059 Y133.500
G1 F2700 X129.261 Y133.500 E1324.07828
G0 F12000 X130.127 Y133.000
G1 F2700 X131.925 Y133.000 E1324.15303
G0 F12000 X132.791 Y132.500
G1 F2700 X130.993 Y132.500 E1324.22779
G0 F12000 X131.859 Y132.000
G1 F2700 X133.657 Y132.000 E1324.30254
G0 F12000 X134.523 Y131.500
G1 F2700 X132.725 Y131.500 E1324.37729
G0 F12000 X133.590 Y131.000
G1 F2700 X135.389 Y131.000 E1324.45208
G0 F12000 X136.255 Y130.500
G1 F2700 X134.456 Y130.500 E1324.52688
G0 F12000 X135.322 Y130.000
G1 F2700 X137.121 Y130.000 E1324.60167
G0 F12000 X137.987 Y129.500
G1 F2700 X136.188 Y129.500 E1324.67647
G0 F12000 X137.054 Y129.000
G1 F2700 X138.853 Y129.000 E1324.75126
G0 F12000 X139.719 Y128.500
G1 F2700 X137.920 Y128.500 E1324.82605
G0 F12000 X138.786 Y128.000
G1 F2700 X140.585 Y128.000 E1324.90085
G0 F12000 X141.451 Y127.500
G1 F2700 X139.652 Y127.500 E1324.97564
G0 F12000 X140.518 Y127.000
G1 F2700 X142.317 Y127.000 E1325.05043
G0 F12000 X143.183 Y126.500
G1 F2700 X141.384 Y126.500 E1325.12523
G0 F12000 X142.250 Y126.000
G1 F2700 X144.049 Y126.000 E1325.20002
G0 F12000 X144.915 Y125.500
G1 F2700 X143.116 Y125.500 E1325.27482
G0 F12000 X143.982 Y125.000
G1 F2700 X145.781 Y125.000 E1325.34961
G0 F12000 X146.647 Y124.500
G1 F2700 X144.848 Y124.500 E1325.42440
G0 F12000 X145.714 Y124.000
G1 F2700 X147.513 Y124.000 E1325.49920
G0 F12000 X148.379 Y123.500
G1 F2700 X146.580 Y123.500 E1325.57399
G0 F12000 X147.446 Y123.000
G1 F2700 X149.245 Y123.000 E1325.64878
G0 F12000 X150.111 Y122.500
G1 F2700 X148.312 Y122.500 E1325.72358
G0 F12000 X149.178 Y122.000
G1 F2700 X150.977 Y122.000 E1325.79837
G0 F12000 X151.843 Y121.500
G1 F2700 X150.044 Y121.500 E1325.87317
G0 F12000 X150.910 Y121.000
G1 F2700 X154.089 Y121.000 E1326.00533
G0 F12000 X154.955 Y121.500
G1 F2700 X153.154 Y121.500 E1326.08021
G0 F12000 X154.020 Y122.000
G1 F2700 X155.821 Y122.000 E1326.15509
G0 F12000 X156.687 Y122.500
G1 F2700 X154.886 Y122.500 E1326.22996
G0 F12000 X155.752 Y123.000
G1 F2700 X157.553 Y123.000 E1326.30484
G0 F12000 X158.419 Y123.500
G1 F2700 X156.618 Y123.500 E1326.37972
G0 F12000 X157.484 Y124.000
G1 F2700 X159.285 Y124.000 E1326.45459
G0 F12000 X160.151 Y124.500
G1 F2700 X158.350 Y124.500 E1326.52947
G0 F12000 X159.216 Y125.000
G1 F2700 X161.017 Y125.000 E1326.60435
G0 F12000 X161.883 Y125.500
G1 F2700 X160.082 Y125.500 E1326.67922
G0 F12000 X160.948 Y126.000
G1 F2700 X162.749 Y126.000 E1326.75410
G0 F12000 X163.615 Y126.500
G1 F2700 X161.814 Y126.500 E1326.82898
G0 F12000 X162.680 Y127.000
G1 F2700 X164.481 Y127.000 E1326.90386
G0 F12000 X165.347 Y127.500
G1 F2700 X163.546 Y127.500 E1326.97873
G0 F12000 X164.412 Y128.000
G1 F2700 X166.213 Y128.000 E1327.05361
G0 F12000 X167.079 Y128.500
G1 F2700 X165.278 Y128.500 E1327.12849
G0 F12000 X166.144 Y129.000
G1 F2700 X167.945 Y129.000 E1327.20336
G0 F12000 X168.811 Y129.500
G1 F2700 X167.010 Y129.500 E1327.27824
G0 F12000 X167.876 Y130.000
G1 F2700 X169.677 Y130.000 E1327.35312
G0 F12000 X170.543 Y130.500
G1 F2700 X168.742 Y130.500 E1327.42799
G0 F12000 X169.608 Y131.000
G1 F2700 X171.409 Y131.000 E1327.50287
G0 F12000 X172.274 Y131.500
G1 F2700 X170.474 Y131.500 E1327.57771
G0 F12000 X171.340 Y132.000
G1 F2700 X173.140 Y132.000 E1327.65254
G0 F12000 X174.006 Y132.500
G1 F2700 X172.206 Y132.500 E1327.72738
G0 F12000 X173.072 Y133.000
G1 F2700 X174.872 Y133.000 E1327.80221
G0 F12000 X175.738 Y133.500
G1 F2700 X173.938 Y133.500 E1327.87705
G0 F12000 X174.804 Y134.000
G1 F2700 X176.604 Y134.000 E1327.95188
G0 F12000 X177.470 Y134.500
G1 F2700 X175.670 Y134.500 E1328.02672
G0 F12000 X176.536 Y135.000
G1 F2700 X178.336 Y135.000 E1328.10155
G0 F12000 X179.202 Y135.500
G1 F2700 X177.402 Y135.500 E1328.17639
;LAYER:8
M106 S84
G1 F2100 E1327.77639
G0 F12000 X179.679 Y135.342 Z1.800
;TYPE:WALL-INNER
G1 F2100 E1328.17639
G1 F2700 X180.950 Y137.541 E1328.28198
G1 X180.950 Y167.459 E1329.52583
G1 X179.679 Y169.658 E1329.63143
G1 X153.770 Y184.617 E1330.87525
G1 X151.230 Y184.617 E1330.98085
G1 X125.321 Y169.658 E1332.22467
G1 X124.050 Y167.459 E1332.33026
G1 X124.050 Y137.541 E1333.57411
G1 X125.321 Y135.342 E1333.67970
G1 X151.230 Y120.383 E1334.92352
G1 X153.770 Y120.383 E1335.02912
G1 X179.679 Y135.342 E1336.27294
G0 F12000 X180.045 Y134.976
;TYPE:WALL-OUTER
G1 F2700 X181.450 Y137.407 E1336.38968
G1 X181.450 Y167.593 E1337.64467
G1 X180.045 Y170.024 E1337.76140
G1 X153.904 Y185.117 E1339.01636
G1 X151.096 Y185.117 E1339.13310
G1 X124.955 Y170.024 E1340.38806
G1 X123.550 Y167.593 E1340.50479
G1 X123.550 Y137.407 E1341.75978
G1 X124.955 Y134.976 E1341.87652
G1 X151.096 Y119.883 E1343.13148
G1 X153.904 Y119.883 E1343.24822
G1 X180.045 Y134.976 E1344.50318
G0 F12000 X180.108 Y136.435
;TYPE:FILL
G1 F2700 X124.782 Y168.378 E1347.15922
G1 F2100 E1346.75922
G0 F12000 X133.002 Y173.602
G1 F2100 E1347.15922
G1 F2700 X133.002 Y131.397 E1348.91390
G0 F12000 X134.171 Y130.722
G1 F2700 X180.524 Y157.484 E1351.13916
G0 F12000 X180.523 Y158.832
G1 F2700 X143.971 Y179.936 E1352.89392
G0 F12000 X142.804 Y179.261
G1 F2700 X142.804 Y125.738 E1355.11915
G0 F12000 X143.973 Y125.062
G1 F2700 X180.524 Y146.165 E1356.87385
G0 F12000 X180.523 Y147.514
G1 F2700 X134.169 Y174.276 E1359.09915
G1 F2100 E1358.69915
G0 F12000 X124.474 Y159.079
G1 F2100 E1359.09915
G1 F2700 X160.813 Y180.059 E1360.84367
G1 F2100 E1360.44367
G0 F12000 X162.408 Y179.140
G1 F2100 E1360.84367
G1 F2700 X162.408 Y125.861 E1363.05875
G1 F2100 E1362.65875
G0 F12000 X160.812 Y124.939
G1 F2100 E1363.05875
G1 F2700 X124.474 Y145.918 E1364.80321
G1 F2100 E1364.40321
G0 F12000 X124.475 Y147.760
G1 F2100 E1364.80321
G1 F2700 X170.615 Y174.399 E1367.01825
G1 F2100 E1366.61825
G0 F12000 X172.210 Y173.481
G1 F2100 E1367.01825
G1 F2700 X172.210 Y131.520 E1368.76278
G1 F2100 E1368.36278
G0 F12000 X170.615 Y130.598
G1 F2100 E1368.76278
G1 F2700 X124.475 Y157.237 E1370.97782
G1 F2100 E1370.57782
G0 F12000 X124.913 Y136.695
G1 F2100 E1370.97782
G1 F2700 X180.109 Y168.562 E1373.62760
G1 F2100 E1373.22760
G0 F12000 X152.606 Y184.442
G1 F2100 E1373.62760
G1 F2700 X152.606 Y120.558 E1376.28359
G0 F12000 X152.500 Y120.558
;TYPE:SKIN
G1 F2700 X152.750 Y121.146 E1376.30665
G1 X153.250 Y120.558 E1376.33245
G1 X153.500 Y121.468 E1376.37168
G0 F12000 X154.000 Y121.757
G1 F2700 X154.000 Y120.719 E1376.41484
G0 F12000 X154.500 Y121.008
G1 F2700 X154.500 Y122.045 E1376.45795
G0 F12000 X155.000 Y122.334
G1 F2700 X155.000 Y121.296 E1376.50110
G0 F12000 X155.500 Y121.585
G1 F2700 X155.500 Y122.623 E1376.54426
G0 F12000 X156.000 Y122.911
G1 F2700 X156.000 Y121.874 E1376.58737
G0 F12000 X156.500 Y122.162
G1 F2700 X156.500 Y123.200 E1376.63053
G0 F12000 X157.000 Y123.489
G1 F2700 X157.000 Y122.451 E1376.67368
G0 F12000 X157.500 Y122.740
G1 F2700 X157.500 Y123.777 E1376.71680
G0 F12000 X158.000 Y124.066
G1 F2700 X158.000 Y123.028 E1376.75995
G0 F12000 X158.500 Y123.317
G1 F2700 X158.500 Y124.355 E1376.80311
G0 F12000 X159.000 Y124.643
G1 F2700 X159.000 Y123.606 E1376.84622
G0 F12000 X159.500 Y123.894
G1 F2700 X159.500 Y124.932 E1376.88937
G1 F2100 E1376.48937
G0 F12000 X152.000 Y121.180
G1 F2100 E1376.88937
G1 F2700 X151.750 Y120.558 E1376.91524
G1 X151.500 Y121.469 E1376.95451
G0 F12000 X151.000 Y121.758
G1 F2700 X151.000 Y120.718 E1376.99775
G0 F12000 X150.500 Y121.007
G1 F2700 X150.500 Y122.046 E1377.04095
G0 F12000 X150.000 Y122.335
G1 F2700 X150.000 Y121.295 E1377.08419
G0 F12000 X149.500 Y121.584
G1 F2700 X149.500 Y122.624 E1377.12742
G0 F12000 X149.000 Y122.912
G1 F2700 X149.000 Y121.873 E1377.17062
G0 F12000 X148.500 Y122.161
G1 F2700 X148.500 Y123.201 E1377.21386
G0 F12000 X148.000 Y123.490
G1 F2700 X148.000 Y122.450 E1377.25710
G0 F12000 X147.500 Y122.739
G1 F2700 X147.500 Y123.778 E1377.30029
G0 F12000 X147.000 Y124.067
G1 F2700 X147.000 Y123.027 E1377.34353
G0 F12000 X146.500 Y123.316
G1 F2700 X146.500 Y124.356 E1377.38677
G0 F12000 X146.000 Y124.644
G1 F2700 X146.000 Y123.605 E1377.42997
G0 F12000 X145.500 Y123.893
G1 F2700 X145.500 Y124.933 E1377.47321
G0 F12000 X145.000 Y125.222
G1 F2700 X145.000 Y124.182 E1377.51644
G0 F12000 X144.500 Y124.471
G1 F2700 X144.500 Y125.510 E1377.55964
G0 F12000 X144.000 Y125.799
G1 F2700 X144.000 Y124.759 E1377.60288
G0 F12000 X143.500 Y125.048
G1 F2700 X143.500 Y126.088 E1377.64612
G0 F12000 X143.000 Y126.376
G1 F2700 X143.000 Y125.337 E1377.68931
G0 F12000 X142.500 Y125.625
G1 F2700 X142.500 Y126.665 E1377.73255
G0 F12000 X142.000 Y126.954
G1 F2700 X142.000 Y125.914 E1377.77579
G0 F12000 X141.500 Y126.203
G1 F2700 X141.500 Y127.242 E1377.81899
G0 F12000 X141.000 Y127.531
G1 F2700 X141.000 Y126.492 E1377.86218
G0 F12000 X140.500 Y126.780
G1 F2700 X140.500 Y127.820 E1377.90542
G0 F12000 X140.000 Y128.108
G1 F2700 X140.000 Y127.069 E1377.94862
G0 F12000 X139.500 Y127.358
G1 F2700 X139.500 Y128.397 E1377.99181
G0 F12000 X139.000 Y128.686
G1 F2700 X139.000 Y127.646 E1378.03505
G0 F12000 X138.500 Y127.935
G1 F2700 X138.500 Y128.974 E1378.07825
G0 F12000 X138.000 Y129.263
G1 F2700 X138.000 Y128.224 E1378.12145
G0 F12000 X137.500 Y128.512
G1 F2700 X137.500 Y129.552 E1378.16468
G0 F12000 X137.000 Y129.840
G1 F2700 X137.000 Y128.801 E1378.20788
G0 F12000 X136.500 Y129.090
G1 F2700 X136.500 Y130.129 E1378.25108
G0 F12000 X136.000 Y130.418
G1 F2700 X136.000 Y129.378 E1378.29432
G0 F12000 X135.500 Y129.667
G1 F2700 X135.500 Y130.706 E1378.33751
G0 F12000 X135.000 Y130.995
G1 F2700 X135.000 Y129.956 E1378.38071
G0 F12000 X134.500 Y130.244
G1 F2700 X134.500 Y131.284 E1378.42395
G0 F12000 X134.000 Y131.573
G1 F2700 X134.000 Y130.533 E1378.46718
G0 F12000 X133.500 Y130.822
G1 F2700 X133.500 Y131.861 E1378.51038
G0 F12000 X133.000 Y132.150
G1 F2700 X133.000 Y131.110 E1378.55362
G0 F12000 X132.500 Y131.399
G1 F2700 X132.500 Y132.439 E1378.59686
G0 F12000 X132.000 Y132.727
G1 F2700 X132.000 Y131.688 E1378.64005
G0 F12000 X131.500 Y131.976
G1 F2700 X131.500 Y133.016 E1378.68329
G0 F12000 X131.000 Y133.305
G1 F2700 X131.000 Y132.265 E1378.72653
G0 F12000 X130.500 Y132.554
G1 F2700 X130.500 Y133.593 E1378.76973
G0 F12000 X130.000 Y133.882
G1 F2700 X130.000 Y132.842 E1378.81297
G0 F12000 X129.500 Y133.131
G1 F2700 X129.500 Y134.171 E1378.85620
G0 F12000 X129.000 Y134.459
G1 F2700 X129.000 Y133.420 E1378.89940
G0 F12000 X128.500 Y133.708
G1 F2700 X128.500 Y134.748 E1378.94264
G0 F12000 X128.000 Y135.037
G1 F2700 X128.000 Y133.997 E1378.98588
G0 F12000 X127.500 Y134.286
G1 F2700 X127.500 Y135.325 E1379.02907
G0 F12000 X127.000 Y135.614
G1 F2700 X127.000 Y134.574 E1379.07231
G0 F12000 X126.500 Y134.863
G1 F2700 X126.500 Y135.903 E1379.11555
G0 F12000 X126.000 Y136.191
G1 F2700 X126.000 Y135.152 E1379.15875
G0 F12000 X125.500 Y135.440
G1 F2700 X125.500 Y136.493 E1379.20252
G0 F12000 X125.000 Y136.246
G1 F2700 X125.000 Y168.753 E1380.55401
G0 F12000 X125.500 Y168.508
G1 F2700 X125.500 Y169.559 E1380.59770
G0 F12000 X126.000 Y169.847
G1 F2700 X126.000 Y168.810 E1380.64082
G0 F12000 X126.500 Y169.098
G1 F2700 X126.500 Y170.136 E1380.68397
G0 F12000 X127.000 Y170.425
G1 F2700 X127.000 Y169.387 E1380.72713
G0 F12000 X127.500 Y169.676
G1 F2700 X127.500 Y170.713 E1380.77024
G0 F12000 X128.000 Y171.002
G1 F2700 X128.000 Y169.964 E1380.81340
G0 F12000 X128.500 Y170.253
G1 F2700 X128.500 Y171.291 E1380.85655
G0 F12000 X129.000 Y171.579
G1 F2700 X129.000 Y170.542 E1380.89966
G0 F12000 X129.500 Y170.830
G1 F2700 X129.500 Y171.868 E1380.94282
G0 F12000 X130.000 Y172.157
G1 F2700 X130.000 Y171.119 E1380.98597
G0 F12000 X130.500 Y171.408
G1 F2700 X130.500 Y172.445 E1381.02909
G0 F12000 X131.000 Y172.734
G1 F2700 X131.000 Y171.696 E1381.07224
G0 F12000 X131.500 Y171.985
G1 F2700 X131.500 Y173.023 E1381.11540
G0 F12000 X132.000 Y173.311
G1 F2700 X132.000 Y172.274 E1381.15851
G0 F12000 X132.500 Y172.562
G1 F2700 X132.500 Y173.600 E1381.20167
G0 F12000 X133.000 Y173.889
G1 F2700 X133.000 Y172.851 E1381.24482
G0 F12000 X133.500 Y173.140
G1 F2700 X133.500 Y174.177 E1381.28794
G0 F12000 X134.000 Y174.466
G1 F2700 X134.000 Y173.428 E1381.33109
G0 F12000 X134.500 Y173.717
G1 F2700 X134.500 Y174.755 E1381.37425
G0 F12000 X135.000 Y175.043
G1 F2700 X135.000 Y174.006 E1381.41736
G0 F12000 X135.500 Y174.295
G1 F2700 X135.500 Y175.332 E1381.46047
G0 F12000 X136.000 Y175.621
G1 F2700 X136.000 Y174.583 E1381.50363
G0 F12000 X136.500 Y174.872
G1 F2700 X136.500 Y175.909 E1381.54674
G0 F12000 X137.000 Y176.198
G1 F2700 X137.000 Y175.161 E1381.58985
G0 F12000 X137.500 Y175.449
G1 F2700 X137.500 Y176.487 E1381.63301
G0 F12000 X138.000 Y176.775
G1 F2700 X138.000 Y175.738 E1381.67612
G0 F12000 X138.500 Y176.027
G1 F2700 X138.500 Y177.064 E1381.71924
G0 F12000 X139.000 Y177.353
G1 F2700 X139.000 Y176.315 E1381.76239
G0 F12000 X139.500 Y176.604
G1 F2700 X139.500 Y177.641 E1381.80550
