;-- START GCODE --
;Sliced for Type A Machines Series 1
;Sliced at: Tue 06-12-2016 12:23:02
;Basic settings:
; Layer height: 0.2
; Walls: 1
; Fill: 8
; Print Speed: 45
; Support: 0
; Retraction Speed: 35
; Retraction Distance: 0.4
;Print time: 1 hour 17 minutes
;Filament used: 6.553m 19.0g
;Settings based on: Type A Machines Everyday PLA
G21        ;metric values
G90        ;absolute positioning
G28     ;move to endstops
G1 Z15.0 F12000 ;move the platform down 15mm
G1 X150 Y5 F12000 ;center
M140 S50 ;Prep Heat Bed
M109 S215 ;Heat To temp
M190 S50 ;Heat Bed to temp
G1 X150 Y5 Z0.3 ;move the platform to purge extrusion
G92 E0 ;zero the extruded length
G1 F200 X250 E30 ;extrude 30mm of feed stock
G92 E0 ;zero the extruded length again
G1 X150 Y150  Z25 F12000 ;recenter and begin
G1 F12000

;Layer count: 80
;LAYER:0
M107
G0 F12000 X123.248 Y133.190 Z0.200
G0 X122.724 Y134.093
;TYPE:SKIRT
G1 F1800 X123.248 Y133.190 E0.04341
G1 X150.407 Y117.509 E1.34724
G1 X154.593 Y117.509 E1.52127
G1 X179.675 Y131.990 E2.72538
G1 X181.755 Y133.192 E2.82526
G1 X183.333 Y135.921 E2.95632
G1 X183.850 Y136.829 E2.99976
G1 X183.850 Y168.181 E4.30322
G1 X182.276 Y170.907 E4.43409
G1 X181.752 Y171.810 E4.47750
G1 X154.593 Y187.491 E5.78133
G1 X150.407 Y187.491 E5.95537
G1 X125.325 Y173.010 E7.15947
G1 X123.245 Y171.808 E7.25935
G1 X121.667 Y169.079 E7.39041
G1 X121.150 Y168.171 E7.43385
G1 X121.150 Y136.819 E8.73732
G1 X122.724 Y134.093 E8.86819
G1 F2100 E8.46819
G0 F12000 X126.171 Y136.122
;TYPE:WALL-INNER
G1 F2100 E8.86819
G1 F1800 X151.480 Y121.509 E10.08321
G1 X153.520 Y121.509 E10.16802
G1 X178.828 Y136.121 E11.38299
G1 X179.850 Y137.888 E11.46785
G1 X179.850 Y167.110 E12.68276
G1 X178.829 Y168.878 E12.76765
G1 X153.520 Y183.491 E13.98267
G1 X151.480 Y183.491 E14.06748
G1 X126.172 Y168.879 E15.28245
G1 X125.150 Y167.112 E15.36731
G1 X125.150 Y137.890 E16.58222
G1 X126.171 Y136.122 E16.66711
G0 F12000 X125.806 Y135.755
;TYPE:WALL-OUTER
G1 F1800 X151.346 Y121.009 E17.89321
G1 X153.654 Y121.009 E17.98917
G1 X179.194 Y135.755 E19.21527
G1 X180.297 Y137.663 E19.30690
G1 X180.350 Y137.756 E19.31135
G1 X180.350 Y167.244 E20.53732
G1 X179.194 Y169.245 E20.63339
G1 X153.654 Y183.991 E21.85950
G1 X151.346 Y183.991 E21.95545
G1 X125.806 Y169.245 E23.18156
G1 X124.702 Y167.336 E23.27324
G1 X124.650 Y167.244 E23.27764
G1 X124.650 Y137.756 E24.50361
G1 X125.806 Y135.755 E24.59968
G0 F12000 X126.500 Y136.134
;TYPE:SKIN
G1 F1800 X126.500 Y168.866 E25.96052
G0 F12000 X127.000 Y169.154
G1 F1800 X127.000 Y135.845 E27.34535
G0 F12000 X127.500 Y135.557
G1 F1800 X127.500 Y169.443 E28.75416
G0 F12000 X128.000 Y169.732
G1 F1800 X128.000 Y135.268 E30.18701
G0 F12000 X128.500 Y134.979
G1 F1800 X128.500 Y170.020 E31.64385
G0 F12000 X129.000 Y170.309
G1 F1800 X129.000 Y134.690 E33.12471
G0 F12000 X129.500 Y134.402
G1 F1800 X129.500 Y170.598 E34.62957
G0 F12000 X130.000 Y170.886
G1 F1800 X130.000 Y134.113 E36.15841
G0 F12000 X130.500 Y133.824
G1 F1800 X130.500 Y171.175 E37.71129
G0 F12000 X131.000 Y171.464
G1 F1800 X131.000 Y133.536 E39.28815
G0 F12000 X131.500 Y133.247
G1 F1800 X131.500 Y171.752 E40.88900
G0 F12000 X132.000 Y172.041
G1 F1800 X132.000 Y132.958 E42.51388
G0 F12000 X132.500 Y132.670
G1 F1800 X132.500 Y172.330 E44.16275
G0 F12000 X133.000 Y172.618
G1 F1800 X133.000 Y132.381 E45.83561
G0 F12000 X133.500 Y132.092
G1 F1800 X133.500 Y172.907 E47.53250
G0 F12000 X134.000 Y173.196
G1 F1800 X134.000 Y131.804 E49.25338
G0 F12000 X134.500 Y131.515
G1 F1800 X134.500 Y173.484 E50.99825
G0 F12000 X135.000 Y173.773
G1 F1800 X135.000 Y131.226 E52.76715
G0 F12000 X135.500 Y130.938
G1 F1800 X135.500 Y174.062 E54.56004
G0 F12000 X136.000 Y174.350
G1 F1800 X136.000 Y130.649 E56.37691
G0 F12000 X136.500 Y130.360
G1 F1800 X136.500 Y174.639 E58.21782
G0 F12000 X137.000 Y174.928
G1 F1800 X137.000 Y130.072 E60.08272
G0 F12000 X137.500 Y129.783
G1 F1800 X137.500 Y175.216 E61.97160
G0 F12000 X138.000 Y175.505
G1 F1800 X138.000 Y129.494 E63.88452
G0 F12000 X138.500 Y129.205
G1 F1800 X138.500 Y175.794 E65.82146
G0 F12000 X139.000 Y176.082
G1 F1800 X139.000 Y128.917 E67.78236
G0 F12000 X139.500 Y128.628
G1 F1800 X139.500 Y176.371 E69.76728
G1 F2100 E69.36728
G0 F12000 X126.000 Y168.233
G1 F2100 E69.76728
G1 F1800 X126.000 Y136.767 E71.07548
G0 F12000 X125.500 Y137.632
G1 F1800 X125.500 Y167.368 E72.31176
G1 F2100 E71.91176
G0 F12000 X140.000 Y176.660
G1 F2100 E72.31176
G1 F1800 X140.000 Y128.339 E74.32072
G0 F12000 X140.500 Y128.051
G1 F1800 X140.500 Y176.948 E76.35362
G0 F12000 X141.000 Y177.237
G1 F1800 X141.000 Y127.762 E78.41055
G0 F12000 X141.500 Y127.473
G1 F1800 X141.500 Y177.526 E80.49151
G0 F12000 X142.000 Y177.814
G1 F1800 X142.000 Y127.185 E82.59642
G0 F12000 X142.500 Y126.896
G1 F1800 X142.500 Y178.103 E84.72536
G0 F12000 X143.000 Y178.392
G1 F1800 X143.000 Y126.607 E86.87833
G0 F12000 X143.500 Y126.319
G1 F1800 X143.500 Y178.681 E89.05529
G0 F12000 X144.000 Y178.969
G1 F1800 X144.000 Y126.030 E91.25624
G0 F12000 X144.500 Y125.741
G1 F1800 X144.500 Y179.258 E93.48121
G0 F12000 X145.000 Y179.547
G1 F1800 X145.000 Y125.453 E95.73018
G0 F12000 X145.500 Y125.164
G1 F1800 X145.500 Y179.835 E98.00314
G1 F2100 E97.60314
G0 F12000 X159.500 Y179.836
G1 F2100 E98.00314
G1 F1800 X159.500 Y125.165 E100.27609
G0 F12000 X159.000 Y124.876
G1 F1800 X159.000 Y180.125 E102.57308
G0 F12000 X158.500 Y180.413
G1 F1800 X158.500 Y124.587 E104.89406
G0 F12000 X158.000 Y124.299
G1 F1800 X158.000 Y180.702 E107.23902
G0 F12000 X157.500 Y180.991
G1 F1800 X157.500 Y124.010 E109.60801
G0 F12000 X157.000 Y123.721
G1 F1800 X157.000 Y181.280 E112.00104
G0 F12000 X156.500 Y181.568
G1 F1800 X156.500 Y123.433 E114.41801
G0 F12000 X156.000 Y123.144
G1 F1800 X156.000 Y181.857 E116.85901
G0 F12000 X155.500 Y182.146
G1 F1800 X155.500 Y122.855 E119.32405
G0 F12000 X155.000 Y122.567
G1 F1800 X155.000 Y182.434 E121.81303
G0 F12000 X154.500 Y182.723
G1 F1800 X154.500 Y122.278 E124.32604
G0 F12000 X154.000 Y121.989
G1 F1800 X154.000 Y183.012 E126.86308
G0 F12000 X153.500 Y183.300
G1 F1800 X153.500 Y121.701 E129.42407
G0 F12000 X153.000 Y121.684
G1 F1800 X153.000 Y183.316 E131.98643
G0 F12000 X152.500 Y183.316
G1 F1800 X152.500 Y121.684 E134.54879
G0 F12000 X152.000 Y121.684
G1 F1800 X152.000 Y183.316 E137.11115
G0 F12000 X151.500 Y183.299
G1 F1800 X151.500 Y121.700 E139.67214
G0 F12000 X151.000 Y121.988
G1 F1800 X151.000 Y183.011 E142.20918
G0 F12000 X150.500 Y182.722
G1 F1800 X150.500 Y122.277 E144.72219
G0 F12000 X150.000 Y122.566
G1 F1800 X150.000 Y182.433 E147.21117
G0 F12000 X149.500 Y182.145
G1 F1800 X149.500 Y122.854 E149.67621
G0 F12000 X149.000 Y123.143
G1 F1800 X149.000 Y181.856 E152.11721
G0 F12000 X148.500 Y181.567
G1 F1800 X148.500 Y123.432 E154.53418
G0 F12000 X148.000 Y123.720
G1 F1800 X148.000 Y181.279 E156.92721
G0 F12000 X147.500 Y180.990
G1 F1800 X147.500 Y124.009 E159.29620
G0 F12000 X147.000 Y124.298
G1 F1800 X147.000 Y180.701 E161.64117
G0 F12000 X146.500 Y180.413
G1 F1800 X146.500 Y124.587 E163.96214
G0 F12000 X146.000 Y124.875
G1 F1800 X146.000 Y180.124 E166.25913
G1 F2100 E165.85913
G0 F12000 X160.000 Y179.547
G1 F2100 E166.25913
G1 F1800 X160.000 Y125.453 E168.50810
G0 F12000 X160.500 Y125.742
G1 F1800 X160.500 Y179.259 E170.73307
G0 F12000 X161.000 Y178.970
G1 F1800 X161.000 Y126.031 E172.93402
G0 F12000 X161.500 Y126.319
G1 F1800 X161.500 Y178.681 E175.11098
G0 F12000 X162.000 Y178.393
G1 F1800 X162.000 Y126.608 E177.26395
G0 F12000 X162.500 Y126.897
G1 F1800 X162.500 Y178.104 E179.39289
G0 F12000 X163.000 Y177.815
G1 F1800 X163.000 Y127.186 E181.49780
G0 F12000 X163.500 Y127.474
G1 F1800 X163.500 Y177.527 E183.57876
G0 F12000 X164.000 Y177.238
G1 F1800 X164.000 Y127.763 E185.63569
G0 F12000 X164.500 Y128.052
G1 F1800 X164.500 Y176.949 E187.66860
G0 F12000 X165.000 Y176.661
G1 F1800 X165.000 Y128.340 E189.67755
G0 F12000 X165.500 Y128.629
G1 F1800 X165.500 Y176.372 E191.66247
G0 F12000 X166.000 Y176.083
G1 F1800 X166.000 Y128.918 E193.62336
G0 F12000 X166.500 Y129.206
G1 F1800 X166.500 Y175.795 E195.56031
G0 F12000 X167.000 Y175.506
G1 F1800 X167.000 Y129.495 E197.47323
G0 F12000 X167.500 Y129.784
G1 F1800 X167.500 Y175.217 E199.36211
G0 F12000 X168.000 Y174.928
G1 F1800 X168.000 Y130.072 E201.22701
G0 F12000 X168.500 Y130.361
G1 F1800 X168.500 Y174.640 E203.06791
G0 F12000 X169.000 Y174.351
G1 F1800 X169.000 Y130.650 E204.88479
G0 F12000 X169.500 Y130.938
G1 F1800 X169.500 Y174.062 E206.67768
G0 F12000 X170.000 Y173.774
G1 F1800 X170.000 Y131.227 E208.44658
G0 F12000 X170.500 Y131.516
G1 F1800 X170.500 Y173.485 E210.19144
G0 F12000 X171.000 Y173.196
G1 F1800 X171.000 Y131.804 E211.91232
G0 F12000 X171.500 Y132.093
G1 F1800 X171.500 Y172.908 E213.60921
G0 F12000 X172.000 Y172.619
G1 F1800 X172.000 Y132.382 E215.28207
G0 F12000 X172.500 Y132.670
G1 F1800 X172.500 Y172.330 E216.93095
G0 F12000 X173.000 Y172.042
G1 F1800 X173.000 Y132.959 E218.55583
G0 F12000 X173.500 Y133.248
G1 F1800 X173.500 Y171.753 E220.15668
G0 F12000 X174.000 Y171.464
G1 F1800 X174.000 Y133.536 E221.73354
G0 F12000 X174.500 Y133.825
G1 F1800 X174.500 Y171.176 E223.28642
G0 F12000 X175.000 Y170.887
G1 F1800 X175.000 Y134.114 E224.81526
G0 F12000 X175.500 Y134.402
G1 F1800 X175.500 Y170.598 E226.32011
G0 F12000 X176.000 Y170.310
G1 F1800 X176.000 Y134.691 E227.80098
G0 F12000 X176.500 Y134.980
G1 F1800 X176.500 Y170.021 E229.25782
G0 F12000 X177.000 Y169.732
G1 F1800 X177.000 Y135.268 E230.69066
G0 F12000 X177.500 Y135.557
G1 F1800 X177.500 Y169.443 E232.09948
G0 F12000 X178.000 Y169.155
G1 F1800 X178.000 Y135.846 E233.48431
G0 F12000 X178.500 Y136.134
G1 F1800 X178.500 Y168.866 E234.84514
G0 F12000 X179.000 Y168.233
G1 F1800 X179.000 Y136.767 E236.15335
G0 F12000 X179.500 Y137.632
G1 F1800 X179.500 Y167.368 E237.38963
;LAYER:1
M106 S10
G0 F12000 X179.134 Y168.749 Z0.400
;TYPE:WALL-INNER
G1 F1980 X178.974 Y169.025 E237.40289
G1 X153.574 Y183.691 E238.62229
G1 X151.426 Y183.691 E238.71160
G1 X126.026 Y169.025 E239.93100
G1 X125.108 Y167.439 E240.00719
G1 X124.950 Y167.164 E240.02037
G1 X124.950 Y137.836 E241.23969
G1 X125.866 Y136.251 E241.31580
G1 X126.026 Y135.975 E241.32906
G1 X151.426 Y121.309 E242.54846
G1 X153.574 Y121.309 E242.63777
G1 X178.974 Y135.975 E243.85717
G1 X179.891 Y137.559 E243.93326
G1 X180.050 Y137.836 E243.94654
G1 X180.050 Y167.164 E245.16586
G1 X179.134 Y168.749 E245.24197
G0 F12000 X179.340 Y169.391
;TYPE:WALL-OUTER
G1 F1980 X153.708 Y184.191 E246.47251
G1 X151.292 Y184.191 E246.57295
G1 X125.660 Y169.391 E247.80349
G1 X124.450 Y167.298 E247.90401
G1 X124.450 Y137.702 E249.13446
G1 X125.660 Y135.609 E249.23498
G1 X151.292 Y120.809 E250.46552
G1 X153.708 Y120.809 E250.56596
G1 X179.340 Y135.609 E251.79650
G1 X180.550 Y137.702 E251.89701
G1 X180.550 Y167.298 E253.12747
G1 X179.340 Y169.391 E253.22798
G0 F12000 X178.664 Y169.000
;TYPE:SKIN
G1 F1980 X126.333 Y169.000 E255.40365
G0 F12000 X125.923 Y168.500
G1 F1980 X179.074 Y168.500 E257.61342
G0 F12000 X179.363 Y168.000
G1 F1980 X125.634 Y168.000 E259.84721
G0 F12000 X125.345 Y167.500
G1 F1980 X179.652 Y167.500 E262.10503
G0 F12000 X179.874 Y167.000
G1 F1980 X125.124 Y167.000 E264.38127
G0 F12000 X125.124 Y166.500
G1 F1980 X179.874 Y166.500 E266.65751
G0 F12000 X179.874 Y166.000
G1 F1980 X125.124 Y166.000 E268.93375
G0 F12000 X125.124 Y165.500
G1 F1980 X179.874 Y165.500 E271.20999
G0 F12000 X179.874 Y165.000
G1 F1980 X125.124 Y165.000 E273.48623
G0 F12000 X125.124 Y164.500
G1 F1980 X179.874 Y164.500 E275.76247
G0 F12000 X179.874 Y164.000
G1 F1980 X125.124 Y164.000 E278.03871
G0 F12000 X125.124 Y163.500
G1 F1980 X179.874 Y163.500 E280.31495
G0 F12000 X179.874 Y163.000
G1 F1980 X125.124 Y163.000 E282.59120
G0 F12000 X125.124 Y162.500
G1 F1980 X179.874 Y162.500 E284.86744
G0 F12000 X179.874 Y162.000
G1 F1980 X125.124 Y162.000 E287.14368
G0 F12000 X125.124 Y161.500
G1 F1980 X179.874 Y161.500 E289.41992
G0 F12000 X179.874 Y161.000
G1 F1980 X125.124 Y161.000 E291.69616
G0 F12000 X125.124 Y160.500
G1 F1980 X179.874 Y160.500 E293.97240
G0 F12000 X179.874 Y160.000
G1 F1980 X125.124 Y160.000 E296.24864
G1 F2100 E295.84864
G0 F12000 X127.199 Y169.500
G1 F2100 E296.24864
G1 F1980 X177.798 Y169.500 E298.35230
G0 F12000 X176.932 Y170.000
G1 F1980 X128.065 Y170.000 E300.38395
G0 F12000 X128.931 Y170.500
G1 F1980 X176.066 Y170.500 E302.34360
G0 F12000 X175.200 Y171.000
G1 F1980 X129.797 Y171.000 E304.23124
G0 F12000 X130.663 Y171.500
G1 F1980 X174.334 Y171.500 E306.04687
G0 F12000 X173.468 Y172.000
G1 F1980 X131.529 Y172.000 E307.79049
G0 F12000 X132.395 Y172.500
G1 F1980 X172.602 Y172.500 E309.46210
G0 F12000 X171.736 Y173.000
G1 F1980 X133.261 Y173.000 E311.06170
G0 F12000 X134.127 Y173.500
G1 F1980 X170.870 Y173.500 E312.58930
G0 F12000 X170.004 Y174.000
G1 F1980 X134.993 Y174.000 E314.04489
G0 F12000 X135.859 Y174.500
G1 F1980 X169.138 Y174.500 E315.42847
G0 F12000 X168.272 Y175.000
G1 F1980 X136.725 Y175.000 E316.74004
G0 F12000 X137.591 Y175.500
G1 F1980 X167.406 Y175.500 E317.97960
G0 F12000 X166.540 Y176.000
G1 F1980 X138.457 Y176.000 E319.14716
G0 F12000 X139.323 Y176.500
G1 F1980 X165.674 Y176.500 E320.24271
G0 F12000 X164.808 Y177.000
G1 F1980 X140.189 Y177.000 E321.26625
G0 F12000 X141.055 Y177.500
G1 F1980 X163.942 Y177.500 E322.21778
G0 F12000 X163.076 Y178.000
G1 F1980 X141.921 Y178.000 E323.09730
G0 F12000 X142.787 Y178.500
G1 F1980 X162.210 Y178.500 E323.90481
G0 F12000 X161.344 Y179.000
G1 F1980 X143.653 Y179.000 E324.64032
G0 F12000 X144.519 Y179.500
G1 F1980 X160.478 Y179.500 E325.30382
G0 F12000 X159.612 Y180.000
G1 F1980 X145.385 Y180.000 E325.89531
G0 F12000 X146.251 Y180.500
G1 F1980 X158.746 Y180.500 E326.41479
G0 F12000 X157.880 Y181.000
G1 F1980 X147.117 Y181.000 E326.86226
G0 F12000 X147.983 Y181.500
G1 F1980 X157.014 Y181.500 E327.23773
G0 F12000 X156.148 Y182.000
G1 F1980 X148.849 Y182.000 E327.54119
G0 F12000 X149.715 Y182.500
G1 F1980 X155.282 Y182.500 E327.77264
G0 F12000 X154.416 Y183.000
G1 F1980 X150.581 Y183.000 E327.93208
G0 F12000 X151.447 Y183.500
G1 F1980 X153.550 Y183.500 E328.01951
G1 F2100 E327.61951
G0 F12000 X179.874 Y159.500
G1 F2100 E328.01951
G1 F1980 X125.124 Y159.500 E330.29575
G0 F12000 X125.124 Y159.000
G1 F1980 X179.874 Y159.000 E332.57199
G0 F12000 X179.874 Y158.500
G1 F1980 X125.124 Y158.500 E334.84823
G0 F12000 X125.124 Y158.000
G1 F1980 X179.874 Y158.000 E337.12447
G0 F12000 X179.874 Y157.500
G1 F1980 X125.124 Y157.500 E339.40071
G0 F12000 X125.124 Y157.000
G1 F1980 X179.874 Y157.000 E341.67695
G0 F12000 X179.874 Y156.500
G1 F1980 X125.124 Y156.500 E343.95319
G0 F12000 X125.124 Y156.000
G1 F1980 X179.874 Y156.000 E346.22943
G0 F12000 X179.874 Y155.500
G1 F1980 X125.124 Y155.500 E348.50567
G0 F12000 X125.124 Y155.000
G1 F1980 X179.874 Y155.000 E350.78191
G0 F12000 X179.874 Y154.500
G1 F1980 X125.124 Y154.500 E353.05815
G0 F12000 X125.124 Y154.000
G1 F1980 X179.874 Y154.000 E355.33440
G0 F12000 X179.874 Y153.500
G1 F1980 X125.124 Y153.500 E357.61064
G0 F12000 X125.124 Y153.000
G1 F1980 X179.874 Y153.000 E359.88688
G0 F12000 X179.874 Y152.500
G1 F1980 X125.124 Y152.500 E362.16312
G0 F12000 X125.124 Y152.000
G1 F1980 X179.874 Y152.000 E364.43936
G0 F12000 X179.874 Y151.500
G1 F1980 X125.124 Y151.500 E366.71560
G0 F12000 X125.124 Y151.000
G1 F1980 X179.874 Y151.000 E368.99184
G0 F12000 X179.874 Y150.500
G1 F1980 X125.124 Y150.500 E371.26808
G0 F12000 X125.124 Y150.000
G1 F1980 X179.874 Y150.000 E373.54432
G0 F12000 X179.874 Y149.500
G1 F1980 X125.124 Y149.500 E375.82056
G0 F12000 X125.124 Y149.000
G1 F1980 X179.874 Y149.000 E378.09680
G0 F12000 X179.874 Y148.500
G1 F1980 X125.124 Y148.500 E380.37304
G0 F12000 X125.124 Y148.000
G1 F1980 X179.874 Y148.000 E382.64928
G0 F12000 X179.874 Y147.500
G1 F1980 X125.124 Y147.500 E384.92552
G0 F12000 X125.124 Y147.000
G1 F1980 X179.874 Y147.000 E387.20176
G0 F12000 X179.874 Y146.500
G1 F1980 X125.124 Y146.500 E389.47800
G0 F12000 X125.124 Y146.000
G1 F1980 X179.874 Y146.000 E391.75424
G0 F12000 X179.874 Y145.500
G1 F1980 X125.124 Y145.500 E394.03048
G0 F12000 X125.124 Y145.000
G1 F1980 X179.874 Y145.000 E396.30672
G0 F12000 X179.874 Y144.500
G1 F1980 X125.124 Y144.500 E398.58296
G0 F12000 X125.124 Y144.000
G1 F1980 X179.874 Y144.000 E400.85920
G0 F12000 X179.874 Y143.500
G1 F1980 X125.124 Y143.500 E403.13545
G0 F12000 X125.124 Y143.000
G1 F1980 X179.874 Y143.000 E405.41169
G0 F12000 X179.874 Y142.500
G1 F1980 X125.124 Y142.500 E407.68793
G0 F12000 X125.124 Y142.000
G1 F1980 X179.874 Y142.000 E409.96417
G0 F12000 X179.874 Y141.500
G1 F1980 X125.124 Y141.500 E412.24041
G0 F12000 X125.124 Y141.000
G1 F1980 X179.874 Y141.000 E414.51665
G0 F12000 X179.874 Y140.500
G1 F1980 X125.124 Y140.500 E416.79289
G0 F12000 X125.124 Y140.000
G1 F1980 X179.874 Y140.000 E419.06913
G0 F12000 X179.874 Y139.500
G1 F1980 X125.124 Y139.500 E421.34537
G0 F12000 X125.124 Y139.000
G1 F1980 X179.874 Y139.000 E423.62161
G0 F12000 X179.874 Y138.500
G1 F1980 X125.124 Y138.500 E425.89785
G0 F12000 X125.124 Y138.000
G1 F1980 X179.874 Y138.000 E428.17409
G0 F12000 X179.654 Y137.500
G1 F1980 X125.345 Y137.500 E430.43200
G0 F12000 X125.634 Y137.000
G1 F1980 X179.365 Y137.000 E432.66587
G0 F12000 X179.076 Y136.500
G1 F1980 X125.923 Y136.500 E434.87572
G0 F12000 X126.331 Y136.000
G1 F1980 X178.668 Y136.000 E437.05164
G0 F12000 X177.802 Y135.500
G1 F1980 X127.197 Y135.500 E439.15555
G0 F12000 X128.063 Y135.000
G1 F1980 X176.936 Y135.000 E441.18745
G0 F12000 X176.070 Y134.500
G1 F1980 X128.929 Y134.500 E443.14735
G0 F12000 X129.795 Y134.000
G1 F1980 X175.204 Y134.000 E445.03523
G0 F12000 X174.338 Y133.500
G1 F1980 X130.661 Y133.500 E446.85111
G0 F12000 X131.527 Y133.000
G1 F1980 X173.472 Y133.000 E448.59498
G0 F12000 X172.606 Y132.500
G1 F1980 X132.393 Y132.500 E450.26684
G0 F12000 X133.259 Y132.000
G1 F1980 X171.740 Y132.000 E451.86670
G0 F12000 X170.874 Y131.500
G1 F1980 X134.125 Y131.500 E453.39454
G0 F12000 X134.991 Y131.000
G1 F1980 X170.008 Y131.000 E454.85038
G0 F12000 X169.142 Y130.500
G1 F1980 X135.857 Y130.500 E456.23421
G0 F12000 X136.723 Y130.000
G1 F1980 X168.276 Y130.000 E457.54603
G0 F12000 X167.410 Y129.500
G1 F1980 X137.589 Y129.500 E458.78585
G0 F12000 X138.454 Y129.000
G1 F1980 X166.545 Y129.000 E459.95373
G0 F12000 X165.679 Y128.500
G1 F1980 X139.320 Y128.500 E461.04961
G0 F12000 X140.186 Y128.000
G1 F1980 X164.813 Y128.000 E462.07349
G0 F12000 X163.947 Y127.500
G1 F1980 X141.052 Y127.500 E463.02535
G0 F12000 X141.918 Y127.000
G1 F1980 X163.081 Y127.000 E463.90520
G0 F12000 X162.215 Y126.500
G1 F1980 X142.784 Y126.500 E464.71305
G0 F12000 X143.650 Y126.000
G1 F1980 X161.349 Y126.000 E465.44889
G0 F12000 X160.483 Y125.500
G1 F1980 X144.516 Y125.500 E466.11272
G0 F12000 X145.382 Y125.000
G1 F1980 X159.617 Y125.000 E466.70454
G0 F12000 X158.751 Y124.500
G1 F1980 X146.248 Y124.500 E467.22436
G0 F12000 X147.114 Y124.000
G1 F1980 X157.885 Y124.000 E467.67216
G0 F12000 X157.019 Y123.500
G1 F1980 X147.980 Y123.500 E468.04796
G0 F12000 X148.846 Y123.000
G1 F1980 X156.153 Y123.000 E468.35175
G0 F12000 X155.287 Y122.500
G1 F1980 X149.712 Y122.500 E468.58353
G0 F12000 X150.578 Y122.000
G1 F1980 X154.421 Y122.000 E468.74331
G0 F12000 X153.555 Y121.500
G1 F1980 X151.444 Y121.500 E468.83107
;LAYER:2
M106 S20
G0 F12000 X151.372 Y121.109 Z0.600
;TYPE:WALL-INNER
G1 F2220 X153.628 Y121.109 E468.92487
G1 X179.121 Y135.828 E470.14872
G1 X180.250 Y137.782 E470.24254
G1 X180.250 Y167.216 E471.46626
G1 X179.120 Y169.173 E471.56022
G1 X153.628 Y183.891 E472.78401
G1 X151.372 Y183.891 E472.87780
G1 X125.879 Y169.172 E474.10166
G1 X124.750 Y167.218 E474.19548
G1 X124.750 Y137.784 E475.41920
G1 X125.880 Y135.827 E475.51316
G1 X151.372 Y121.109 E476.73695
G0 F12000 X151.238 Y120.609
;TYPE:WALL-OUTER
G1 F2220 X153.762 Y120.609 E476.84189
G1 X179.487 Y135.462 E478.07688
G1 X180.750 Y137.648 E478.18184
G1 X180.750 Y167.350 E479.41670
G1 X179.486 Y169.539 E479.52180
G1 X153.762 Y184.391 E480.75673
G1 X151.238 Y184.391 E480.86166
G1 X125.513 Y169.538 E482.09666
G1 X124.250 Y167.352 E482.20162
G1 X124.250 Y137.650 E483.43648
G1 X125.514 Y135.461 E483.54157
G1 X151.238 Y120.609 E484.77651
G0 F12000 X151.500 Y121.284
;TYPE:SKIN
G1 F2220 X151.500 Y183.716 E487.37213
G0 F12000 X152.000 Y183.716
G1 F2220 X152.000 Y121.284 E489.96775
G0 F12000 X152.500 Y121.284
G1 F2220 X152.500 Y183.716 E492.56337
G0 F12000 X153.000 Y183.716
G1 F2220 X153.000 Y121.284 E495.15899
G0 F12000 X153.500 Y121.284
G1 F2220 X153.500 Y183.716 E497.75461
G0 F12000 X154.000 Y183.474
G1 F2220 X154.000 Y121.527 E500.33007
G0 F12000 X154.500 Y121.816
G1 F2220 X154.500 Y183.185 E502.88150
G0 F12000 X155.000 Y182.897
G1 F2220 X155.000 Y122.104 E505.40897
G0 F12000 X155.500 Y122.393
G1 F2220 X155.500 Y182.608 E507.91242
G0 F12000 X156.000 Y182.319
G1 F2220 X156.000 Y122.682 E510.39184
G0 F12000 X156.500 Y122.970
G1 F2220 X156.500 Y182.031 E512.84731
G0 F12000 X157.000 Y181.742
G1 F2220 X157.000 Y123.259 E515.27875
G0 F12000 X157.500 Y123.548
G1 F2220 X157.500 Y181.453 E517.68616
G0 F12000 X158.000 Y181.165
G1 F2220 X158.000 Y123.836 E520.06963
G0 F12000 X158.500 Y124.125
G1 F2220 X158.500 Y180.876 E522.42906
G0 F12000 X159.000 Y180.587
G1 F2220 X159.000 Y124.414 E524.76446
G0 F12000 X159.500 Y124.702
G1 F2220 X159.500 Y180.299 E527.07592
G1 F2100 E526.67592
G0 F12000 X151.000 Y183.473
G1 F2100 E527.07592
G1 F2220 X151.000 Y121.526 E529.65137
G0 F12000 X150.500 Y121.815
G1 F2220 X150.500 Y183.184 E532.20280
G0 F12000 X150.000 Y182.896
G1 F2220 X150.000 Y122.103 E534.73028
G0 F12000 X149.500 Y122.392
G1 F2220 X149.500 Y182.607 E537.23373
G0 F12000 X149.000 Y182.318
G1 F2220 X149.000 Y122.681 E539.71315
G0 F12000 X148.500 Y122.969
G1 F2220 X148.500 Y182.030 E542.16862
G0 F12000 X148.000 Y181.741
G1 F2220 X148.000 Y123.258 E544.60006
G0 F12000 X147.500 Y123.547
G1 F2220 X147.500 Y181.452 E547.00747
G0 F12000 X147.000 Y181.164
G1 F2220 X147.000 Y123.835 E549.39093
G0 F12000 X146.500 Y124.124
G1 F2220 X146.500 Y180.875 E551.75036
G0 F12000 X146.000 Y180.586
G1 F2220 X146.000 Y124.413 E554.08576
G0 F12000 X145.500 Y124.701
G1 F2220 X145.500 Y180.298 E556.39722
G0 F12000 X145.000 Y180.009
G1 F2220 X145.000 Y124.990 E558.68464
G0 F12000 X144.500 Y125.279
G1 F2220 X144.500 Y179.720 E560.94804
G0 F12000 X144.000 Y179.431
G1 F2220 X144.000 Y125.567 E563.18744
G0 F12000 X143.500 Y125.856
G1 F2220 X143.500 Y179.143 E565.40286
G0 F12000 X143.000 Y178.854
G1 F2220 X143.000 Y126.145 E567.59424
G0 F12000 X142.500 Y126.433
G1 F2220 X142.500 Y178.565 E569.76164
G0 F12000 X142.000 Y178.277
G1 F2220 X142.000 Y126.722 E571.90505
G0 F12000 X141.500 Y127.011
G1 F2220 X141.500 Y177.988 E574.02443
G0 F12000 X141.000 Y177.699
G1 F2220 X141.000 Y127.299 E576.11981
G0 F12000 X140.500 Y127.588
G1 F2220 X140.500 Y177.411 E578.19121
G0 F12000 X140.000 Y177.122
G1 F2220 X140.000 Y127.877 E580.23858
G0 F12000 X139.500 Y128.165
G1 F2220 X139.500 Y176.833 E582.26196
G0 F12000 X139.000 Y176.545
G1 F2220 X139.000 Y128.454 E584.26135
G0 F12000 X138.500 Y128.743
G1 F2220 X138.500 Y176.256 E586.23672
G0 F12000 X138.000 Y175.967
G1 F2220 X138.000 Y129.031 E588.18809
G0 F12000 X137.500 Y129.320
G1 F2220 X137.500 Y175.679 E590.11547
G0 F12000 X137.000 Y175.390
G1 F2220 X137.000 Y129.609 E592.01882
G0 F12000 X136.500 Y129.897
G1 F2220 X136.500 Y175.101 E593.89819
G0 F12000 X136.000 Y174.813
G1 F2220 X136.000 Y130.186 E595.75356
G0 F12000 X135.500 Y130.475
G1 F2220 X135.500 Y174.524 E597.58491
G0 F12000 X135.000 Y174.235
G1 F2220 X135.000 Y130.763 E599.39226
G0 F12000 X134.500 Y131.052
G1 F2220 X134.500 Y173.947 E601.17563
G0 F12000 X134.000 Y173.658
G1 F2220 X134.000 Y131.341 E602.93497
G0 F12000 X133.500 Y131.629
G1 F2220 X133.500 Y173.369 E604.67031
G0 F12000 X133.000 Y173.081
G1 F2220 X133.000 Y131.918 E606.38167
G0 F12000 X132.500 Y132.207
G1 F2220 X132.500 Y172.792 E608.06900
G0 F12000 X132.000 Y172.503
G1 F2220 X132.000 Y132.495 E609.73234
G0 F12000 X131.500 Y132.784
G1 F2220 X131.500 Y172.215 E611.37169
G0 F12000 X131.000 Y171.926
G1 F2220 X131.000 Y133.072 E612.98705
G0 F12000 X130.500 Y133.361
G1 F2220 X130.500 Y171.637 E614.57838
G0 F12000 X130.000 Y171.348
G1 F2220 X130.000 Y133.650 E616.14568
G0 F12000 X129.500 Y133.938
G1 F2220 X129.500 Y171.060 E617.68904
G0 F12000 X129.000 Y170.771
G1 F2220 X129.000 Y134.227 E619.20836
G0 F12000 X128.500 Y134.516
G1 F2220 X128.500 Y170.482 E620.70365
G0 F12000 X128.000 Y170.194
G1 F2220 X128.000 Y134.804 E622.17500
G0 F12000 X127.500 Y135.093
G1 F2220 X127.500 Y169.905 E623.62231
G0 F12000 X127.000 Y169.616
G1 F2220 X127.000 Y135.382 E625.04560
G0 F12000 X126.500 Y135.670
G1 F2220 X126.500 Y169.328 E626.44493
G0 F12000 X126.000 Y169.032
G1 F2220 X126.000 Y135.968 E627.81958
G0 F12000 X125.500 Y136.835
G1 F2220 X125.500 Y168.167 E629.12221
G0 F12000 X125.000 Y167.301
G1 F2220 X125.000 Y137.702 E630.35279
G1 F2100 E629.95279
G0 F12000 X160.000 Y124.991
G1 F2100 E630.35279
G1 F2220 X160.000 Y180.010 E632.64022
G0 F12000 X160.500 Y179.721
G1 F2220 X160.500 Y125.280 E634.90361
G0 F12000 X161.000 Y125.569
G1 F2220 X161.000 Y179.433 E637.14302
G0 F12000 X161.500 Y179.144
G1 F2220 X161.500 Y125.857 E639.35843
G0 F12000 X162.000 Y126.146
G1 F2220 X162.000 Y178.855 E641.54982
G0 F12000 X162.500 Y178.567
G1 F2220 X162.500 Y126.435 E643.71721
G0 F12000 X163.000 Y126.723
G1 F2220 X163.000 Y178.278 E645.86062
G0 F12000 X163.500 Y177.989
G1 F2220 X163.500 Y127.012 E647.98000
G0 F12000 X164.000 Y127.301
G1 F2220 X164.000 Y177.701 E650.07539
G0 F12000 X164.500 Y177.412
G1 F2220 X164.500 Y127.589 E652.14679
G0 F12000 X165.000 Y127.878
G1 F2220 X165.000 Y177.123 E654.19416
G0 F12000 X165.500 Y176.835
G1 F2220 X165.500 Y128.167 E656.21754
G0 F12000 X166.000 Y128.455
G1 F2220 X166.000 Y176.546 E658.21693
G0 F12000 X166.500 Y176.257
G1 F2220 X166.500 Y128.744 E660.19229
G0 F12000 X167.000 Y129.033
G1 F2220 X167.000 Y175.969 E662.14366
G0 F12000 X167.500 Y175.680
G1 F2220 X167.500 Y129.321 E664.07104
G0 F12000 X168.000 Y129.610
G1 F2220 X168.000 Y175.391 E665.97440
G0 F12000 X168.500 Y175.103
G1 F2220 X168.500 Y129.899 E667.85376
G0 F12000 X169.000 Y130.187
G1 F2220 X169.000 Y174.814 E669.70914
G0 F12000 X169.500 Y174.525
G1 F2220 X169.500 Y130.476 E671.54048
G0 F12000 X170.000 Y130.765
G1 F2220 X170.000 Y174.237 E673.34784
G0 F12000 X170.500 Y173.948
G1 F2220 X170.500 Y131.053 E675.13120
G0 F12000 X171.000 Y131.342
G1 F2220 X171.000 Y173.659 E676.89054
G0 F12000 X171.500 Y173.371
G1 F2220 X171.500 Y131.631 E678.62589
G0 F12000 X172.000 Y131.919
G1 F2220 X172.000 Y173.082 E680.33725
G0 F12000 X172.500 Y172.793
G1 F2220 X172.500 Y132.208 E682.02457
G0 F12000 X173.000 Y132.497
G1 F2220 X173.000 Y172.505 E683.68791
G0 F12000 X173.500 Y172.216
G1 F2220 X173.500 Y132.785 E685.32726
G0 F12000 X174.000 Y133.074
G1 F2220 X174.000 Y171.928 E686.94263
G0 F12000 X174.500 Y171.639
G1 F2220 X174.500 Y133.363 E688.53396
G0 F12000 X175.000 Y133.652
G1 F2220 X175.000 Y171.350 E690.10126
G0 F12000 X175.500 Y171.062
G1 F2220 X175.500 Y133.940 E691.64461
G0 F12000 X176.000 Y134.229
G1 F2220 X176.000 Y170.773 E693.16393
G0 F12000 X176.500 Y170.484
G1 F2220 X176.500 Y134.518 E694.65923
G0 F12000 X177.000 Y134.806
G1 F2220 X177.000 Y170.196 E696.13057
G0 F12000 X177.500 Y169.907
G1 F2220 X177.500 Y135.095 E697.57789
G0 F12000 X178.000 Y135.384
G1 F2220 X178.000 Y169.618 E699.00117
G0 F12000 X178.500 Y169.330
G1 F2220 X178.500 Y135.672 E700.40051
G0 F12000 X179.000 Y135.968
G1 F2220 X179.000 Y169.032 E701.77515
G0 F12000 X179.500 Y168.165
G1 F2220 X179.500 Y136.833 E703.07778
G0 F12000 X180.000 Y137.699
G1 F2220 X180.000 Y167.298 E704.30837
;LAYER:3
M106 S30
G0 F12000 X180.450 Y167.271 Z0.800
;TYPE:WALL-INNER
G1 F2400 X179.267 Y169.318 E704.40666
G1 X153.681 Y184.091 E705.63498
G1 X151.319 Y184.091 E705.73318
G1 X125.733 Y169.318 E706.96151
G1 X125.055 Y168.146 E707.01780
G1 X124.550 Y167.269 E707.05987
G1 X124.550 Y137.729 E708.28800
G1 X125.733 Y135.682 E708.38630
G1 X151.319 Y120.909 E709.61462
G1 X153.681 Y120.909 E709.71282
G1 X179.267 Y135.682 E710.94114
G1 X179.944 Y136.853 E710.99738
G1 X180.450 Y137.731 E711.03951
G1 X180.450 Y167.271 E712.26764
G0 F12000 X180.950 Y167.405
;TYPE:WALL-OUTER
G1 F2400 X179.633 Y169.684 E712.37707
G1 X153.815 Y184.591 E713.61653
G1 X151.185 Y184.591 E713.72588
G1 X125.367 Y169.684 E714.96534
G1 X124.050 Y167.405 E715.07477
G1 X124.050 Y137.595 E716.31413
G1 X125.367 Y135.316 E716.42356
G1 X151.185 Y120.409 E717.66302
G1 X153.815 Y120.409 E717.77237
G1 X179.633 Y135.316 E719.01183
G1 X180.950 Y137.595 E719.12126
G1 X180.950 Y167.405 E720.36062
G0 F12000 X180.274 Y167.000
;TYPE:SKIN
G1 F2400 X124.724 Y167.000 E722.67012
G0 F12000 X124.724 Y166.500
G1 F2400 X180.274 Y166.500 E724.97962
G0 F12000 X180.274 Y166.000
G1 F2400 X124.724 Y166.000 E727.28912
G0 F12000 X124.724 Y165.500
G1 F2400 X180.274 Y165.500 E729.59862
G0 F12000 X180.274 Y165.000
G1 F2400 X124.724 Y165.000 E731.90812
G0 F12000 X124.724 Y164.500
G1 F2400 X180.274 Y164.500 E734.21762
G0 F12000 X180.274 Y164.000
G1 F2400 X124.724 Y164.000 E736.52712
G0 F12000 X124.724 Y163.500
G1 F2400 X180.274 Y163.500 E738.83662
G0 F12000 X180.274 Y163.000
G1 F2400 X124.724 Y163.000 E741.14612
G0 F12000 X124.724 Y162.500
G1 F2400 X180.274 Y162.500 E743.45562
G0 F12000 X180.274 Y162.000
G1 F2400 X124.724 Y162.000 E745.76512
G0 F12000 X124.724 Y161.500
G1 F2400 X180.274 Y161.500 E748.07462
G0 F12000 X180.274 Y161.000
G1 F2400 X124.724 Y161.000 E750.38412
G0 F12000 X124.724 Y160.500
G1 F2400 X180.274 Y160.500 E752.69362
G0 F12000 X180.274 Y160.000
G1 F2400 X124.724 Y160.000 E755.00312
G1 F2100 E754.60312
G0 F12000 X124.884 Y167.500
G1 F2100 E755.00312
G1 F2400 X180.114 Y167.500 E757.29932
G0 F12000 X179.825 Y168.000
G1 F2400 X125.173 Y168.000 E759.57149
G0 F12000 X125.461 Y168.500
G1 F2400 X179.536 Y168.500 E761.81966
G0 F12000 X179.247 Y169.000
G1 F2400 X125.750 Y169.000 E764.04381
G0 F12000 X126.399 Y169.500
G1 F2400 X178.598 Y169.500 E766.21399
G0 F12000 X177.732 Y170.000
G1 F2400 X127.265 Y170.000 E768.31217
G0 F12000 X128.131 Y170.500
G1 F2400 X176.866 Y170.500 E770.33833
G0 F12000 X176.000 Y171.000
G1 F2400 X128.997 Y171.000 E772.29249
G0 F12000 X129.863 Y171.500
G1 F2400 X175.134 Y171.500 E774.17464
G0 F12000 X174.268 Y172.000
G1 F2400 X130.729 Y172.000 E775.98478
G0 F12000 X131.595 Y172.500
G1 F2400 X173.402 Y172.500 E777.72292
G0 F12000 X172.536 Y173.000
G1 F2400 X132.461 Y173.000 E779.38904
G0 F12000 X133.327 Y173.500
G1 F2400 X171.670 Y173.500 E780.98316
G0 F12000 X170.804 Y174.000
G1 F2400 X134.193 Y174.000 E782.50527
G0 F12000 X135.059 Y174.500
G1 F2400 X169.938 Y174.500 E783.95537
G0 F12000 X169.072 Y175.000
G1 F2400 X135.925 Y175.000 E785.33346
G0 F12000 X136.791 Y175.500
G1 F2400 X168.206 Y175.500 E786.63954
G0 F12000 X167.340 Y176.000
G1 F2400 X137.657 Y176.000 E787.87362
G0 F12000 X138.523 Y176.500
G1 F2400 X166.474 Y176.500 E789.03568
G0 F12000 X165.608 Y177.000
G1 F2400 X139.389 Y177.000 E790.12574
G0 F12000 X140.255 Y177.500
G1 F2400 X164.742 Y177.500 E791.14380
G0 F12000 X163.876 Y178.000
G1 F2400 X141.121 Y178.000 E792.08984
G0 F12000 X141.987 Y178.500
G1 F2400 X163.010 Y178.500 E792.96387
G0 F12000 X162.144 Y179.000
G1 F2400 X142.853 Y179.000 E793.76590
G0 F12000 X143.719 Y179.500
G1 F2400 X161.278 Y179.500 E794.49592
G0 F12000 X160.412 Y180.000
G1 F2400 X144.585 Y180.000 E795.15393
G0 F12000 X145.451 Y180.500
G1 F2400 X159.546 Y180.500 E795.73993
G0 F12000 X158.680 Y181.000
G1 F2400 X146.317 Y181.000 E796.25392
G0 F12000 X147.183 Y181.500
G1 F2400 X157.814 Y181.500 E796.69591
G0 F12000 X156.948 Y182.000
G1 F2400 X148.049 Y182.000 E797.06589
G0 F12000 X148.915 Y182.500
G1 F2400 X156.082 Y182.500 E797.36386
G0 F12000 X155.216 Y183.000
G1 F2400 X149.781 Y183.000 E797.58982
G0 F12000 X150.647 Y183.500
G1 F2400 X154.350 Y183.500 E797.74377
G1 F2100 E797.34377
G0 F12000 X180.274 Y159.500
G1 F2100 E797.74377
G1 F2400 X124.724 Y159.500 E800.05327
G0 F12000 X124.724 Y159.000
G1 F2400 X180.274 Y159.000 E802.36277
G0 F12000 X180.274 Y158.500
G1 F2400 X124.724 Y158.500 E804.67227
G0 F12000 X124.724 Y158.000
G1 F2400 X180.274 Y158.000 E806.98177
G0 F12000 X180.274 Y157.500
G1 F2400 X124.724 Y157.500 E809.29127
G0 F12000 X124.724 Y157.000
G1 F2400 X180.274 Y157.000 E811.60077
G0 F12000 X180.274 Y156.500
G1 F2400 X124.724 Y156.500 E813.91027
G0 F12000 X124.724 Y156.000
G1 F2400 X180.274 Y156.000 E816.21978
G0 F12000 X180.274 Y155.500
G1 F2400 X124.724 Y155.500 E818.52928
G0 F12000 X124.724 Y155.000
G1 F2400 X180.274 Y155.000 E820.83878
G0 F12000 X180.274 Y154.500
G1 F2400 X124.724 Y154.500 E823.14828
G0 F12000 X124.724 Y154.000
G1 F2400 X180.274 Y154.000 E825.45778
G0 F12000 X180.274 Y153.500
G1 F2400 X124.724 Y153.500 E827.76728
G0 F12000 X124.724 Y153.000
G1 F2400 X180.274 Y153.000 E830.07678
G0 F12000 X180.274 Y152.500
G1 F2400 X124.724 Y152.500 E832.38628
G0 F12000 X124.724 Y152.000
G1 F2400 X180.274 Y152.000 E834.69578
G0 F12000 X180.274 Y151.500
G1 F2400 X124.724 Y151.500 E837.00528
G0 F12000 X124.724 Y151.000
G1 F2400 X180.274 Y151.000 E839.31478
G0 F12000 X180.274 Y150.500
G1 F2400 X124.724 Y150.500 E841.62428
G0 F12000 X124.724 Y150.000
G1 F2400 X180.274 Y150.000 E843.93378
G0 F12000 X180.274 Y149.500
G1 F2400 X124.724 Y149.500 E846.24328
G0 F12000 X124.724 Y149.000
G1 F2400 X180.274 Y149.000 E848.55278
G0 F12000 X180.274 Y148.500
G1 F2400 X124.724 Y148.500 E850.86228
G0 F12000 X124.724 Y148.000
G1 F2400 X180.274 Y148.000 E853.17179
G0 F12000 X180.274 Y147.500
G1 F2400 X124.724 Y147.500 E855.48129
G0 F12000 X124.724 Y147.000
G1 F2400 X180.274 Y147.000 E857.79079
G0 F12000 X180.274 Y146.500
G1 F2400 X124.724 Y146.500 E860.10029
G0 F12000 X124.724 Y146.000
G1 F2400 X180.274 Y146.000 E862.40979
G0 F12000 X180.274 Y145.500
G1 F2400 X124.724 Y145.500 E864.71929
G0 F12000 X124.724 Y145.000
G1 F2400 X180.274 Y145.000 E867.02879
G0 F12000 X180.274 Y144.500
G1 F2400 X124.724 Y144.500 E869.33829
G0 F12000 X124.724 Y144.000
G1 F2400 X180.274 Y144.000 E871.64779
G0 F12000 X180.274 Y143.500
G1 F2400 X124.724 Y143.500 E873.95729
G0 F12000 X124.724 Y143.000
G1 F2400 X180.274 Y143.000 E876.26679
G0 F12000 X180.274 Y142.500
G1 F2400 X124.724 Y142.500 E878.57629
G0 F12000 X124.724 Y142.000
G1 F2400 X180.274 Y142.000 E880.88579
G0 F12000 X180.274 Y141.500
G1 F2400 X124.724 Y141.500 E883.19529
G0 F12000 X124.724 Y141.000
G1 F2400 X180.274 Y141.000 E885.50479
G0 F12000 X180.274 Y140.500
G1 F2400 X124.724 Y140.500 E887.81429
G0 F12000 X124.724 Y140.000
G1 F2400 X180.274 Y140.000 E890.12380
G0 F12000 X180.274 Y139.500
G1 F2400 X124.724 Y139.500 E892.43330
G0 F12000 X124.724 Y139.000
G1 F2400 X180.274 Y139.000 E894.74280
G0 F12000 X180.274 Y138.500
G1 F2400 X124.724 Y138.500 E897.05230
G0 F12000 X124.724 Y138.000
G1 F2400 X180.274 Y138.000 E899.36180
G0 F12000 X180.115 Y137.500
G1 F2400 X124.883 Y137.500 E901.65808
G0 F12000 X125.172 Y137.000
G1 F2400 X179.827 Y137.000 E903.93037
G0 F12000 X179.538 Y136.500
G1 F2400 X125.461 Y136.500 E906.17863
G0 F12000 X125.750 Y136.000
G1 F2400 X179.249 Y136.000 E908.40286
G0 F12000 X178.603 Y135.500
G1 F2400 X126.396 Y135.500 E910.57337
G0 F12000 X127.262 Y135.000
G1 F2400 X177.737 Y135.000 E912.67188
G0 F12000 X176.871 Y134.500
G1 F2400 X128.128 Y134.500 E914.69838
G0 F12000 X128.994 Y134.000
G1 F2400 X176.005 Y134.000 E916.65287
G0 F12000 X175.139 Y133.500
G1 F2400 X129.860 Y133.500 E918.53535
G0 F12000 X130.726 Y133.000
G1 F2400 X174.273 Y133.000 E920.34582
G0 F12000 X173.407 Y132.500
G1 F2400 X131.592 Y132.500 E922.08429
G0 F12000 X132.458 Y132.000
G1 F2400 X172.541 Y132.000 E923.75075
G0 F12000 X171.675 Y131.500
G1 F2400 X133.324 Y131.500 E925.34520
G0 F12000 X134.190 Y131.000
G1 F2400 X170.809 Y131.000 E926.86764
G0 F12000 X169.943 Y130.500
G1 F2400 X135.056 Y130.500 E928.31807
G0 F12000 X135.922 Y130.000
G1 F2400 X169.077 Y130.000 E929.69650
G0 F12000 X168.211 Y129.500
G1 F2400 X136.788 Y129.500 E931.00291
G0 F12000 X137.654 Y129.000
G1 F2400 X167.345 Y129.000 E932.23732
G0 F12000 X166.479 Y128.500
G1 F2400 X138.520 Y128.500 E933.39972
G0 F12000 X139.386 Y128.000
G1 F2400 X165.613 Y128.000 E934.49011
G0 F12000 X164.747 Y127.500
G1 F2400 X140.252 Y127.500 E935.50850
G0 F12000 X141.118 Y127.000
G1 F2400 X163.881 Y127.000 E936.45487
G0 F12000 X163.015 Y126.500
G1 F2400 X141.984 Y126.500 E937.32924
G0 F12000 X142.850 Y126.000
G1 F2400 X162.149 Y126.000 E938.13160
G0 F12000 X161.283 Y125.500
G1 F2400 X143.716 Y125.500 E938.86195
G0 F12000 X144.582 Y125.000
G1 F2400 X160.417 Y125.000 E939.52029
G0 F12000 X159.551 Y124.500
G1 F2400 X145.448 Y124.500 E940.10663
G0 F12000 X146.314 Y124.000
G1 F2400 X158.685 Y124.000 E940.62095
G0 F12000 X157.819 Y123.500
G1 F2400 X147.180 Y123.500 E941.06327
G0 F12000 X148.046 Y123.000
G1 F2400 X156.953 Y123.000 E941.43358
G0 F12000 X156.087 Y122.500
G1 F2400 X148.912 Y122.500 E941.73188
G0 F12000 X149.778 Y122.000
G1 F2400 X155.221 Y122.000 E941.95818
G0 F12000 X154.355 Y121.500
G1 F2400 X150.644 Y121.500 E942.11246
;LAYER:4
M106 S40
G0 F12000 X151.263 Y120.709 Z1.000
;TYPE:WALL-INNER
G1 F2700 X153.735 Y120.709 E942.21524
G1 X179.413 Y135.536 E943.44799
G1 X179.971 Y136.499 E943.49427
G1 X180.650 Y137.677 E943.55080
G1 X180.650 Y167.325 E944.78342
G1 X179.412 Y169.465 E944.88620
G1 X153.737 Y184.291 E946.11883
G1 X151.265 Y184.291 E946.22161
G1 X125.587 Y169.464 E947.45436
G1 X125.028 Y168.500 E947.50069
G1 X124.350 Y167.323 E947.55716
G1 X124.350 Y137.675 E948.78979
G1 X125.588 Y135.535 E948.89257
G1 X151.263 Y120.709 E950.12520
G0 F12000 X151.129 Y120.209
;TYPE:WALL-OUTER
G1 F2700 X153.869 Y120.209 E950.23912
G1 X179.779 Y135.170 E951.48301
G1 X181.150 Y137.541 E951.59688
G1 X181.150 Y167.459 E952.84073
G1 X179.778 Y169.831 E952.95465
G1 X153.871 Y184.791 E954.19842
G1 X151.131 Y184.791 E954.31234
G1 X125.221 Y169.830 E955.55623
G1 X123.850 Y167.459 E955.67010
G1 X123.850 Y137.541 E956.91395
G1 X125.222 Y135.169 E957.02787
G1 X151.129 Y120.209 E958.27164
G0 F12000 X151.500 Y120.884
;TYPE:SKIN
G1 F2700 X151.500 Y184.116 E960.90052
G0 F12000 X152.000 Y184.116
G1 F2700 X152.000 Y120.884 E963.52940
G0 F12000 X152.500 Y120.884
G1 F2700 X152.500 Y184.116 E966.15828
G0 F12000 X153.000 Y184.116
G1 F2700 X153.000 Y120.884 E968.78716
G0 F12000 X153.500 Y120.884
G1 F2700 X153.500 Y184.116 E971.41604
G0 F12000 X154.000 Y183.938
G1 F2700 X154.000 Y121.064 E974.03004
G0 F12000 X154.500 Y121.353
G1 F2700 X154.500 Y183.649 E976.62001
G0 F12000 X155.000 Y183.361
G1 F2700 X155.000 Y121.642 E979.18599
G0 F12000 X155.500 Y121.930
G1 F2700 X155.500 Y183.072 E981.72797
G0 F12000 X156.000 Y182.783
G1 F2700 X156.000 Y122.219 E984.24593
G0 F12000 X156.500 Y122.508
G1 F2700 X156.500 Y182.494 E986.73986
G0 F12000 X157.000 Y182.206
G1 F2700 X157.000 Y122.796 E989.20984
G0 F12000 X157.500 Y123.085
G1 F2700 X157.500 Y181.917 E991.65579
G0 F12000 X158.000 Y181.628
G1 F2700 X158.000 Y123.374 E994.07771
G0 F12000 X158.500 Y123.663
G1 F2700 X158.500 Y181.339 E996.47560
G0 F12000 X159.000 Y181.051
G1 F2700 X159.000 Y123.951 E998.84954
G0 F12000 X159.500 Y124.240
G1 F2700 X159.500 Y180.762 E1001.19946
G1 F2100 E1000.79946
G0 F12000 X151.000 Y183.936
G1 F2100 E1001.19946
G1 F2700 X151.000 Y121.062 E1003.81345
G0 F12000 X150.500 Y121.351
G1 F2700 X150.500 Y183.647 E1006.40342
G0 F12000 X150.000 Y183.358
G1 F2700 X150.000 Y121.639 E1008.96940
G0 F12000 X149.500 Y121.928
G1 F2700 X149.500 Y183.070 E1011.51139
G0 F12000 X149.000 Y182.781
G1 F2700 X149.000 Y122.217 E1014.02934
G0 F12000 X148.500 Y122.506
G1 F2700 X148.500 Y182.492 E1016.52327
G0 F12000 X148.000 Y182.204
G1 F2700 X148.000 Y122.794 E1018.99325
G0 F12000 X147.500 Y123.083
G1 F2700 X147.500 Y181.915 E1021.43920
G0 F12000 X147.000 Y181.626
G1 F2700 X147.000 Y123.372 E1023.86112
G0 F12000 X146.500 Y123.661
G1 F2700 X146.500 Y181.337 E1026.25901
G0 F12000 X146.000 Y181.049
G1 F2700 X146.000 Y123.949 E1028.63296
G0 F12000 X145.500 Y124.238
G1 F2700 X145.500 Y180.760 E1030.98287
G0 F12000 X145.000 Y180.471
G1 F2700 X145.000 Y124.527 E1033.30875
G0 F12000 X144.500 Y124.815
G1 F2700 X144.500 Y180.183 E1035.61068
G0 F12000 X144.000 Y179.894
G1 F2700 X144.000 Y125.104 E1037.88859
G0 F12000 X143.500 Y125.393
G1 F2700 X143.500 Y179.605 E1040.14246
G0 F12000 X143.000 Y179.316
G1 F2700 X143.000 Y125.682 E1042.37230
G0 F12000 X142.500 Y125.970
G1 F2700 X142.500 Y179.028 E1044.57820
G0 F12000 X142.000 Y178.739
G1 F2700 X142.000 Y126.259 E1046.76006
G0 F12000 X141.500 Y126.548
G1 F2700 X141.500 Y178.450 E1048.91790
G0 F12000 X141.000 Y178.162
G1 F2700 X141.000 Y126.837 E1051.05174
G0 F12000 X140.500 Y127.125
G1 F2700 X140.500 Y177.873 E1053.16160
G0 F12000 X140.000 Y177.584
G1 F2700 X140.000 Y127.414 E1055.24742
G0 F12000 X139.500 Y127.703
G1 F2700 X139.500 Y177.295 E1057.30922
G0 F12000 X139.000 Y177.007
G1 F2700 X139.000 Y127.991 E1059.34707
G0 F12000 X138.500 Y128.280
G1 F2700 X138.500 Y176.718 E1061.36089
G0 F12000 X138.000 Y176.429
G1 F2700 X138.000 Y128.569 E1063.35067
G0 F12000 X137.500 Y128.858
G1 F2700 X137.500 Y176.141 E1065.31647
G0 F12000 X137.000 Y175.852
G1 F2700 X137.000 Y129.146 E1067.25828
G0 F12000 X136.500 Y129.435
G1 F2700 X136.500 Y175.563 E1069.17606
G0 F12000 X136.000 Y175.274
G1 F2700 X136.000 Y129.724 E1071.06981
G0 F12000 X135.500 Y130.013
G1 F2700 X135.500 Y174.986 E1072.93957
G0 F12000 X135.000 Y174.697
G1 F2700 X135.000 Y130.301 E1074.78534
G0 F12000 X134.500 Y130.590
G1 F2700 X134.500 Y174.408 E1076.60708
G0 F12000 X134.000 Y174.120
G1 F2700 X134.000 Y130.879 E1078.40483
G0 F12000 X133.500 Y131.168
G1 F2700 X133.500 Y173.831 E1080.17856
G0 F12000 X133.000 Y173.542
G1 F2700 X133.000 Y131.456 E1081.92829
G0 F12000 X132.500 Y131.745
G1 F2700 X132.500 Y173.253 E1083.65399
G0 F12000 X132.000 Y172.965
G1 F2700 X132.000 Y132.034 E1085.35570
G0 F12000 X131.500 Y132.322
G1 F2700 X131.500 Y172.676 E1087.03343
G0 F12000 X131.000 Y172.387
G1 F2700 X131.000 Y132.611 E1088.68712
G0 F12000 X130.500 Y132.900
G1 F2700 X130.500 Y172.099 E1090.31683
G0 F12000 X130.000 Y171.810
G1 F2700 X130.000 Y133.189 E1091.92250
G0 F12000 X129.500 Y133.477
G1 F2700 X129.500 Y171.521 E1093.50419
G0 F12000 X129.000 Y171.232
G1 F2700 X129.000 Y133.766 E1095.06184
G0 F12000 X128.500 Y134.055
G1 F2700 X128.500 Y170.944 E1096.59551
G0 F12000 X128.000 Y170.655
G1 F2700 X128.000 Y134.344 E1098.10515
G0 F12000 X127.500 Y134.632
G1 F2700 X127.500 Y170.366 E1099.59079
G0 F12000 X127.000 Y170.078
G1 F2700 X127.000 Y134.921 E1101.05245
G0 F12000 X126.500 Y135.210
G1 F2700 X126.500 Y169.789 E1102.49008
G0 F12000 X126.000 Y169.500
G1 F2700 X126.000 Y135.499 E1103.90368
G0 F12000 X125.500 Y136.036
G1 F2700 X125.500 Y168.963 E1105.27262
G0 F12000 X125.000 Y168.098
G1 F2700 X125.000 Y136.900 E1106.56968
G1 F2100 E1106.16968
G0 F12000 X160.000 Y124.529
G1 F2100 E1106.56968
G1 F2700 X160.000 Y180.473 E1108.89556
G0 F12000 X160.500 Y180.185
G1 F2700 X160.500 Y124.817 E1111.19750
G0 F12000 X161.000 Y125.106
G1 F2700 X161.000 Y179.896 E1113.47540
G0 F12000 X161.500 Y179.607
G1 F2700 X161.500 Y125.395 E1115.72928
G0 F12000 X162.000 Y125.684
G1 F2700 X162.000 Y179.318 E1117.95912
G0 F12000 X162.500 Y179.030
G1 F2700 X162.500 Y125.972 E1120.16501
G0 F12000 X163.000 Y126.261
G1 F2700 X163.000 Y178.741 E1122.34688
G0 F12000 X163.500 Y178.452
G1 F2700 X163.500 Y126.550 E1124.50471
G0 F12000 X164.000 Y126.838
G1 F2700 X164.000 Y178.163 E1126.63856
G0 F12000 X164.500 Y177.875
G1 F2700 X164.500 Y127.127 E1128.74841
G0 F12000 X165.000 Y127.416
G1 F2700 X165.000 Y177.586 E1130.83424
G0 F12000 X165.500 Y177.297
G1 F2700 X165.500 Y127.705 E1132.89604
G0 F12000 X166.000 Y127.993
G1 F2700 X166.000 Y177.009 E1134.93389
G0 F12000 X166.500 Y176.720
G1 F2700 X166.500 Y128.282 E1136.94770
G0 F12000 X167.000 Y128.571
G1 F2700 X167.000 Y176.431 E1138.93749
G0 F12000 X167.500 Y176.142
G1 F2700 X167.500 Y128.859 E1140.90329
G0 F12000 X168.000 Y129.148
G1 F2700 X168.000 Y175.854 E1142.84510
G0 F12000 X168.500 Y175.565
G1 F2700 X168.500 Y129.437 E1144.76288
G0 F12000 X169.000 Y129.726
G1 F2700 X169.000 Y175.276 E1146.65663
G0 F12000 X169.500 Y174.987
G1 F2700 X169.500 Y130.014 E1148.52639
G0 F12000 X170.000 Y130.303
G1 F2700 X170.000 Y174.699 E1150.37216
G0 F12000 X170.500 Y174.410
G1 F2700 X170.500 Y130.592 E1152.19390
G0 F12000 X171.000 Y130.880
G1 F2700 X171.000 Y174.121 E1153.99165
G0 F12000 X171.500 Y173.832
G1 F2700 X171.500 Y131.169 E1155.76537
G0 F12000 X172.000 Y131.458
G1 F2700 X172.000 Y173.544 E1157.51511
G0 F12000 X172.500 Y173.255
G1 F2700 X172.500 Y131.747 E1159.24081
G0 F12000 X173.000 Y132.035
G1 F2700 X173.000 Y172.966 E1160.94252
G0 F12000 X173.500 Y172.678
G1 F2700 X173.500 Y132.324 E1162.62025
G0 F12000 X174.000 Y132.613
G1 F2700 X174.000 Y172.389 E1164.27394
G0 F12000 X174.500 Y172.100
G1 F2700 X174.500 Y132.901 E1165.90364
G0 F12000 X175.000 Y133.190
G1 F2700 X175.000 Y171.811 E1167.50932
G0 F12000 X175.500 Y171.523
G1 F2700 X175.500 Y133.479 E1169.09100
G0 F12000 X176.000 Y133.768
G1 F2700 X176.000 Y171.234 E1170.64866
G0 F12000 X176.500 Y170.945
G1 F2700 X176.500 Y134.056 E1172.18233
G0 F12000 X177.000 Y134.345
G1 F2700 X177.000 Y170.656 E1173.69196
G0 F12000 X177.500 Y170.368
G1 F2700 X177.500 Y134.634 E1175.17761
G0 F12000 X178.000 Y134.922
G1 F2700 X178.000 Y170.079 E1176.63927
G0 F12000 X178.500 Y169.790
G1 F2700 X178.500 Y135.211 E1178.07690
G0 F12000 X179.000 Y135.500
G1 F2700 X179.000 Y169.501 E1179.49049
G0 F12000 X179.500 Y168.964
G1 F2700 X179.500 Y136.037 E1180.85944
G0 F12000 X180.000 Y136.902
G1 F2700 X180.000 Y168.100 E1182.15650
;LAYER:5
M106 S51
G0 F12000 X180.850 Y167.376 Z1.200
;TYPE:WALL-INNER
G1 F2700 X179.559 Y169.612 E1182.26384
G1 X153.788 Y184.491 E1183.50103
G1 X151.212 Y184.491 E1183.60813
G1 X125.440 Y169.611 E1184.84537
G1 X124.150 Y167.378 E1184.95259
G1 X124.150 Y137.624 E1186.18962
G1 X125.441 Y135.388 E1186.29696
G1 X151.212 Y120.509 E1187.53415
G1 X153.788 Y120.509 E1187.64125
G1 X179.560 Y135.389 E1188.87849
G1 X180.850 Y137.622 E1188.98571
G1 X180.850 Y167.376 E1190.22273
G1 F2100 E1189.82273
G0 F12000 X159.618 Y154.950
G1 F2100 E1190.22273
G1 F2700 X159.878 Y154.383 E1190.24867
G1 X160.164 Y153.569 E1190.28454
G1 X160.385 Y152.553 E1190.32776
G1 X160.462 Y151.625 E1190.36648
G1 X160.465 Y151.476 E1190.37267
G1 X160.422 Y150.552 E1190.41113
G1 X160.266 Y149.625 E1190.45021
G1 X160.008 Y148.737 E1190.48866
G1 X159.599 Y147.751 E1190.53304
G1 X159.160 Y146.984 E1190.56978
G1 X159.014 Y146.755 E1190.58107
G1 X158.645 Y146.263 E1190.60664
G1 X158.175 Y145.712 E1190.63675
G1 X157.481 Y145.037 E1190.67700
G1 X157.295 Y144.888 E1190.68691
G1 X156.723 Y144.553 E1190.71447
G1 X156.040 Y144.227 E1190.74593
G1 X155.113 Y143.890 E1190.78694
G1 X154.075 Y143.639 E1190.83134
G1 X153.091 Y143.520 E1190.87255
G1 X152.133 Y143.510 E1190.91238
G1 X151.994 Y143.514 E1190.91816
G1 X151.130 Y143.608 E1190.95429
G1 X150.077 Y143.832 E1190.99905
G1 X149.155 Y144.146 E1191.03955
G1 X148.317 Y144.538 E1191.07801
G1 X148.147 Y144.622 E1191.08589
G1 X147.353 Y145.118 E1191.12481
G1 X146.622 Y145.690 E1191.16340
G1 X145.976 Y146.311 E1191.20066
G1 X145.770 Y146.524 E1191.21298
G1 X145.233 Y147.192 E1191.24861
G1 X144.881 Y147.711 E1191.27468
G1 X144.764 Y147.912 E1191.28435
G1 X144.515 Y148.530 E1191.31205
G1 X144.296 Y149.248 E1191.34326
G1 X144.111 Y150.161 E1191.38199
G1 X144.025 Y151.112 E1191.42169
G1 X144.023 Y151.198 E1191.42527
G1 X144.045 Y152.063 E1191.46124
G1 X144.177 Y153.030 E1191.50182
G1 X144.409 Y153.932 E1191.54054
G1 X144.762 Y154.844 E1191.58120
G1 X145.195 Y155.660 E1191.61960
G1 X145.754 Y156.465 E1191.66035
G1 X146.363 Y157.143 E1191.69824
G1 X147.100 Y157.787 E1191.73893
G1 X147.832 Y158.275 E1191.77551
G1 X148.365 Y158.564 E1191.80071
G1 X148.838 Y158.773 E1191.82221
G1 X149.625 Y159.032 E1191.85666
G1 X150.339 Y159.184 E1191.88701
G1 X150.914 Y159.250 E1191.91107
G1 X151.483 Y159.266 E1191.93474
G1 X151.967 Y159.323 E1191.95500
G1 X152.511 Y159.344 E1191.97763
G1 X153.318 Y159.295 E1192.01124
G1 X154.081 Y159.152 E1192.04352
G1 X154.392 Y159.075 E1192.05684
G1 X154.961 Y158.882 E1192.08182
G1 X155.761 Y158.516 E1192.11839
G1 X156.259 Y158.209 E1192.14272
G1 X156.463 Y158.076 E1192.15284
G1 X156.888 Y157.853 E1192.17280
G1 X157.350 Y157.553 E1192.19570
G1 X157.773 Y157.233 E1192.21775
G1 X158.464 Y156.589 E1192.25702
G1 X158.814 Y156.186 E1192.27921
G1 X159.131 Y155.759 E1192.30132
G1 X159.618 Y154.950 E1192.34058
G0 F12000 X159.175 Y154.716
;TYPE:WALL-OUTER
G1 F2700 X159.414 Y154.196 E1192.36437
G1 X159.682 Y153.432 E1192.39803
G1 X159.890 Y152.479 E1192.43859
G1 X159.963 Y151.600 E1192.47526
G1 X159.965 Y151.483 E1192.48012
G1 X159.924 Y150.605 E1192.51667
G1 X159.778 Y149.737 E1192.55326
G1 X159.535 Y148.903 E1192.58938
G1 X159.149 Y147.972 E1192.63128
G1 X158.732 Y147.243 E1192.66619
G1 X158.254 Y146.576 E1192.70031
G1 X157.810 Y146.054 E1192.72880
G1 X157.150 Y145.412 E1192.76708
G1 X157.011 Y145.301 E1192.77448
G1 X156.488 Y144.995 E1192.79967
G1 X155.847 Y144.688 E1192.82922
G1 X154.968 Y144.369 E1192.86809
G1 X153.986 Y144.132 E1192.91009
G1 X153.058 Y144.020 E1192.94895
G1 X152.138 Y144.010 E1192.98721
G1 X152.029 Y144.013 E1192.99174
G1 X151.209 Y144.103 E1193.02604
G1 X150.210 Y144.315 E1193.06849
G1 X149.342 Y144.611 E1193.10662
G1 X148.534 Y144.989 E1193.14371
G1 X148.391 Y145.059 E1193.15033
G1 X147.633 Y145.533 E1193.18750
G1 X146.942 Y146.075 E1193.22401
G1 X146.758 Y146.233 E1193.23409
G1 X146.333 Y146.661 E1193.25917
G1 X146.145 Y146.855 E1193.27040
G1 X145.636 Y147.489 E1193.30420
G1 X145.304 Y147.978 E1193.32877
G1 X145.214 Y148.133 E1193.33623
G1 X144.987 Y148.697 E1193.36150
G1 X144.781 Y149.371 E1193.39080
G1 X144.606 Y150.234 E1193.42741
G1 X144.524 Y151.141 E1193.46528
G1 X144.523 Y151.197 E1193.46760
G1 X144.544 Y152.023 E1193.50196
G1 X144.668 Y152.934 E1193.54018
G1 X144.886 Y153.779 E1193.57646
G1 X145.217 Y154.636 E1193.61466
G1 X145.622 Y155.399 E1193.65057
G1 X146.147 Y156.154 E1193.68880
G1 X146.715 Y156.786 E1193.72413
G1 X147.405 Y157.389 E1193.76223
G1 X148.091 Y157.846 E1193.79650
G1 X148.586 Y158.115 E1193.81992
G1 X149.018 Y158.306 E1193.83956
G1 X149.756 Y158.549 E1193.87186
G1 X150.420 Y158.690 E1193.90008
G1 X150.949 Y158.751 E1193.92222
G1 X151.515 Y158.767 E1193.94576
G1 X152.006 Y158.824 E1193.96631
G1 X152.505 Y158.843 E1193.98707
G1 X153.257 Y158.798 E1194.01840
G1 X153.975 Y158.663 E1194.04877
G1 X154.251 Y158.595 E1194.06059
G1 X154.776 Y158.417 E1194.08363
G1 X155.525 Y158.074 E1194.11788
G1 X155.992 Y157.786 E1194.14069
G1 X156.211 Y157.644 E1194.15155
G1 X156.635 Y157.421 E1194.17146
G1 X157.063 Y157.143 E1194.19268
G1 X157.451 Y156.850 E1194.21290
G1 X158.104 Y156.241 E1194.25002
G1 X158.424 Y155.873 E1194.27029
G1 X158.715 Y155.480 E1194.29062
G1 X159.175 Y154.716 E1194.32770
G1 F2100 E1193.92770
G0 F12000 X181.350 Y167.510
G1 F2100 E1194.32770
G1 F2700 X179.925 Y169.978 E1194.44618
G1 X153.922 Y184.991 E1195.69451
G1 X151.078 Y184.991 E1195.81275
G1 X125.074 Y169.977 E1197.06113
G1 X123.650 Y167.512 E1197.17949
G1 X123.650 Y137.490 E1198.42766
G1 X125.075 Y135.022 E1198.54614
G1 X151.078 Y120.009 E1199.79447
G1 X153.922 Y120.009 E1199.91271
G1 X179.926 Y135.023 E1201.16109
G1 X181.350 Y137.488 E1201.27944
G1 X181.350 Y167.510 E1202.52761
G1 F2100 E1202.12761
G0 F12000 X179.520 Y168.829
;TYPE:FILL
G1 F2100 E1202.52761
G1 F2700 X159.414 Y157.221 E1203.49283
G1 F2100 E1203.09283
G0 F12000 X153.131 Y159.876
G1 F2100 E1203.49283
G1 F2700 X153.131 Y184.066 E1204.49854
G1 F2100 E1204.09854
G0 F12000 X160.187 Y180.303
G1 F2100 E1204.49854
G1 F2700 X124.574 Y159.742 E1206.20820
G1 F2100 E1205.80820
G0 F12000 X124.575 Y156.570
G1 F2100 E1206.20820
G1 F2700 X169.987 Y130.352 E1208.38828
G1 F2100 E1207.98828
G0 F12000 X172.735 Y131.940
G1 F2100 E1208.38828
G1 F2700 X172.735 Y173.061 E1210.09789
G1 F2100 E1209.69789
G0 F12000 X169.989 Y174.644
G1 F2100 E1210.09789
G1 F2700 X124.574 Y148.424 E1212.27811
G1 F2100 E1211.87811
G0 F12000 X124.575 Y145.252
G1 F2100 E1212.27811
G1 F2700 X160.185 Y124.693 E1213.98763
G1 F2100 E1213.58763
G0 F12000 X162.933 Y126.280
G1 F2100 E1213.98763
G1 F2700 X162.933 Y178.721 E1216.16787
G1 F2100 E1215.76787
G0 F12000 X143.545 Y179.573
G1 F2100 E1216.16787
G1 F2700 X180.424 Y158.281 E1217.93832
G0 F12000 X180.424 Y158.032
G1 F2700 X133.747 Y131.083 E1220.17913
G0 F12000 X133.527 Y131.210
G1 F2700 X133.527 Y173.789 E1221.94936
G0 F12000 X133.742 Y173.914
G1 F2700 X180.423 Y146.963 E1224.19037
G0 F12000 X180.425 Y146.714
G1 F2700 X143.548 Y125.424 E1225.96069
G0 F12000 X143.329 Y125.551
G1 F2700 X143.329 Y179.448 E1228.20147
G1 F2100 E1227.80147
G0 F12000 X124.845 Y167.733
G1 F2100 E1228.20147
G1 F2700 X145.204 Y155.979 E1229.17884
G1 F2100 E1228.77884
G0 F12000 X144.336 Y148.515
G1 F2100 E1229.17884
G1 F2700 X124.847 Y137.263 E1230.11444
G1 F2100 E1229.71444
G0 F12000 X153.131 Y143.348
G1 F2100 E1230.11444
G1 F2700 X153.131 Y120.934 E1231.04631
G1 F2100 E1230.64631
G0 F12000 X159.715 Y147.601
G1 F2100 E1231.04631
G1 F2700 X179.518 Y136.167 E1231.99701
G0 F12000 X179.712 Y136.000
;TYPE:SKIN
G1 F2700 X178.468 Y136.000 E1232.04872
G0 F12000 X178.959 Y136.500
G1 F2700 X180.000 Y136.500 E1232.09200
G0 F12000 X180.289 Y137.000
G1 F2700 X179.249 Y137.000 E1232.13524
G0 F12000 X179.538 Y137.500
G1 F2700 X180.578 Y137.500 E1232.17848
G0 F12000 X180.674 Y138.000
G1 F2700 X179.774 Y138.250 E1232.21584
G1 X180.674 Y138.750 E1232.25325
G1 X179.774 Y139.250 E1232.29066
G1 X180.674 Y139.750 E1232.32807
G1 X179.774 Y140.250 E1232.36548
G1 X180.674 Y140.750 E1232.40289
G1 X179.774 Y141.250 E1232.44031
G1 X180.674 Y141.750 E1232.47772
G1 X179.774 Y142.250 E1232.51513
G1 X180.674 Y142.750 E1232.55254
G1 X179.774 Y143.250 E1232.58995
G1 X180.674 Y143.750 E1232.62736
G1 X179.774 Y144.250 E1232.66477
G1 X180.674 Y144.750 E1232.70218
G1 X179.774 Y145.250 E1232.73959
G1 X180.674 Y145.750 E1232.77700
G1 X179.774 Y146.250 E1232.81441
G1 X180.674 Y146.750 E1232.85183
G1 X179.774 Y147.250 E1232.88924
G1 X180.674 Y147.750 E1232.92665
G1 X179.774 Y148.250 E1232.96406
G1 X180.674 Y148.750 E1233.00147
G1 X179.774 Y149.250 E1233.03888
G1 X180.674 Y149.750 E1233.07629
G1 X179.774 Y150.250 E1233.11370
G1 X180.674 Y150.750 E1233.15111
G1 X179.774 Y151.250 E1233.18852
G1 X180.674 Y151.750 E1233.22593
G1 X179.774 Y152.250 E1233.26335
G1 X180.674 Y152.750 E1233.30076
G1 X179.774 Y153.250 E1233.33817
G1 X180.674 Y153.750 E1233.37558
G1 X179.774 Y154.250 E1233.41299
G1 X180.674 Y154.750 E1233.45040
G1 X179.774 Y155.250 E1233.48781
G1 X180.674 Y155.750 E1233.52522
G1 X179.774 Y156.250 E1233.56263
G1 X180.674 Y156.750 E1233.60004
G1 X179.774 Y157.250 E1233.63745
G1 X180.674 Y157.750 E1233.67487
G1 X179.774 Y158.250 E1233.71228
G1 X180.674 Y158.750 E1233.74969
G1 X179.774 Y159.250 E1233.78710
G1 X180.674 Y159.750 E1233.82451
G1 X179.774 Y160.250 E1233.86192
G1 X180.674 Y160.750 E1233.89933
G1 X179.774 Y161.250 E1233.93674
G1 X180.674 Y161.750 E1233.97415
G1 X179.774 Y162.250 E1234.01156
G1 X180.674 Y162.750 E1234.04897
G1 X179.774 Y163.250 E1234.08639
G1 X180.674 Y163.750 E1234.12380
G1 X179.774 Y164.250 E1234.16121
G1 X180.674 Y164.750 E1234.19862
G1 X179.774 Y165.250 E1234.23603
G1 X180.674 Y165.750 E1234.27344
G1 X179.774 Y166.250 E1234.31085
G1 X180.674 Y166.750 E1234.34826
G1 X179.774 Y167.000 E1234.38710
G0 F12000 X179.537 Y167.500
G1 F2700 X180.574 Y167.500 E1234.43021
G0 F12000 X180.285 Y168.000
G1 F2700 X179.248 Y168.000 E1234.47332
G0 F12000 X178.959 Y168.500
G1 F2700 X179.997 Y168.500 E1234.51648
G0 F12000 X179.708 Y169.000
G1 F2700 X178.465 Y169.000 E1234.56816
G0 F12000 X177.599 Y169.500
G1 F2700 X179.400 Y169.500 E1234.64303
G0 F12000 X178.534 Y170.000
G1 F2700 X176.733 Y170.000 E1234.71791
G0 F12000 X175.867 Y170.500
G1 F2700 X177.668 Y170.500 E1234.79279
G0 F12000 X176.802 Y171.000
G1 F2700 X175.001 Y171.000 E1234.86766
G0 F12000 X174.135 Y171.500
G1 F2700 X175.936 Y171.500 E1234.94254
G0 F12000 X175.070 Y172.000
G1 F2700 X173.269 Y172.000 E1235.01742
G0 F12000 X172.403 Y172.500
G1 F2700 X174.204 Y172.500 E1235.09229
G0 F12000 X173.338 Y173.000
G1 F2700 X171.537 Y173.000 E1235.16717
G0 F12000 X170.671 Y173.500
G1 F2700 X172.472 Y173.500 E1235.24205
G0 F12000 X171.605 Y174.000
G1 F2700 X169.805 Y174.000 E1235.31688
G0 F12000 X168.939 Y174.500
G1 F2700 X170.739 Y174.500 E1235.39172
G0 F12000 X169.873 Y175.000
G1 F2700 X168.073 Y175.000 E1235.46655
G0 F12000 X167.207 Y175.500
G1 F2700 X169.007 Y175.500 E1235.54139
G0 F12000 X168.141 Y176.000
G1 F2700 X166.341 Y176.000 E1235.61622
G0 F12000 X165.475 Y176.500
G1 F2700 X167.275 Y176.500 E1235.69106
G0 F12000 X166.409 Y177.000
G1 F2700 X164.609 Y177.000 E1235.76590
G0 F12000 X163.743 Y177.500
G1 F2700 X165.543 Y177.500 E1235.84073
G0 F12000 X164.677 Y178.000
G1 F2700 X162.877 Y178.000 E1235.91557
G0 F12000 X162.011 Y178.500
G1 F2700 X163.811 Y178.500 E1235.99040
G0 F12000 X162.945 Y179.000
G1 F2700 X161.145 Y179.000 E1236.06524
G0 F12000 X160.279 Y179.500
G1 F2700 X162.079 Y179.500 E1236.14007
G0 F12000 X161.213 Y180.000
G1 F2700 X159.413 Y180.000 E1236.21491
G0 F12000 X158.547 Y180.500
G1 F2700 X160.347 Y180.500 E1236.28974
G0 F12000 X159.481 Y181.000
G1 F2700 X157.681 Y181.000 E1236.36458
G0 F12000 X156.815 Y181.500
G1 F2700 X158.614 Y181.500 E1236.43937
G0 F12000 X157.748 Y182.000
G1 F2700 X155.949 Y182.000 E1236.51417
G0 F12000 X155.083 Y182.500
G1 F2700 X156.882 Y182.500 E1236.58896
G0 F12000 X156.016 Y183.000
G1 F2700 X154.217 Y183.000 E1236.66375
G0 F12000 X154.284 Y184.000
G1 F2700 X150.713 Y184.000 E1236.81222
G0 F12000 X149.847 Y183.500
G1 F2700 X155.150 Y183.500 E1237.03269
G1 F2100 E1236.63269
G0 F12000 X150.782 Y183.000
G1 F2100 E1237.03269
G1 F2700 X148.981 Y183.000 E1237.10757
G0 F12000 X148.115 Y182.500
G1 F2700 X149.916 Y182.500 E1237.18244
G0 F12000 X149.050 Y182.000
G1 F2700 X147.249 Y182.000 E1237.25732
G0 F12000 X146.383 Y181.500
G1 F2700 X148.184 Y181.500 E1237.33220
G0 F12000 X147.318 Y181.000
G1 F2700 X145.517 Y181.000 E1237.40708
G0 F12000 X144.651 Y180.500
G1 F2700 X146.452 Y180.500 E1237.48195
G0 F12000 X145.586 Y180.000
G1 F2700 X143.785 Y180.000 E1237.55683
G0 F12000 X142.919 Y179.500
G1 F2700 X144.720 Y179.500 E1237.63171
G0 F12000 X143.854 Y179.000
G1 F2700 X142.053 Y179.000 E1237.70658
G0 F12000 X141.187 Y178.500
G1 F2700 X142.987 Y178.500 E1237.78142
G0 F12000 X142.121 Y178.000
G1 F2700 X140.321 Y178.000 E1237.85625
G0 F12000 X139.455 Y177.500
G1 F2700 X141.255 Y177.500 E1237.93109
G0 F12000 X140.389 Y177.000
G1 F2700 X138.589 Y177.000 E1238.00592
G0 F12000 X137.723 Y176.500
G1 F2700 X139.523 Y176.500 E1238.08076
G0 F12000 X138.657 Y176.000
G1 F2700 X136.857 Y176.000 E1238.15559
G0 F12000 X135.991 Y175.500
G1 F2700 X137.791 Y175.500 E1238.23043
G0 F12000 X136.925 Y175.000
G1 F2700 X135.125 Y175.000 E1238.30527
G0 F12000 X134.259 Y174.500
G1 F2700 X136.059 Y174.500 E1238.38010
G0 F12000 X135.193 Y174.000
G1 F2700 X133.393 Y174.000 E1238.45494
G0 F12000 X132.527 Y173.500
G1 F2700 X134.327 Y173.500 E1238.52977
G0 F12000 X133.461 Y173.000
G1 F2700 X131.661 Y173.000 E1238.60461
G0 F12000 X130.795 Y172.500
G1 F2700 X132.595 Y172.500 E1238.67944
G0 F12000 X131.729 Y172.000
G1 F2700 X129.928 Y172.000 E1238.75432
G0 F12000 X129.062 Y171.500
G1 F2700 X130.863 Y171.500 E1238.82920
G0 F12000 X129.997 Y171.000
G1 F2700 X128.196 Y171.000 E1238.90407
G0 F12000 X127.330 Y170.500
G1 F2700 X129.131 Y170.500 E1238.97895
G0 F12000 X128.265 Y170.000
G1 F2700 X126.464 Y170.000 E1239.05383
G0 F12000 X125.598 Y169.500
G1 F2700 X127.399 Y169.500 E1239.12870
G0 F12000 X126.533 Y169.000
G1 F2700 X125.288 Y169.000 E1239.18046
G0 F12000 X124.999 Y168.500
G1 F2700 X126.040 Y168.500 E1239.22374
G0 F12000 X125.751 Y168.000
G1 F2700 X124.710 Y168.000 E1239.26702
G0 F12000 X124.421 Y167.500
G1 F2700 X125.462 Y167.500 E1239.31030
G0 F12000 X125.224 Y167.000
G1 F2700 X124.324 Y166.750 E1239.34766
G1 X125.224 Y166.250 E1239.38507
G1 X124.324 Y165.750 E1239.42248
G1 X125.224 Y165.250 E1239.45989
G1 X124.324 Y164.750 E1239.49731
G1 X125.224 Y164.250 E1239.53472
G1 X124.324 Y163.750 E1239.57213
G1 X125.224 Y163.250 E1239.60954
G1 X124.324 Y162.750 E1239.64695
G1 X125.224 Y162.250 E1239.68436
G1 X124.324 Y161.750 E1239.72177
G1 X125.224 Y161.250 E1239.75918
G1 X124.324 Y160.750 E1239.79659
G1 X125.224 Y160.250 E1239.83400
G1 X124.324 Y159.750 E1239.87141
G1 X125.224 Y159.250 E1239.90883
G1 X124.324 Y158.750 E1239.94624
G1 X125.224 Y158.250 E1239.98365
G1 X124.324 Y157.750 E1240.02106
G1 X125.224 Y157.250 E1240.05847
G1 X124.324 Y156.750 E1240.09588
G1 X125.224 Y156.250 E1240.13329
G1 X124.324 Y155.750 E1240.17070
G1 X125.224 Y155.250 E1240.20811
G1 X124.324 Y154.750 E1240.24552
G1 X125.224 Y154.250 E1240.28293
G1 X124.324 Y153.750 E1240.32035
G1 X125.224 Y153.250 E1240.35776
G1 X124.324 Y152.750 E1240.39517
G1 X125.224 Y152.250 E1240.43258
G1 X124.324 Y151.750 E1240.46999
G1 X125.224 Y151.250 E1240.50740
G1 X124.324 Y150.750 E1240.54481
G1 X125.224 Y150.250 E1240.58222
G1 X124.324 Y149.750 E1240.61963
G1 X125.224 Y149.250 E1240.65704
G1 X124.324 Y148.750 E1240.69446
G1 X125.224 Y148.250 E1240.73187
G1 X124.324 Y147.750 E1240.76928
G1 X125.224 Y147.250 E1240.80669
G1 X124.324 Y146.750 E1240.84410
G1 X125.224 Y146.250 E1240.88151
G1 X124.324 Y145.750 E1240.91892
G1 X125.224 Y145.250 E1240.95633
G1 X124.324 Y144.750 E1240.99374
G1 X125.224 Y144.250 E1241.03115
G1 X124.324 Y143.750 E1241.06856
G1 X125.224 Y143.250 E1241.10598
G1 X124.324 Y142.750 E1241.14339
G1 X125.224 Y142.250 E1241.18080
G1 X124.324 Y141.750 E1241.21821
G1 X125.224 Y141.250 E1241.25562
G1 X124.324 Y140.750 E1241.29303
G1 X125.224 Y140.250 E1241.33044
G1 X124.324 Y139.750 E1241.36785
G1 X125.224 Y139.250 E1241.40526
G1 X124.324 Y138.750 E1241.44267
G1 X125.224 Y138.250 E1241.48008
G1 X124.324 Y138.000 E1241.51892
G0 F12000 X124.423 Y137.500
G1 F2700 X125.460 Y137.500 E1241.56203
G0 F12000 X125.749 Y137.000
G1 F2700 X124.712 Y137.000 E1241.60515
G0 F12000 X125.000 Y136.500
G1 F2700 X126.037 Y136.500 E1241.64826
G0 F12000 X126.529 Y136.000
G1 F2700 X125.289 Y136.000 E1241.69981
G0 F12000 X125.594 Y135.500
G1 F2700 X127.395 Y135.500 E1241.77469
G0 F12000 X128.261 Y135.000
G1 F2700 X126.461 Y135.000 E1241.84952
G0 F12000 X127.327 Y134.500
G1 F2700 X129.127 Y134.500 E1241.92436
G0 F12000 X129.993 Y134.000
G1 F2700 X128.193 Y134.000 E1241.99920
G0 F12000 X129.059 Y133.500
G1 F2700 X130.859 Y133.500 E1242.07403
G0 F12000 X131.725 Y133.000
G1 F2700 X129.925 Y133.000 E1242.14887
G0 F12000 X130.791 Y132.500
G1 F2700 X132.591 Y132.500 E1242.22370
G0 F12000 X133.457 Y132.000
G1 F2700 X131.657 Y132.000 E1242.29854
G0 F12000 X132.523 Y131.500
G1 F2700 X134.323 Y131.500 E1242.37337
G0 F12000 X135.189 Y131.000
G1 F2700 X133.389 Y131.000 E1242.44821
G0 F12000 X134.255 Y130.500
G1 F2700 X136.055 Y130.500 E1242.52304
G0 F12000 X136.921 Y130.000
G1 F2700 X135.121 Y130.000 E1242.59788
G0 F12000 X135.987 Y129.500
G1 F2700 X137.787 Y129.500 E1242.67271
G0 F12000 X138.653 Y129.000
G1 F2700 X136.853 Y129.000 E1242.74755
G0 F12000 X137.719 Y128.500
G1 F2700 X139.519 Y128.500 E1242.82238
G0 F12000 X140.385 Y128.000
G1 F2700 X138.585 Y128.000 E1242.89722
G0 F12000 X139.452 Y127.500
G1 F2700 X141.251 Y127.500 E1242.97201
G0 F12000 X142.117 Y127.000
G1 F2700 X140.318 Y127.000 E1243.04681
G0 F12000 X141.184 Y126.500
G1 F2700 X142.983 Y126.500 E1243.12160
G0 F12000 X143.849 Y126.000
G1 F2700 X142.050 Y126.000 E1243.19639
G0 F12000 X142.916 Y125.500
G1 F2700 X144.715 Y125.500 E1243.27119
G0 F12000 X145.581 Y125.000
G1 F2700 X143.782 Y125.000 E1243.34598
G0 F12000 X144.648 Y124.500
G1 F2700 X146.447 Y124.500 E1243.42077
G0 F12000 X147.313 Y124.000
G1 F2700 X145.514 Y124.000 E1243.49557
G0 F12000 X146.380 Y123.500
G1 F2700 X148.179 Y123.500 E1243.57036
G0 F12000 X149.045 Y123.000
G1 F2700 X147.246 Y123.000 E1243.64516
G0 F12000 X148.112 Y122.500
G1 F2700 X149.911 Y122.500 E1243.71995
G0 F12000 X150.777 Y122.000
G1 F2700 X148.978 Y122.000 E1243.79474
G0 F12000 X149.844 Y121.500
G1 F2700 X155.155 Y121.500 E1244.01555
G0 F12000 X156.021 Y122.000
G1 F2700 X154.220 Y122.000 E1244.09043
G0 F12000 X155.086 Y122.500
G1 F2700 X156.887 Y122.500 E1244.16530
G0 F12000 X157.753 Y123.000
G1 F2700 X155.952 Y123.000 E1244.24018
G0 F12000 X156.818 Y123.500
G1 F2700 X158.619 Y123.500 E1244.31506
G0 F12000 X159.485 Y124.000
G1 F2700 X157.684 Y124.000 E1244.38993
G0 F12000 X158.550 Y124.500
G1 F2700 X160.351 Y124.500 E1244.46481
G0 F12000 X161.217 Y125.000
G1 F2700 X159.416 Y125.000 E1244.53969
G1 F2100 E1244.13969
G0 F12000 X154.289 Y121.000
G1 F2100 E1244.53969
G1 F2700 X150.710 Y121.000 E1244.68848
G1 F2100 E1244.28848
G0 F12000 X160.282 Y125.500
G1 F2100 E1244.68848
G1 F2700 X162.083 Y125.500 E1244.76336
G0 F12000 X162.949 Y126.000
G1 F2700 X161.148 Y126.000 E1244.83824
G0 F12000 X162.014 Y126.500
G1 F2700 X163.815 Y126.500 E1244.91312
G0 F12000 X164.681 Y127.000
G1 F2700 X162.880 Y127.000 E1244.98799
G0 F12000 X163.746 Y127.500
G1 F2700 X165.547 Y127.500 E1245.06287
G0 F12000 X166.413 Y128.000
G1 F2700 X164.612 Y128.000 E1245.13775
G0 F12000 X165.478 Y128.500
G1 F2700 X167.279 Y128.500 E1245.21262
G0 F12000 X168.145 Y129.000
G1 F2700 X166.344 Y129.000 E1245.28750
G0 F12000 X167.210 Y129.500
G1 F2700 X169.011 Y129.500 E1245.36238
G0 F12000 X169.877 Y130.000
G1 F2700 X168.076 Y130.000 E1245.43725
G0 F12000 X168.942 Y130.500
G1 F2700 X170.743 Y130.500 E1245.51213
G0 F12000 X171.609 Y131.000
G1 F2700 X169.808 Y131.000 E1245.58701
G0 F12000 X170.674 Y131.500
G1 F2700 X172.475 Y131.500 E1245.66188
G0 F12000 X173.341 Y132.000
G1 F2700 X171.540 Y132.000 E1245.73676
G0 F12000 X172.406 Y132.500
G1 F2700 X174.207 Y132.500 E1245.81164
G0 F12000 X175.073 Y133.000
G1 F2700 X173.272 Y133.000 E1245.88651
G0 F12000 X174.138 Y133.500
G1 F2700 X175.939 Y133.500 E1245.96139
G0 F12000 X176.805 Y134.000
G1 F2700 X175.004 Y134.000 E1246.03627
G0 F12000 X175.870 Y134.500
G1 F2700 X177.671 Y134.500 E1246.11115
G0 F12000 X178.537 Y135.000
G1 F2700 X176.736 Y135.000 E1246.18602
G0 F12000 X177.602 Y135.500
G1 F2700 X179.403 Y135.500 E1246.26090
G1 F2100 E1245.86090
G0 F12000 X160.067 Y147.500
G1 F2100 E1246.26090
G1 F2700 X159.681 Y147.250 E1246.27799
G1 X159.333 Y146.750 E1246.29197
G1 X159.041 Y146.500 E1246.30795
G1 F2100 E1245.90795
G0 F12000 X159.891 Y148.000
G1 F2100 E1246.30795
G1 F2700 X160.505 Y148.250 E1246.32813
G1 X160.181 Y148.750 E1246.35047
G1 X160.961 Y149.250 E1246.37551
G1 X160.458 Y149.750 E1246.40228
G1 X161.282 Y150.250 E1246.43194
G1 X160.602 Y150.750 E1246.46331
G1 X161.478 Y151.250 E1246.49761
G1 X160.622 Y151.750 E1246.53396
G1 X161.555 Y152.250 E1246.57331
G1 X160.564 Y152.500 E1246.61580
G0 F12000 X160.467 Y153.000
G1 F2700 X161.554 Y153.000 E1246.66099
G0 F12000 X161.510 Y153.500
G1 F2700 X160.358 Y153.500 E1246.70888
G0 F12000 X160.197 Y154.000
G1 F2700 X161.438 Y154.000 E1246.76048
G0 F12000 X161.346 Y154.500
G1 F2700 X160.016 Y154.500 E1246.81577
G0 F12000 X159.787 Y155.000
G1 F2700 X161.215 Y155.000 E1246.87514
G0 F12000 X161.054 Y155.500
G1 F2700 X159.490 Y155.500 E1246.94017
G0 F12000 X159.169 Y156.000
G1 F2700 X160.865 Y156.000 E1247.01068
G0 F12000 X160.640 Y156.500
G1 F2700 X158.772 Y156.500 E1247.08834
G0 F12000 X158.279 Y157.000
G1 F2700 X160.365 Y157.000 E1247.17507
G0 F12000 X160.034 Y157.500
G1 F2700 X157.709 Y157.500 E1247.27173
G0 F12000 X156.980 Y158.000
G1 F2700 X159.575 Y158.000 E1247.37962
G0 F12000 X159.036 Y158.500
G1 F2700 X156.119 Y158.500 E1247.50089
G0 F12000 X155.122 Y159.000
G1 F2700 X158.389 Y159.000 E1247.63672
G0 F12000 X157.569 Y159.500
G1 F2700 X152.809 Y159.500 E1247.83462
G0 F12000 X152.053 Y159.500
G1 F2700 X149.690 Y159.500 E1247.93286
G0 F12000 X150.726 Y160.000
G1 F2700 X156.507 Y160.000 E1248.17320
G1 F2100 E1247.77320
G0 F12000 X154.365 Y160.500
G1 F2100 E1248.17320
G1 F2700 X152.826 Y160.500 E1248.23719
;LAYER:6
M106 S63
G0 F12000 X152.512 Y159.344 Z1.400
;TYPE:WALL-INNER
G1 F2700 X153.164 Y159.311 E1248.26433
G1 X153.759 Y159.221 E1248.28935
G1 X154.539 Y159.029 E1248.32274
G1 X155.039 Y158.938 E1248.34387
G1 X155.538 Y158.812 E1248.36527
G1 X156.140 Y158.595 E1248.39188
G1 X156.574 Y158.407 E1248.41154
G1 X157.085 Y158.133 E1248.43565
G1 X157.577 Y157.811 E1248.46009
G1 X158.025 Y157.468 E1248.48355
G1 X158.448 Y157.088 E1248.50719
G1 X158.847 Y156.671 E1248.53119
G1 X159.292 Y156.121 E1248.56060
G1 X159.727 Y155.462 E1248.59343
G1 X160.004 Y154.936 E1248.61814
G1 X160.235 Y154.407 E1248.64214
G1 X160.357 Y154.098 E1248.65595
G1 X160.532 Y153.525 E1248.68086
G1 X160.717 Y152.653 E1248.71792
G1 X160.798 Y151.788 E1248.75404
G1 X160.809 Y151.433 E1248.76881
G1 X160.768 Y150.567 E1248.80485
G1 X160.637 Y149.722 E1248.84040
G1 X160.433 Y148.943 E1248.87388
G1 X160.287 Y148.485 E1248.89387
G1 X160.064 Y147.948 E1248.91804
G1 X159.668 Y147.157 E1248.95482
G1 X159.411 Y146.742 E1248.97511
G1 X158.629 Y145.909 E1249.02262
G1 X158.048 Y145.415 E1249.05432
G1 X157.437 Y144.977 E1249.08558
G1 X156.793 Y144.592 E1249.11677
G1 X156.113 Y144.259 E1249.14825
G1 X155.245 Y143.934 E1249.18678
G1 X154.753 Y143.796 E1249.20803
G1 X154.101 Y143.644 E1249.23586
G1 X153.182 Y143.528 E1249.27437
G1 X152.289 Y143.508 E1249.31151
G1 X151.959 Y143.516 E1249.32523
G1 X151.372 Y143.581 E1249.34979
G1 X150.693 Y143.689 E1249.37837
G1 X150.180 Y143.805 E1249.40024
G1 X149.370 Y144.066 E1249.43562
G1 X148.949 Y144.230 E1249.45440
G1 X148.179 Y144.605 E1249.49001
G1 X147.657 Y144.919 E1249.51534
G1 X146.941 Y145.422 E1249.55172
G1 X146.575 Y145.736 E1249.57176
G1 X146.289 Y146.057 E1249.58964
G1 X145.840 Y146.666 E1249.62110
G1 X145.447 Y147.299 E1249.65207
G1 X145.117 Y147.953 E1249.68253
G1 X144.848 Y148.620 E1249.71243
G1 X144.637 Y149.299 E1249.74199
G1 X144.464 Y150.132 E1249.77736
G1 X144.368 Y151.107 E1249.81809
G1 X144.365 Y151.276 E1249.82512
G1 X144.383 Y151.975 E1249.85419
G1 X144.509 Y152.946 E1249.89490
G1 X144.715 Y153.761 E1249.92985
G1 X145.064 Y154.682 E1249.97080
G1 X145.430 Y155.383 E1250.00367
G1 X146.000 Y156.224 E1250.04591
G1 X146.510 Y156.803 E1250.07799
G1 X147.221 Y157.446 E1250.11785
G1 X147.487 Y157.645 E1250.13166
G1 X148.068 Y158.022 E1250.16045
G1 X148.632 Y158.308 E1250.18674
G1 X149.071 Y158.495 E1250.20658
G1 X150.290 Y158.974 E1250.26103
G1 X150.905 Y159.155 E1250.28769
G1 X151.437 Y159.260 E1250.31023
G1 X151.972 Y159.323 E1250.33263
G1 X152.512 Y159.344 E1250.35510
G1 F2100 E1249.95510
G0 F12000 X153.844 Y184.691
G1 F2100 E1250.35510
G1 F2700 X151.158 Y184.691 E1250.46677
G1 X125.294 Y169.757 E1251.70845
G1 X124.975 Y169.207 E1251.73488
G1 X123.950 Y167.430 E1251.82017
G1 X123.950 Y137.570 E1253.06160
G1 X124.267 Y137.019 E1253.08803
G1 X125.295 Y135.241 E1253.17342
G1 X151.156 Y120.309 E1254.41495
G1 X153.842 Y120.309 E1254.52662
G1 X179.706 Y135.243 E1255.76830
G1 X180.024 Y135.792 E1255.79467
G1 X181.050 Y137.570 E1255.88002
G1 X181.050 Y167.430 E1257.12145
G1 X180.733 Y167.981 E1257.14788
G1 X179.705 Y169.759 E1257.23327
G1 X153.844 Y184.691 E1258.47480
G0 F12000 X153.978 Y185.191
;TYPE:WALL-OUTER
G1 F2700 X151.024 Y185.191 E1258.59761
G1 X124.928 Y170.123 E1259.85043
G1 X123.450 Y167.566 E1259.97322
G1 X123.450 Y137.436 E1261.22588
G1 X124.930 Y134.875 E1261.34885
G1 X151.022 Y119.809 E1262.60149
G1 X153.976 Y119.809 E1262.72430
G1 X180.072 Y134.877 E1263.97712
G1 X181.550 Y137.434 E1264.09991
G1 X181.550 Y167.564 E1265.35257
G1 X180.070 Y170.125 E1265.47554
G1 X153.978 Y185.191 E1266.72817
G1 F2100 E1266.32817
G0 F12000 X152.509 Y158.843
G1 F2100 E1266.72817
G1 F2700 X153.114 Y158.813 E1266.75336
G1 X153.662 Y158.730 E1266.77640
G1 X154.439 Y158.539 E1266.80967
G1 X154.933 Y158.449 E1266.83054
G1 X155.391 Y158.333 E1266.85018
G1 X155.955 Y158.130 E1266.87511
G1 X156.356 Y157.956 E1266.89328
G1 X156.830 Y157.702 E1266.91564
G1 X157.288 Y157.403 E1266.93838
G1 X157.706 Y157.083 E1266.96026
G1 X158.100 Y156.729 E1266.98228
G1 X158.471 Y156.340 E1267.00463
G1 X158.888 Y155.825 E1267.03218
G1 X159.296 Y155.207 E1267.06297
G1 X159.553 Y154.719 E1267.08590
G1 X159.773 Y154.216 E1267.10873
G1 X160.047 Y153.400 E1267.14451
G1 X160.222 Y152.578 E1267.17945
G1 X160.299 Y151.757 E1267.21374
G1 X160.308 Y151.437 E1267.22705
G1 X160.270 Y150.617 E1267.26117
G1 X160.147 Y149.824 E1267.29454
G1 X159.952 Y149.082 E1267.32643
G1 X159.817 Y148.657 E1267.34497
G1 X159.603 Y148.142 E1267.36816
G1 X159.524 Y147.956 E1267.37656
G1 X159.234 Y147.406 E1267.40241
G1 X159.012 Y147.048 E1267.41992
G1 X158.284 Y146.272 E1267.46416
G1 X157.740 Y145.809 E1267.49386
G1 X157.163 Y145.396 E1267.52336
G1 X156.554 Y145.032 E1267.55286
G1 X155.915 Y144.719 E1267.58244
G1 X155.090 Y144.410 E1267.61907
G1 X154.012 Y144.137 E1267.66530
G1 X153.145 Y144.027 E1267.70164
G1 X152.290 Y144.008 E1267.73719
G1 X151.992 Y144.015 E1267.74958
G1 X151.439 Y144.076 E1267.77271
G1 X150.788 Y144.180 E1267.80012
G1 X150.312 Y144.288 E1267.82042
G1 X149.538 Y144.537 E1267.85422
G1 X149.150 Y144.689 E1267.87154
G1 X148.418 Y145.045 E1267.90539
G1 X147.930 Y145.338 E1267.92905
G1 X147.248 Y145.817 E1267.96370
G1 X146.926 Y146.094 E1267.98136
G1 X146.678 Y146.372 E1267.99685
G1 X146.254 Y146.947 E1268.02655
G1 X145.884 Y147.544 E1268.05575
G1 X145.573 Y148.160 E1268.08444
G1 X145.319 Y148.788 E1268.11260
G1 X145.122 Y149.424 E1268.14028
G1 X144.957 Y150.215 E1268.17388
G1 X144.867 Y151.132 E1268.21219
G1 X144.865 Y151.273 E1268.21805
G1 X144.882 Y151.936 E1268.24562
G1 X145.001 Y152.852 E1268.28402
G1 X145.193 Y153.611 E1268.31657
G1 X145.521 Y154.477 E1268.35507
G1 X145.868 Y155.141 E1268.38622
G1 X145.968 Y155.311 E1268.39442
G1 X146.393 Y155.913 E1268.42506
G1 X146.867 Y156.451 E1268.45487
G1 X147.540 Y157.060 E1268.49260
G1 X147.773 Y157.235 E1268.50472
G1 X148.318 Y157.588 E1268.53172
G1 X148.843 Y157.855 E1268.55620
G1 X149.250 Y158.028 E1268.57459
G1 X150.457 Y158.502 E1268.62850
G1 X151.024 Y158.669 E1268.65308
G1 X151.515 Y158.766 E1268.67388
G1 X152.011 Y158.824 E1268.69465
G1 X152.509 Y158.843 E1268.71537
G1 F2100 E1268.31537
G0 F12000 X145.699 Y156.090
;TYPE:FILL
G1 F2100 E1268.71537
G1 F2700 X124.843 Y168.131 E1269.71659
G1 F2100 E1269.31659
G0 F12000 X133.185 Y173.822
G1 F2100 E1269.71659
G1 F2700 X133.185 Y131.177 E1271.48957
G0 F12000 X133.889 Y130.770
G1 F2700 X180.624 Y157.753 E1273.73318
G0 F12000 X180.623 Y158.563
G1 F2700 X143.688 Y179.888 E1275.50632
G0 F12000 X142.987 Y179.482
G1 F2700 X142.987 Y125.517 E1277.74993
G0 F12000 X143.690 Y125.110
G1 F2700 X180.624 Y146.434 E1279.52302
G0 F12000 X180.623 Y147.245
G1 F2700 X133.886 Y174.228 E1281.76670
G1 F2100 E1281.36670
G0 F12000 X124.373 Y159.232
G1 F2100 E1281.76670
G1 F2700 X160.729 Y180.222 E1283.51203
G1 F2100 E1283.11203
G0 F12000 X162.591 Y179.149
G1 F2100 E1283.51203
G1 F2700 X162.591 Y125.852 E1285.72787
G1 F2100 E1285.32787
G0 F12000 X160.729 Y124.775
G1 F2100 E1285.72787
G1 F2700 X124.374 Y145.765 E1287.47317
G1 F2100 E1287.07317
G0 F12000 X124.374 Y147.913
G1 F2100 E1287.47317
G1 F2700 X170.531 Y174.562 E1289.68902
G1 F2100 E1289.28902
G0 F12000 X172.393 Y173.489
G1 F2100 E1289.68902
G1 F2700 X172.393 Y131.512 E1291.43422
G1 F2100 E1291.03422
G0 F12000 X170.530 Y130.435
G1 F2100 E1291.43422
G1 F2700 X124.374 Y157.084 E1293.65005
G1 F2100 E1293.25005
G0 F12000 X124.845 Y136.867
G1 F2100 E1293.65005
G1 F2700 X144.762 Y148.366 E1294.60620
G1 F2100 E1294.20620
G0 F12000 X152.789 Y143.343
G1 F2100 E1294.60620
G1 F2700 X152.789 Y120.734 E1295.54617
G1 F2100 E1295.14617
G0 F12000 X160.156 Y147.743
G1 F2100 E1295.54617
G1 F2700 X179.863 Y136.365 E1296.49224
G1 F2100 E1296.09224
G0 F12000 X159.644 Y156.958
G1 F2100 E1296.49224
G1 F2700 X179.863 Y168.632 E1297.46291
G1 F2100 E1297.06291
G0 F12000 X152.789 Y160.186
G1 F2100 E1297.46291
G1 F2700 X152.789 Y184.266 E1298.46404
G0 F12000 X153.000 Y184.516
;TYPE:SKIN
G1 F2700 X152.750 Y183.616 E1298.50140
G1 X152.250 Y184.516 E1298.53881
G1 X151.750 Y183.616 E1298.57622
G1 X151.500 Y184.516 E1298.61505
G0 F12000 X151.000 Y184.397
G1 F2700 X151.000 Y183.358 E1298.65825
G0 F12000 X150.500 Y183.070
G1 F2700 X150.500 Y184.108 E1298.70140
G0 F12000 X150.000 Y183.819
G1 F2700 X150.000 Y182.781 E1298.74456
G0 F12000 X149.500 Y182.492
G1 F2700 X149.500 Y183.530 E1298.78771
G0 F12000 X149.000 Y183.242
G1 F2700 X149.000 Y182.204 E1298.83087
G0 F12000 X148.500 Y181.915
G1 F2700 X148.500 Y182.953 E1298.87402
G0 F12000 X148.000 Y182.664
G1 F2700 X148.000 Y181.626 E1298.91718
G0 F12000 X147.500 Y181.337
G1 F2700 X147.500 Y182.376 E1298.96038
G0 F12000 X147.000 Y182.087
G1 F2700 X147.000 Y181.049 E1299.00353
G0 F12000 X146.500 Y180.760
G1 F2700 X146.500 Y181.798 E1299.04669
G0 F12000 X146.000 Y181.510
G1 F2700 X146.000 Y180.471 E1299.08988
G0 F12000 X145.500 Y180.183
G1 F2700 X145.500 Y181.221 E1299.13304
G0 F12000 X145.000 Y180.932
G1 F2700 X145.000 Y179.894 E1299.17619
G0 F12000 X144.500 Y179.605
G1 F2700 X144.500 Y180.644 E1299.21939
G0 F12000 X144.000 Y180.355
G1 F2700 X144.000 Y179.317 E1299.26254
G0 F12000 X143.500 Y179.028
G1 F2700 X143.500 Y180.066 E1299.30570
G1 F2100 E1298.90570
G0 F12000 X153.500 Y183.616
G1 F2100 E1299.30570
G1 F2700 X153.500 Y184.516 E1299.34312
G0 F12000 X154.000 Y184.399
G1 F2700 X154.000 Y183.357 E1299.38644
G0 F12000 X154.500 Y183.069
G1 F2700 X154.500 Y184.110 E1299.42972
G0 F12000 X155.000 Y183.821
G1 F2700 X155.000 Y182.780 E1299.47300
G0 F12000 X155.500 Y182.491
G1 F2700 X155.500 Y183.533 E1299.51632
G0 F12000 X156.000 Y183.244
G1 F2700 X156.000 Y182.203 E1299.55960
G0 F12000 X156.500 Y181.914
G1 F2700 X156.500 Y182.955 E1299.60288
G0 F12000 X157.000 Y182.667
G1 F2700 X157.000 Y181.625 E1299.64620
G0 F12000 X157.500 Y181.337
G1 F2700 X157.500 Y182.378 E1299.68948
G0 F12000 X158.000 Y182.089
G1 F2700 X158.000 Y181.048 E1299.73276
G0 F12000 X158.500 Y180.759
G1 F2700 X158.500 Y181.801 E1299.77608
G0 F12000 X159.000 Y181.512
G1 F2700 X159.000 Y180.470 E1299.81940
G0 F12000 X159.500 Y180.182
G1 F2700 X159.500 Y181.223 E1299.86268
G0 F12000 X160.000 Y180.935
G1 F2700 X160.000 Y179.893 E1299.90600
G0 F12000 X160.500 Y179.604
G1 F2700 X160.500 Y180.646 E1299.94932
G0 F12000 X161.000 Y180.357
G1 F2700 X161.000 Y179.316 E1299.99260
G0 F12000 X161.500 Y179.027
G1 F2700 X161.500 Y180.068 E1300.03588
G0 F12000 X162.000 Y179.780
G1 F2700 X162.000 Y178.738 E1300.07921
G0 F12000 X162.500 Y178.450
G1 F2700 X162.500 Y179.491 E1300.12248
G0 F12000 X163.000 Y179.202
G1 F2700 X163.000 Y178.161 E1300.16576
G0 F12000 X163.500 Y177.872
G1 F2700 X163.500 Y178.914 E1300.20909
G0 F12000 X164.000 Y178.625
G1 F2700 X164.000 Y177.584 E1300.25237
G0 F12000 X164.500 Y177.295
G1 F2700 X164.500 Y178.336 E1300.29565
G0 F12000 X165.000 Y178.048
G1 F2700 X165.000 Y177.006 E1300.33897
G0 F12000 X165.500 Y176.717
G1 F2700 X165.500 Y177.759 E1300.38229
G0 F12000 X166.000 Y177.470
G1 F2700 X166.000 Y176.429 E1300.42557
G0 F12000 X166.500 Y176.140
G1 F2700 X166.500 Y177.182 E1300.46889
G0 F12000 X167.000 Y176.893
G1 F2700 X167.000 Y175.851 E1300.51221
G0 F12000 X167.500 Y175.563
G1 F2700 X167.500 Y176.604 E1300.55549
G0 F12000 X168.000 Y176.316
G1 F2700 X168.000 Y175.274 E1300.59881
G0 F12000 X168.500 Y174.985
G1 F2700 X168.500 Y176.027 E1300.64213
G0 F12000 X169.000 Y175.738
G1 F2700 X169.000 Y174.697 E1300.68541
G0 F12000 X169.500 Y174.408
G1 F2700 X169.500 Y175.450 E1300.72873
G0 F12000 X170.000 Y175.161
G1 F2700 X170.000 Y174.119 E1300.77206
G0 F12000 X170.500 Y173.831
G1 F2700 X170.500 Y174.872 E1300.81534
G0 F12000 X171.000 Y174.584
G1 F2700 X171.000 Y173.542 E1300.85866
G0 F12000 X171.500 Y173.253
G1 F2700 X171.500 Y174.295 E1300.90198
G0 F12000 X172.000 Y174.006
G1 F2700 X172.000 Y172.964 E1300.94530
G0 F12000 X172.500 Y172.676
G1 F2700 X172.500 Y173.717 E1300.98858
G0 F12000 X173.000 Y173.429
G1 F2700 X173.000 Y172.387 E1301.03190
G0 F12000 X173.500 Y172.098
G1 F2700 X173.500 Y173.140 E1301.07522
G0 F12000 X174.000 Y172.851
G1 F2700 X174.000 Y171.810 E1301.11850
G0 F12000 X174.500 Y171.521
G1 F2700 X174.500 Y172.563 E1301.16182
G0 F12000 X175.000 Y172.274
G1 F2700 X175.000 Y171.232 E1301.20514
G0 F12000 X175.500 Y170.944
G1 F2700 X175.500 Y171.985 E1301.24842
G0 F12000 X176.000 Y171.697
G1 F2700 X176.000 Y170.655 E1301.29174
G0 F12000 X176.500 Y170.366
G1 F2700 X176.500 Y171.408 E1301.33507
G0 F12000 X177.000 Y171.119
G1 F2700 X177.000 Y170.078 E1301.37835
G0 F12000 X177.500 Y169.789
G1 F2700 X177.500 Y170.831 E1301.42167
G0 F12000 X178.000 Y170.542
G1 F2700 X178.000 Y169.500 E1301.46499
G0 F12000 X178.500 Y169.211
G1 F2700 X178.500 Y170.253 E1301.50831
G0 F12000 X179.000 Y169.965
G1 F2700 X179.000 Y168.829 E1301.55554
G0 F12000 X179.500 Y169.676
G1 F2700 X179.500 Y167.964 E1301.62672
G0 F12000 X180.500 Y168.032
G1 F2700 X180.500 Y136.967 E1302.91825
G0 F12000 X180.000 Y136.101
G1 F2700 X180.000 Y168.899 E1304.28183
G1 F2100 E1303.88183
G0 F12000 X160.500 Y156.770
G1 F2100 E1304.28183
G1 F2700 X160.500 Y154.211 E1304.38822
G0 F12000 X161.500 Y153.599
G1 F2700 X161.500 Y151.378 E1304.48056
G1 F2100 E1304.08056
G0 F12000 X161.000 Y149.336
G1 F2100 E1304.48056
G1 F2700 X161.000 Y155.649 E1304.74302
G0 F12000 X160.000 Y155.318
G1 F2700 X160.000 Y157.593 E1304.83761
G1 F2100 E1304.43761
G0 F12000 X160.500 Y148.576
G1 F2100 E1304.83761
G1 F2700 X160.500 Y148.452 E1304.84276
G0 F12000 X159.500 Y156.123
G1 F2700 X159.500 Y158.261 E1304.93165
G0 F12000 X159.000 Y158.819
G1 F2700 X159.000 Y156.760 E1305.01725
G0 F12000 X158.500 Y157.276
G1 F2700 X158.500 Y159.298 E1305.10132
G0 F12000 X158.000 Y159.662
G1 F2700 X158.000 Y157.707 E1305.18260
G0 F12000 X157.500 Y158.070
G1 F2700 X157.500 Y159.934 E1305.26009
G0 F12000 X157.000 Y160.167
G1 F2700 X157.000 Y158.377 E1305.33451
G0 F12000 X156.500 Y158.629
G1 F2700 X156.500 Y160.365 E1305.40669
G0 F12000 X156.000 Y160.533
G1 F2700 X156.000 Y158.831 E1305.47745
G0 F12000 X155.500 Y159.001
G1 F2700 X155.500 Y160.656 E1305.54626
G0 F12000 X155.000 Y160.759
G1 F2700 X155.000 Y159.122 E1305.61432
G0 F12000 X154.500 Y159.219
G1 F2700 X154.500 Y160.836 E1305.68154
G0 F12000 X154.000 Y160.874
G1 F2700 X154.000 Y159.341 E1305.74528
G0 F12000 X153.500 Y159.437
G1 F2700 X153.500 Y160.877 E1305.80515
G0 F12000 X153.000 Y160.861
G1 F2700 X153.000 Y159.494 E1305.86198
G0 F12000 X152.500 Y159.519
G1 F2700 X152.500 Y160.808 E1305.91557
G0 F12000 X152.000 Y160.724
G1 F2700 X152.000 Y159.499 E1305.96650
G0 F12000 X151.500 Y159.445
G1 F2700 X151.500 Y160.613 E1306.01506
G0 F12000 X151.000 Y160.469
G1 F2700 X151.000 Y159.352 E1306.06150
G0 F12000 X150.500 Y159.219
G1 F2700 X150.500 Y160.280 E1306.10561
G0 F12000 X150.000 Y160.053
G1 F2700 X150.000 Y159.048 E1306.14739
G0 F12000 X149.500 Y158.852
G1 F2700 X149.250 Y159.625 E1306.18610
G1 X148.750 Y158.546 E1306.21982
G1 X148.250 Y158.866 E1306.24697
G1 X147.750 Y158.143 E1306.26597
G1 X147.500 Y157.863 E1306.28158
G1 F2100 E1305.88158
G0 F12000 X137.500 Y175.563
G1 F2100 E1306.28158
G1 F2700 X137.500 Y176.602 E1306.32477
G0 F12000 X138.000 Y176.890
G1 F2700 X138.000 Y175.852 E1306.36793
G0 F12000 X138.500 Y176.141
G1 F2700 X138.500 Y177.179 E1306.41108
G0 F12000 X139.000 Y177.468
G1 F2700 X139.000 Y176.430 E1306.45424
G0 F12000 X139.500 Y176.718
G1 F2700 X139.500 Y177.757 E1306.49744
G1 F2100 E1306.09744
G0 F12000 X137.000 Y176.313
G1 F2100 E1306.49744
G1 F2700 X137.000 Y175.275 E1306.54059
G0 F12000 X136.500 Y174.986
G1 F2700 X136.500 Y176.024 E1306.58375
G0 F12000 X136.000 Y175.736
G1 F2700 X136.000 Y174.697 E1306.62694
G0 F12000 X135.500 Y174.409
G1 F2700 X135.500 Y175.447 E1306.67010
G0 F12000 X135.000 Y175.158
G1 F2700 X135.000 Y174.120 E1306.71325
G0 F12000 X134.500 Y173.831
G1 F2700 X134.500 Y174.870 E1306.75645
G0 F12000 X134.000 Y174.581
G1 F2700 X134.000 Y173.543 E1306.79960
G0 F12000 X133.500 Y173.254
G1 F2700 X133.500 Y174.292 E1306.84276
G0 F12000 X133.000 Y174.004
G1 F2700 X133.000 Y172.965 E1306.88596
G0 F12000 X132.500 Y172.676
G1 F2700 X132.500 Y173.715 E1306.92915
G0 F12000 X132.000 Y173.426
G1 F2700 X132.000 Y172.388 E1306.97231
G0 F12000 X131.500 Y172.099
G1 F2700 X131.500 Y173.137 E1307.01546
G0 F12000 X131.000 Y172.849
G1 F2700 X131.000 Y171.810 E1307.05866
G0 F12000 X130.500 Y171.522
G1 F2700 X130.500 Y172.560 E1307.10181
G0 F12000 X130.000 Y172.271
G1 F2700 X130.000 Y171.233 E1307.14497
G0 F12000 X129.500 Y170.944
G1 F2700 X129.500 Y171.983 E1307.18817
G0 F12000 X129.000 Y171.694
G1 F2700 X129.000 Y170.656 E1307.23132
G0 F12000 X128.500 Y170.367
G1 F2700 X128.500 Y171.405 E1307.27448
G0 F12000 X128.000 Y171.117
G1 F2700 X128.000 Y170.078 E1307.31767
G0 F12000 X127.500 Y169.789
G1 F2700 X127.500 Y170.828 E1307.36087
G0 F12000 X127.000 Y170.539
G1 F2700 X127.000 Y169.501 E1307.40402
G0 F12000 X126.500 Y169.212
G1 F2700 X126.500 Y170.251 E1307.44722
G0 F12000 X126.000 Y169.962
G1 F2700 X126.000 Y168.831 E1307.49424
G0 F12000 X125.500 Y169.673
G1 F2700 X125.500 Y167.966 E1307.56521
G0 F12000 X124.500 Y168.033
G1 F2700 X124.500 Y136.968 E1308.85674
G0 F12000 X125.000 Y136.101
G1 F2700 X125.000 Y168.899 E1310.22033
G1 F2100 E1309.82033
G0 F12000 X140.000 Y177.007
G1 F2100 E1310.22033
G1 F2700 X140.000 Y178.045 E1310.26348
G0 F12000 X140.500 Y178.334
G1 F2700 X140.500 Y177.296 E1310.30664
G0 F12000 X141.000 Y177.584
G1 F2700 X141.000 Y178.623 E1310.34983
G0 F12000 X141.500 Y178.911
G1 F2700 X141.500 Y177.873 E1310.39299
G0 F12000 X142.000 Y178.162
G1 F2700 X142.000 Y179.200 E1310.43614
G0 F12000 X142.500 Y179.489
G1 F2700 X142.500 Y178.450 E1310.47934
G0 F12000 X143.000 Y178.739
G1 F2700 X143.000 Y179.777 E1310.52249
G1 F2100 E1310.12249
G0 F12000 X125.500 Y137.036
G1 F2100 E1310.52249
G1 F2700 X125.500 Y135.324 E1310.59367
G0 F12000 X126.000 Y135.035
G1 F2700 X126.000 Y136.171 E1310.64090
G0 F12000 X126.500 Y135.789
G1 F2700 X126.500 Y134.747 E1310.68422
G0 F12000 X127.000 Y134.458
G1 F2700 X127.000 Y135.500 E1310.72754
G0 F12000 X127.500 Y135.211
G1 F2700 X127.500 Y134.169 E1310.77086
G0 F12000 X128.000 Y133.881
G1 F2700 X128.000 Y134.922 E1310.81414
G0 F12000 X128.500 Y134.634
G1 F2700 X128.500 Y133.592 E1310.85747
G0 F12000 X129.000 Y133.303
G1 F2700 X129.000 Y134.345 E1310.90079
G0 F12000 X129.500 Y134.056
G1 F2700 X129.500 Y133.015 E1310.94407
G0 F12000 X130.000 Y132.726
G1 F2700 X130.000 Y133.768 E1310.98739
G0 F12000 X130.500 Y133.479
G1 F2700 X130.500 Y132.437 E1311.03071
G0 F12000 X131.000 Y132.149
G1 F2700 X131.000 Y133.190 E1311.07399
G0 F12000 X131.500 Y132.902
G1 F2700 X131.500 Y131.860 E1311.11731
G0 F12000 X132.000 Y131.571
G1 F2700 X132.000 Y132.613 E1311.16063
G0 F12000 X132.500 Y132.324
G1 F2700 X132.500 Y131.283 E1311.20391
G0 F12000 X133.000 Y130.994
G1 F2700 X133.000 Y132.036 E1311.24723
G0 F12000 X133.500 Y131.747
G1 F2700 X133.500 Y130.705 E1311.29055
G0 F12000 X134.000 Y130.416
G1 F2700 X134.000 Y131.458 E1311.33388
G0 F12000 X134.500 Y131.169
G1 F2700 X134.500 Y130.128 E1311.37716
G0 F12000 X135.000 Y129.839
G1 F2700 X135.000 Y130.881 E1311.42048
G0 F12000 X135.500 Y130.592
G1 F2700 X135.500 Y129.550 E1311.46380
G0 F12000 X136.000 Y129.262
G1 F2700 X136.000 Y130.303 E1311.50708
G0 F12000 X136.500 Y130.015
G1 F2700 X136.500 Y128.973 E1311.55040
G0 F12000 X137.000 Y128.684
G1 F2700 X137.000 Y129.726 E1311.59372
G0 F12000 X137.500 Y129.437
G1 F2700 X137.500 Y128.396 E1311.63700
G0 F12000 X138.000 Y128.107
G1 F2700 X138.000 Y129.149 E1311.68032
G0 F12000 X138.500 Y128.860
G1 F2700 X138.500 Y127.818 E1311.72364
G0 F12000 X139.000 Y127.530
G1 F2700 X139.000 Y128.571 E1311.76692
G0 F12000 X139.500 Y128.283
G1 F2700 X139.500 Y127.241 E1311.81024
G0 F12000 X140.000 Y126.952
G1 F2700 X140.000 Y127.994 E1311.85357
G0 F12000 X140.500 Y127.705
G1 F2700 X140.500 Y126.664 E1311.89684
G0 F12000 X141.000 Y126.375
G1 F2700 X141.000 Y127.416 E1311.94012
G0 F12000 X141.500 Y127.128
G1 F2700 X141.500 Y126.086 E1311.98345
G0 F12000 X142.000 Y125.798
G1 F2700 X142.000 Y126.839 E1312.02673
G0 F12000 X142.500 Y126.550
G1 F2700 X142.500 Y125.509 E1312.07001
G0 F12000 X143.000 Y125.220
G1 F2700 X143.000 Y126.262 E1312.11333
G0 F12000 X143.500 Y125.973
G1 F2700 X143.500 Y124.932 E1312.15661
G0 F12000 X144.000 Y124.643
G1 F2700 X144.000 Y125.684 E1312.19989
G0 F12000 X144.500 Y125.396
G1 F2700 X144.500 Y124.354 E1312.24321
G0 F12000 X145.000 Y124.065
G1 F2700 X145.000 Y125.107 E1312.28653
G0 F12000 X145.500 Y124.818
G1 F2700 X145.500 Y123.777 E1312.32981
G0 F12000 X146.000 Y123.488
G1 F2700 X146.000 Y124.530 E1312.37313
G0 F12000 X146.500 Y124.241
G1 F2700 X146.500 Y123.199 E1312.41645
G0 F12000 X147.000 Y122.911
G1 F2700 X147.000 Y123.952 E1312.45973
G0 F12000 X147.500 Y123.663
G1 F2700 X147.500 Y122.622 E1312.50301
G0 F12000 X148.000 Y122.333
G1 F2700 X148.000 Y123.375 E1312.54633
G0 F12000 X148.500 Y123.086
G1 F2700 X148.500 Y122.045 E1312.58961
G0 F12000 X149.000 Y121.756
G1 F2700 X149.000 Y122.797 E1312.63289
G0 F12000 X149.500 Y122.509
G1 F2700 X149.500 Y121.467 E1312.67621
G0 F12000 X150.000 Y121.179
G1 F2700 X150.000 Y122.220 E1312.71949
G0 F12000 X150.500 Y121.931
G1 F2700 X150.500 Y120.890 E1312.76277
G0 F12000 X151.000 Y120.601
G1 F2700 X151.000 Y121.643 E1312.80609
G0 F12000 X151.500 Y121.384
G1 F2700 X151.750 Y120.484 E1312.84345
G1 X152.250 Y121.384 E1312.88086
G1 X152.750 Y120.484 E1312.91827
G1 X153.250 Y121.384 E1312.95569
G1 X153.500 Y120.484 E1312.99452
G0 F12000 X154.000 Y120.603
G1 F2700 X154.000 Y121.642 E1313.03772
G0 F12000 X154.500 Y121.930
G1 F2700 X154.500 Y120.892 E1313.08087
G0 F12000 X155.000 Y121.181
G1 F2700 X155.000 Y122.219 E1313.12403
G0 F12000 X155.500 Y122.508
G1 F2700 X155.500 Y121.470 E1313.16718
G0 F12000 X156.000 Y121.758
G1 F2700 X156.000 Y122.796 E1313.21034
G0 F12000 X156.500 Y123.085
G1 F2700 X156.500 Y122.047 E1313.25349
G0 F12000 X157.000 Y122.336
G1 F2700 X157.000 Y123.374 E1313.29665
G0 F12000 X157.500 Y123.663
G1 F2700 X157.500 Y122.624 E1313.33984
G0 F12000 X158.000 Y122.913
G1 F2700 X158.000 Y123.951 E1313.38300
G0 F12000 X158.500 Y124.240
G1 F2700 X158.500 Y123.202 E1313.42615
G0 F12000 X159.000 Y123.490
G1 F2700 X159.000 Y124.529 E1313.46935
G0 F12000 X159.500 Y124.817
G1 F2700 X159.500 Y123.779 E1313.51250
G0 F12000 X160.000 Y124.068
G1 F2700 X160.000 Y125.106 E1313.55566
G0 F12000 X160.500 Y125.395
G1 F2700 X160.500 Y124.356 E1313.59886
G0 F12000 X161.000 Y124.645
G1 F2700 X161.000 Y125.683 E1313.64201
G0 F12000 X161.500 Y125.972
G1 F2700 X161.500 Y124.934 E1313.68517
G0 F12000 X162.000 Y125.223
G1 F2700 X162.000 Y126.261 E1313.72832
G0 F12000 X162.500 Y126.550
G1 F2700 X162.500 Y125.511 E1313.77152
G0 F12000 X163.000 Y125.800
G1 F2700 X163.000 Y126.838 E1313.81467
G0 F12000 X163.500 Y127.127
G1 F2700 X163.500 Y126.089 E1313.85783
G0 F12000 X164.000 Y126.377
G1 F2700 X164.000 Y127.416 E1313.90102
G0 F12000 X164.500 Y127.704
G1 F2700 X164.500 Y126.666 E1313.94418
G0 F12000 X165.000 Y126.955
G1 F2700 X165.000 Y127.993 E1313.98733
G0 F12000 X165.500 Y128.282
G1 F2700 X165.500 Y127.243 E1314.03053
G0 F12000 X166.000 Y127.532
G1 F2700 X166.000 Y128.570 E1314.07369
G0 F12000 X166.500 Y128.859
G1 F2700 X166.500 Y127.821 E1314.11684
G0 F12000 X167.000 Y128.110
G1 F2700 X167.000 Y129.148 E1314.16000
G0 F12000 X167.500 Y129.437
G1 F2700 X167.500 Y128.398 E1314.20319
G0 F12000 X168.000 Y128.687
G1 F2700 X168.000 Y129.725 E1314.24635
G0 F12000 X168.500 Y130.014
G1 F2700 X168.500 Y128.976 E1314.28950
G0 F12000 X169.000 Y129.264
G1 F2700 X169.000 Y130.303 E1314.33270
G0 F12000 X169.500 Y130.591
G1 F2700 X169.500 Y129.553 E1314.37585
G0 F12000 X170.000 Y129.842
G1 F2700 X170.000 Y130.880 E1314.41901
G0 F12000 X170.500 Y131.169
G1 F2700 X170.500 Y130.130 E1314.46221
G0 F12000 X171.000 Y130.419
G1 F2700 X171.000 Y131.457 E1314.50536
G0 F12000 X171.500 Y131.746
G1 F2700 X171.500 Y130.708 E1314.54852
G0 F12000 X172.000 Y130.996
G1 F2700 X172.000 Y132.035 E1314.59171
G0 F12000 X172.500 Y132.324
G1 F2700 X172.500 Y131.285 E1314.63491
G0 F12000 X173.000 Y131.574
G1 F2700 X173.000 Y132.612 E1314.67806
G0 F12000 X173.500 Y132.901
G1 F2700 X173.500 Y131.863 E1314.72122
G0 F12000 X174.000 Y132.151
G1 F2700 X174.000 Y133.190 E1314.76442
G0 F12000 X174.500 Y133.478
G1 F2700 X174.500 Y132.440 E1314.80757
G0 F12000 X175.000 Y132.729
G1 F2700 X175.000 Y133.767 E1314.85073
G0 F12000 X175.500 Y134.056
G1 F2700 X175.500 Y133.017 E1314.89392
G0 F12000 X176.000 Y133.306
G1 F2700 X176.000 Y134.344 E1314.93708
G0 F12000 X176.500 Y134.633
G1 F2700 X176.500 Y133.595 E1314.98023
G0 F12000 X177.000 Y133.883
G1 F2700 X177.000 Y134.922 E1315.02343
G0 F12000 X177.500 Y135.211
G1 F2700 X177.500 Y134.172 E1315.06663
G0 F12000 X178.000 Y134.461
G1 F2700 X178.000 Y135.499 E1315.10978
G0 F12000 X178.500 Y135.788
G1 F2700 X178.500 Y134.749 E1315.15298
G0 F12000 X179.000 Y135.038
G1 F2700 X179.000 Y136.169 E1315.20000
G0 F12000 X179.500 Y135.327
G1 F2700 X179.500 Y137.034 E1315.27097
;LAYER:7
M106 S73
G1 F2100 E1314.87097
G0 F12000 X181.250 Y137.516 Z1.600
;TYPE:WALL-INNER
G1 F2100 E1315.27097
G1 F2700 X181.250 Y167.484 E1316.51689
G1 X179.852 Y169.905 E1316.63312
G1 X153.896 Y184.891 E1317.87919
G1 X151.104 Y184.891 E1317.99527
G1 X125.147 Y169.904 E1319.24140
G1 X123.750 Y167.484 E1319.35757
G1 X123.750 Y137.516 E1320.60350
G1 X125.148 Y135.095 E1320.71973
G1 X151.104 Y120.109 E1321.96580
G1 X153.896 Y120.109 E1322.08188
G1 X179.853 Y135.096 E1323.32801
G1 X181.250 Y137.516 E1323.44418
G1 F2100 E1323.04418
G0 F12000 X160.485 Y148.348
G1 F2100 E1323.44418
G1 F2700 X160.108 Y147.693 E1323.47560
G1 X159.680 Y147.074 E1323.50689
G1 X159.202 Y146.495 E1323.53810
G1 X158.678 Y145.957 E1323.56933
G1 X158.109 Y145.465 E1323.60060
G1 X157.511 Y145.028 E1323.63139
G1 X157.244 Y144.855 E1323.64462
G1 X156.562 Y144.471 E1323.67716
G1 X155.837 Y144.143 E1323.71024
G1 X154.992 Y143.852 E1323.74740
G1 X154.130 Y143.648 E1323.78423
G1 X153.273 Y143.536 E1323.82016
G1 X152.444 Y143.505 E1323.85465
G1 X151.918 Y143.518 E1323.87653
G1 X151.089 Y143.612 E1323.91121
G1 X150.458 Y143.737 E1323.93796
G1 X149.646 Y143.965 E1323.97302
G1 X148.945 Y144.234 E1324.00424
G1 X148.189 Y144.726 E1324.04174
G1 X147.612 Y145.187 E1324.07244
G1 X147.040 Y145.727 E1324.10515
G1 X146.554 Y146.277 E1324.13566
G1 X146.126 Y146.854 E1324.16553
G1 X145.752 Y147.454 E1324.19492
G1 X145.437 Y148.076 E1324.22391
G1 X145.181 Y148.708 E1324.25226
G1 X144.978 Y149.351 E1324.28029
G1 X144.812 Y150.126 E1324.31325
G1 X144.711 Y151.091 E1324.35358
G1 X144.707 Y151.357 E1324.36465
G1 X144.735 Y152.114 E1324.39614
G1 X144.843 Y152.868 E1324.42781
G1 X145.017 Y153.570 E1324.45788
G1 X145.106 Y153.860 E1324.47049
G1 X145.369 Y154.526 E1324.50026
G1 X145.680 Y155.132 E1324.52858
G1 X145.860 Y155.437 E1324.54330
G1 X146.244 Y155.979 E1324.57092
G1 X146.644 Y156.448 E1324.59654
G1 X146.936 Y156.749 E1324.61398
G1 X147.369 Y157.127 E1324.63787
G1 X147.701 Y157.376 E1324.65513
G1 X148.073 Y157.720 E1324.67619
G1 X148.788 Y158.243 E1324.71302
G1 X148.945 Y158.347 E1324.72085
G1 X149.668 Y158.726 E1324.75479
G1 X150.394 Y159.012 E1324.78723
G1 X151.065 Y159.189 E1324.81608
G1 X151.962 Y159.323 E1324.85379
G1 X152.454 Y159.344 E1324.87426
G1 X153.407 Y159.442 E1324.91409
G1 X154.056 Y159.425 E1324.94109
G1 X154.638 Y159.360 E1324.96543
G1 X155.228 Y159.244 E1324.99043
G1 X155.988 Y159.019 E1325.02338
G1 X156.731 Y158.711 E1325.05682
G1 X157.281 Y158.415 E1325.08279
G1 X157.804 Y158.071 E1325.10882
G1 X158.277 Y157.703 E1325.13373
G1 X158.504 Y157.508 E1325.14617
G1 X158.936 Y157.087 E1325.17125
G1 X159.341 Y156.625 E1325.19680
G1 X159.714 Y156.118 E1325.22297
G1 X160.051 Y155.585 E1325.24918
G1 X160.350 Y155.010 E1325.27613
G1 X160.605 Y154.401 E1325.30358
G1 X160.871 Y153.585 E1325.33926
G1 X161.048 Y152.756 E1325.37450
G1 X161.134 Y151.950 E1325.40820
G1 X161.153 Y151.386 E1325.43166
G1 X161.122 Y150.765 E1325.45751
G1 X161.115 Y150.587 E1325.46492
G1 X161.021 Y149.898 E1325.49383
G1 X160.860 Y149.171 E1325.52479
G1 X160.485 Y148.348 E1325.56239
G0 F12000 X160.040 Y148.577
;TYPE:WALL-OUTER
G1 F2700 X159.685 Y147.960 E1325.59198
G1 X159.281 Y147.376 E1325.62151
G1 X158.829 Y146.829 E1325.65101
G1 X158.335 Y146.321 E1325.68047
G1 X157.798 Y145.856 E1325.71000
G1 X157.228 Y145.440 E1325.73934
G1 X156.985 Y145.283 E1325.75137
G1 X156.336 Y144.918 E1325.78232
G1 X155.652 Y144.608 E1325.81354
G1 X154.853 Y144.333 E1325.84868
G1 X154.040 Y144.141 E1325.88341
G1 X153.231 Y144.035 E1325.91733
G1 X152.441 Y144.005 E1325.95020
G1 X151.953 Y144.017 E1325.97049
G1 X151.166 Y144.107 E1326.00342
G1 X150.575 Y144.224 E1326.02847
G1 X149.803 Y144.440 E1326.06180
G1 X149.174 Y144.682 E1326.08982
G1 X148.482 Y145.132 E1326.12414
G1 X147.940 Y145.565 E1326.15298
G1 X147.399 Y146.075 E1326.18389
G1 X146.943 Y146.592 E1326.21255
G1 X146.540 Y147.135 E1326.24066
G1 X146.188 Y147.700 E1326.26834
G1 X145.892 Y148.283 E1326.29552
G1 X145.652 Y148.877 E1326.32216
G1 X145.462 Y149.479 E1326.34840
G1 X145.307 Y150.205 E1326.37927
G1 X145.210 Y151.121 E1326.41756
G1 X145.207 Y151.351 E1326.42713
G1 X145.234 Y152.069 E1326.45700
G1 X145.334 Y152.772 E1326.48652
G1 X145.499 Y153.437 E1326.51501
G1 X145.825 Y154.319 E1326.55410
G1 X146.119 Y154.891 E1326.58084
G1 X146.280 Y155.166 E1326.59409
G1 X146.639 Y155.672 E1326.61988
G1 X147.014 Y156.111 E1326.64388
G1 X147.281 Y156.386 E1326.65982
G1 X147.684 Y156.738 E1326.68207
G1 X148.028 Y156.997 E1326.69997
G1 X148.392 Y157.333 E1326.72056
G1 X149.074 Y157.833 E1326.75572
G1 X149.876 Y158.271 E1326.79371
G1 X150.550 Y158.536 E1326.82382
G1 X151.166 Y158.698 E1326.85030
G1 X152.010 Y158.824 E1326.88578
G1 X153.426 Y158.941 E1326.94485
G1 X154.021 Y158.926 E1326.96960
G1 X154.562 Y158.865 E1326.99223
G1 X155.109 Y158.758 E1327.01541
G1 X155.821 Y158.547 E1327.04628
G1 X156.516 Y158.259 E1327.07756
G1 X157.024 Y157.985 E1327.10155
G1 X157.513 Y157.664 E1327.12587
G1 X157.960 Y157.316 E1327.14943
G1 X158.167 Y157.139 E1327.16075
G1 X158.573 Y156.743 E1327.18433
G1 X158.952 Y156.310 E1327.20825
G1 X159.300 Y155.837 E1327.23267
G1 X159.617 Y155.336 E1327.25731
G1 X159.897 Y154.797 E1327.28257
G1 X160.136 Y154.226 E1327.30830
G1 X160.388 Y153.455 E1327.34202
G1 X160.553 Y152.677 E1327.37509
G1 X160.635 Y151.915 E1327.40695
G1 X160.652 Y151.390 E1327.42879
G1 X160.623 Y150.790 E1327.45377
G1 X160.616 Y150.631 E1327.46038
G1 X160.528 Y149.986 E1327.48745
G1 X160.383 Y149.330 E1327.51538
G1 X160.040 Y148.577 E1327.54978
G1 F2100 E1327.14978
G0 F12000 X181.750 Y137.380
G1 F2100 E1327.54978
G1 F2700 X181.750 Y167.618 E1328.80693
G1 X180.218 Y170.271 E1328.93430
G1 X154.030 Y185.391 E1330.19151
G1 X150.970 Y185.391 E1330.31873
G1 X124.781 Y170.270 E1331.57600
G1 X123.250 Y167.620 E1331.70324
G1 X123.250 Y137.382 E1332.96039
G1 X124.782 Y134.729 E1333.08775
G1 X150.970 Y119.609 E1334.34497
G1 X154.030 Y119.609 E1334.47219
G1 X180.219 Y134.730 E1335.72945
G1 X181.750 Y137.380 E1335.85669
G1 F2100 E1335.45669
G0 F12000 X180.208 Y136.560
;TYPE:FILL
G1 F2100 E1335.85669
G1 F2700 X160.464 Y147.959 E1336.80454
G1 F2100 E1336.40454
G0 F12000 X159.815 Y156.663
G1 F2100 E1336.80454
G1 F2700 X180.208 Y168.437 E1337.78354
G1 F2100 E1337.38354
G0 F12000 X180.824 Y158.841
G1 F2100 E1337.78354
G1 F2700 X143.828 Y180.200 E1339.55959
G1 F2100 E1339.15959
G0 F12000 X152.448 Y184.466
G1 F2100 E1339.55959
G1 F2700 X152.448 Y160.493 E1340.55627
G1 F2100 E1340.15627
G0 F12000 X142.646 Y179.516
G1 F2100 E1340.55627
G1 F2700 X142.646 Y125.483 E1342.80270
G0 F12000 X143.831 Y124.798
G1 F2700 X180.825 Y146.157 E1344.57868
G0 F12000 X180.824 Y147.523
G1 F2700 X134.027 Y174.541 E1346.82525
G0 F12000 X132.844 Y173.857
G1 F2700 X132.844 Y131.142 E1348.60114
G0 F12000 X134.028 Y130.457
G1 F2700 X180.825 Y157.475 E1350.84771
G1 F2100 E1350.44771
G0 F12000 X172.052 Y173.918
G1 F2100 E1350.84771
G1 F2700 X172.052 Y131.083 E1352.62858
G0 F12000 X171.072 Y130.516
G1 F2700 X124.174 Y157.593 E1354.88002
G0 F12000 X124.174 Y158.723
G1 F2700 X161.271 Y180.141 E1356.66093
G0 F12000 X162.250 Y179.577
G1 F2700 X162.250 Y125.424 E1358.91235
G0 F12000 X161.270 Y124.857
G1 F2700 X124.174 Y146.274 E1360.69320
G0 F12000 X124.173 Y147.404
G1 F2700 X171.073 Y174.481 E1362.94471
G1 F2100 E1362.54471
G0 F12000 X146.197 Y156.196
G1 F2100 E1362.94471
G1 F2700 X124.840 Y168.526 E1363.96998
G1 F2100 E1363.56998
G0 F12000 X145.190 Y148.220
G1 F2100 E1363.96998
G1 F2700 X124.842 Y136.472 E1364.94683
G1 F2100 E1364.54683
G0 F12000 X152.448 Y143.330
G1 F2100 E1364.94683
G1 F2700 X152.448 Y120.534 E1365.89457
G1 F2100 E1365.49457
G0 F12000 X150.776 Y120.500
;TYPE:SKIN
G1 F2100 E1365.89457
G1 F2700 X154.223 Y120.500 E1366.03788
G0 F12000 X155.089 Y121.000
G1 F2700 X149.910 Y121.000 E1366.25320
G0 F12000 X149.044 Y121.500
G1 F2700 X150.842 Y121.500 E1366.32795
G0 F12000 X149.976 Y122.000
G1 F2700 X148.178 Y122.000 E1366.40271
G0 F12000 X147.312 Y122.500
G1 F2700 X149.110 Y122.500 E1366.47746
G0 F12000 X148.244 Y123.000
