;-- START GCODE --
;Sliced for Type A Machines Series 1
;Sliced at: Tue 06-12-2016 12:22:04
;Basic settings:
; Layer height: 0.4
; Walls: 1.2
; Fill: 8
; Print Speed: 45
; Support: 0
; Retraction Speed: 35
; Retraction Distance: 0.4
;Print time: 42 minutes
;Filament used: 8.37m 24.0g
;Settings based on: Type A Machines Everyday PLA
G21        ;metric values
G90        ;absolute positioning
G28     ;move to endstops
G1 Z15.0 F12000 ;move the platform down 15mm
G1 X150 Y5 F12000 ;center
M140 S50 ;Prep Heat Bed
M109 S215 ;Heat To temp
M190 S50 ;Heat Bed to temp
G1 X150 Y5 Z0.3 ;move the platform to purge extrusion
G92 E0 ;zero the extruded length
G1 F200 X250 E30 ;extrude 30mm of feed stock
G92 E0 ;zero the extruded length again
G1 X150 Y150  Z25 F12000 ;recenter and begin
G1 F12000

;Layer count: 40
;LAYER:0
M107
G0 F12000 X123.138 Y133.081 Z0.400
G0 X122.521 Y134.145
;TYPE:SKIRT
G1 F1800 X123.138 Y133.081 E0.12273
G1 X150.367 Y117.359 E3.26002
G1 X154.633 Y117.359 E3.68568
G1 X181.864 Y133.082 E6.82320
G1 X183.386 Y135.714 E7.12657
G1 X184.000 Y136.782 E7.24949
G1 X184.000 Y168.221 E10.38649
G1 X182.479 Y170.855 E10.68998
G1 X181.862 Y171.919 E10.81271
G1 X154.633 Y187.641 E13.95001
G1 X150.367 Y187.641 E14.37567
G1 X123.136 Y171.918 E17.51319
G1 X121.614 Y169.286 E17.81656
G1 X121.000 Y168.218 E17.93948
G1 X121.000 Y136.779 E21.07648
G1 X122.521 Y134.145 E21.37997
G1 F2100 E20.97997
G1 Z0.800
G0 F12000 X126.155 Y136.249
;TYPE:WALL-INNER
G1 Z0.400
G1 F2100 E21.37997
G1 F1800 X126.210 Y136.156 E21.39075
G1 X151.491 Y121.559 E24.30359
G1 X153.509 Y121.559 E24.50494
G1 X178.790 Y136.156 E27.41778
G1 X179.748 Y137.813 E27.60876
G1 X179.800 Y137.902 E27.61905
G1 X179.800 Y167.097 E30.53214
G1 X178.845 Y168.751 E30.72271
G1 X178.790 Y168.844 E30.73349
G1 X153.509 Y183.441 E33.64633
G1 X151.491 Y183.441 E33.84768
G1 X126.210 Y168.844 E36.76052
G1 X125.252 Y167.187 E36.95150
G1 X125.200 Y167.098 E36.96179
G1 X125.200 Y137.903 E39.87488
G1 X126.155 Y136.249 E40.06545
G0 F12000 X125.771 Y135.718
;TYPE:WALL-OUTER
G1 F1800 X151.332 Y120.959 E43.01056
G1 X153.668 Y120.959 E43.24365
G1 X179.229 Y135.718 E46.18877
G1 X180.400 Y137.744 E46.42226
G1 X180.400 Y167.256 E49.36698
G1 X179.229 Y169.282 E49.60047
G1 X153.668 Y184.041 E52.54559
G1 X151.332 Y184.041 E52.77867
G1 X125.771 Y169.282 E55.72379
G1 X124.600 Y167.256 E55.95728
G1 X124.600 Y137.744 E58.90200
G1 X125.771 Y135.718 E59.13550
G0 F12000 X126.600 Y136.174
;TYPE:SKIN
G1 F1800 X126.600 Y168.826 E62.39353
G0 F12000 X127.200 Y169.172
G1 F1800 X127.200 Y135.827 E65.72070
G0 F12000 X127.800 Y135.481
G1 F1800 X127.800 Y169.519 E69.11703
G0 F12000 X128.400 Y169.865
G1 F1800 X128.400 Y135.134 E72.58250
G0 F12000 X129.000 Y134.788
G1 F1800 X129.000 Y170.212 E76.11712
G0 F12000 X129.600 Y170.558
G1 F1800 X129.600 Y134.441 E79.72089
G0 F12000 X130.200 Y134.095
G1 F1800 X130.200 Y170.904 E83.39371
G0 F12000 X130.800 Y171.251
G1 F1800 X130.800 Y133.749 E87.13567
G0 F12000 X131.400 Y133.402
G1 F1800 X131.400 Y171.597 E90.94679
G0 F12000 X132.000 Y171.944
G1 F1800 X132.000 Y133.056 E94.82705
G0 F12000 X132.600 Y132.709
G1 F1800 X132.600 Y172.290 E98.77645
G0 F12000 X133.200 Y172.637
G1 F1800 X133.200 Y132.363 E102.79501
G0 F12000 X133.800 Y132.016
G1 F1800 X133.800 Y172.983 E106.88271
G0 F12000 X134.400 Y173.329
G1 F1800 X134.400 Y131.670 E111.03947
G0 F12000 X135.000 Y131.323
G1 F1800 X135.000 Y173.676 E115.26547
G0 F12000 X135.600 Y174.022
G1 F1800 X135.600 Y130.977 E119.56051
G0 F12000 X136.200 Y130.631
G1 F1800 X136.200 Y174.369 E123.92471
G0 F12000 X136.800 Y174.715
G1 F1800 X136.800 Y130.284 E128.35805
G0 F12000 X137.400 Y129.938
G1 F1800 X137.400 Y175.062 E132.86054
G0 F12000 X138.000 Y175.408
G1 F1800 X138.000 Y129.591 E137.43218
G0 F12000 X138.600 Y129.245
G1 F1800 X138.600 Y175.754 E142.07287
G0 F12000 X139.200 Y176.101
G1 F1800 X139.200 Y128.898 E146.78280
G0 F12000 X139.800 Y128.552
G1 F1800 X139.800 Y176.447 E151.56179
G1 F2100 E151.16179
G1 Z0.800
G0 F12000 X126.000 Y168.060
G1 Z0.400
G1 F2100 E151.56179
G1 F1800 X126.000 Y136.936 E154.66735
G1 F2100 E154.26735
G1 Z0.800
G0 F12000 X140.400 Y128.205
G1 Z0.400
G1 F2100 E154.66735
G1 F1800 X140.400 Y176.794 E159.51558
G0 F12000 X141.000 Y177.140
G1 F1800 X141.000 Y127.859 E164.43286
G0 F12000 X141.600 Y127.513
G1 F1800 X141.600 Y177.487 E169.41929
G0 F12000 X142.200 Y177.833
G1 F1800 X142.200 Y127.166 E174.47486
G0 F12000 X142.800 Y126.820
G1 F1800 X142.800 Y178.179 E179.59948
G0 F12000 X143.400 Y178.526
G1 F1800 X143.400 Y126.473 E184.79335
G0 F12000 X144.000 Y126.127
G1 F1800 X144.000 Y178.872 E190.05627
G0 F12000 X144.600 Y179.219
G1 F1800 X144.600 Y125.780 E195.38843
G0 F12000 X145.200 Y125.434
G1 F1800 X145.200 Y179.565 E200.78965
G0 F12000 X145.800 Y179.912
G1 F1800 X145.800 Y125.087 E206.26011
G0 F12000 X146.400 Y124.741
G1 F1800 X146.400 Y180.258 E211.79962
G0 F12000 X147.000 Y180.605
G1 F1800 X147.000 Y124.395 E217.40827
G0 F12000 X147.600 Y124.048
G1 F1800 X147.600 Y180.951 E223.08608
G0 F12000 X148.200 Y181.297
G1 F1800 X148.200 Y123.702 E228.83293
G0 F12000 X148.800 Y123.355
G1 F1800 X148.800 Y181.644 E234.64903
G0 F12000 X149.400 Y181.990
G1 F1800 X149.400 Y123.009 E240.53418
G0 F12000 X150.000 Y122.662
G1 F1800 X150.000 Y182.337 E246.48857
G0 F12000 X150.600 Y182.683
G1 F1800 X150.600 Y122.316 E252.51202
G0 F12000 X151.200 Y121.969
G1 F1800 X151.200 Y183.030 E258.60471
G0 F12000 X151.800 Y183.231
G1 F1800 X151.800 Y121.769 E264.73741
G0 F12000 X152.400 Y121.769
G1 F1800 X152.400 Y183.231 E270.87011
G0 F12000 X153.000 Y183.231
G1 F1800 X153.000 Y121.769 E277.00282
G0 F12000 X153.600 Y121.855
G1 F1800 X153.600 Y183.146 E283.11846
G0 F12000 X154.200 Y182.800
G1 F1800 X154.200 Y122.201 E289.16505
G0 F12000 X154.800 Y122.548
G1 F1800 X154.800 Y182.453 E295.14240
G0 F12000 X155.400 Y182.107
G1 F1800 X155.400 Y122.894 E301.05069
G0 F12000 X156.000 Y123.241
G1 F1800 X156.000 Y181.760 E306.88974
G0 F12000 X156.600 Y181.414
G1 F1800 X156.600 Y123.587 E312.65974
G0 F12000 X157.200 Y123.934
G1 F1800 X157.200 Y181.067 E318.36050
G0 F12000 X157.800 Y180.721
G1 F1800 X157.800 Y124.280 E323.99220
G0 F12000 X158.400 Y124.626
G1 F1800 X158.400 Y180.374 E329.55476
G0 F12000 X159.000 Y180.028
G1 F1800 X159.000 Y124.973 E335.04817
G0 F12000 X159.600 Y125.319
G1 F1800 X159.600 Y179.682 E340.47253
G0 F12000 X160.200 Y179.335
G1 F1800 X160.200 Y125.666 E345.82765
G0 F12000 X160.800 Y126.012
G1 F1800 X160.800 Y178.989 E351.11372
G0 F12000 X161.400 Y178.642
G1 F1800 X161.400 Y126.359 E356.33053
G0 F12000 X162.000 Y126.705
G1 F1800 X162.000 Y178.296 E361.47831
G0 F12000 X162.600 Y177.949
G1 F1800 X162.600 Y127.051 E366.55693
G0 F12000 X163.200 Y127.398
G1 F1800 X163.200 Y177.603 E371.56640
G0 F12000 X163.800 Y177.256
G1 F1800 X163.800 Y127.744 E376.50673
G0 F12000 X164.400 Y128.091
G1 F1800 X164.400 Y176.910 E381.37791
G0 F12000 X165.000 Y176.564
G1 F1800 X165.000 Y128.437 E386.18004
G0 F12000 X165.600 Y128.784
G1 F1800 X165.600 Y176.217 E390.91293
G0 F12000 X166.200 Y175.871
G1 F1800 X166.200 Y129.130 E395.57676
G0 F12000 X166.800 Y129.477
G1 F1800 X166.800 Y175.524 E400.17135
G0 F12000 X167.400 Y175.178
G1 F1800 X167.400 Y129.823 E404.69689
G0 F12000 X168.000 Y130.169
G1 F1800 X168.000 Y174.831 E409.15328
G0 F12000 X168.600 Y174.485
G1 F1800 X168.600 Y130.516 E413.54053
G0 F12000 X169.200 Y130.862
G1 F1800 X169.200 Y174.138 E417.85862
G0 F12000 X169.800 Y173.792
G1 F1800 X169.800 Y131.209 E422.10757
G0 F12000 X170.400 Y131.555
G1 F1800 X170.400 Y173.446 E426.28747
G0 F12000 X171.000 Y173.099
G1 F1800 X171.000 Y131.902 E430.39813
G0 F12000 X171.600 Y132.248
G1 F1800 X171.600 Y172.753 E434.43973
G0 F12000 X172.200 Y172.406
G1 F1800 X172.200 Y132.594 E438.41219
G0 F12000 X172.800 Y132.941
G1 F1800 X172.800 Y172.060 E442.31550
G0 F12000 X173.400 Y171.713
G1 F1800 X173.400 Y133.287 E446.14966
G0 F12000 X174.000 Y133.634
G1 F1800 X174.000 Y171.367 E449.91468
G0 F12000 X174.600 Y171.020
G1 F1800 X174.600 Y133.980 E453.61054
G0 F12000 X175.200 Y134.327
G1 F1800 X175.200 Y170.674 E457.23726
G0 F12000 X175.800 Y170.328
G1 F1800 X175.800 Y134.673 E460.79493
G0 F12000 X176.400 Y135.019
G1 F1800 X176.400 Y169.981 E464.28345
G0 F12000 X177.000 Y169.635
G1 F1800 X177.000 Y135.366 E467.70283
G0 F12000 X177.600 Y135.712
G1 F1800 X177.600 Y169.288 E471.05306
G0 F12000 X178.200 Y168.942
G1 F1800 X178.200 Y136.059 E474.33413
G0 F12000 X178.800 Y136.594
G1 F1800 X178.800 Y168.410 E477.50875
G0 F12000 X179.400 Y167.370
G1 F1800 X179.400 Y137.631 E480.47612
;LAYER:1
M106 S20
G0 F12000 X179.801 Y137.104 Z0.800
;TYPE:WALL-INNER
G1 F1980 X180.200 Y137.797 E480.55591
G1 X180.200 Y167.202 E483.48995
G1 X179.484 Y168.444 E483.63300
G1 X179.083 Y169.137 E483.71289
G1 X153.616 Y183.841 E486.64713
G1 X151.384 Y183.841 E486.86984
G1 X125.917 Y169.137 E489.80409
G1 X125.198 Y167.894 E489.94738
G1 X124.800 Y167.203 E490.02694
G1 X124.800 Y137.798 E492.96099
G1 X125.516 Y136.556 E493.10403
G1 X125.917 Y135.863 E493.18392
G1 X151.384 Y121.159 E496.11817
G1 X153.616 Y121.159 E496.34088
G1 X179.083 Y135.863 E499.27513
G1 X179.801 Y137.104 E499.41819
G0 F12000 X180.800 Y137.637
;TYPE:WALL-OUTER
G1 F1980 X180.800 Y167.363 E502.38426
G1 X179.522 Y169.575 E502.63916
G1 X153.775 Y184.441 E505.60569
G1 X151.225 Y184.441 E505.86013
G1 X125.478 Y169.575 E508.82666
G1 X124.200 Y167.363 E509.08156
G1 X124.200 Y137.637 E512.04763
G1 X125.478 Y135.425 E512.30254
G1 X151.225 Y120.559 E515.26907
G1 X153.775 Y120.559 E515.52351
G1 X179.522 Y135.425 E518.49003
G1 X180.800 Y137.637 E518.74494
G0 F12000 X179.989 Y138.000
;TYPE:SKIN
G1 F1980 X125.009 Y138.000 E524.23086
G0 F12000 X125.009 Y138.600
G1 F1980 X179.989 Y138.600 E529.71679
G0 F12000 X179.989 Y139.200
G1 F1980 X125.009 Y139.200 E535.20272
G0 F12000 X125.009 Y139.800
G1 F1980 X179.989 Y139.800 E540.68864
G1 F2100 E540.28864
G1 Z1.200
G0 F12000 X179.728 Y137.400
G1 Z0.800
G1 F2100 E540.68864
G1 F1980 X125.272 Y137.400 E546.12228
G0 F12000 X125.618 Y136.800
G1 F1980 X179.381 Y136.800 E551.48678
G0 F12000 X179.035 Y136.200
G1 F1980 X125.964 Y136.200 E556.78222
G0 F12000 X126.791 Y135.600
G1 F1980 X178.208 Y135.600 E561.91263
G0 F12000 X177.169 Y135.000
G1 F1980 X127.830 Y135.000 E566.83570
G0 F12000 X128.869 Y134.400
G1 F1980 X176.130 Y134.400 E571.55142
G0 F12000 X175.090 Y133.800
G1 F1980 X129.909 Y133.800 E576.05960
G0 F12000 X130.948 Y133.200
G1 F1980 X174.051 Y133.200 E580.36043
G0 F12000 X173.012 Y132.600
G1 F1980 X131.987 Y132.600 E584.45393
G0 F12000 X133.026 Y132.000
G1 F1980 X171.973 Y132.000 E588.34007
G0 F12000 X170.934 Y131.400
G1 F1980 X134.065 Y131.400 E592.01888
G0 F12000 X135.104 Y130.800
G1 F1980 X169.895 Y130.800 E595.49034
G0 F12000 X168.855 Y130.200
G1 F1980 X136.144 Y130.200 E598.75425
G0 F12000 X137.183 Y129.600
G1 F1980 X167.816 Y129.600 E601.81083
G0 F12000 X166.777 Y129.000
G1 F1980 X138.222 Y129.000 E604.66006
G0 F12000 X139.261 Y128.400
G1 F1980 X165.738 Y128.400 E607.30194
G0 F12000 X164.699 Y127.800
G1 F1980 X140.300 Y127.800 E609.73648
G0 F12000 X141.340 Y127.200
G1 F1980 X163.659 Y127.200 E611.96348
G0 F12000 X162.620 Y126.600
G1 F1980 X142.379 Y126.600 E613.98314
G0 F12000 X143.418 Y126.000
G1 F1980 X161.581 Y126.000 E615.79545
G0 F12000 X160.542 Y125.400
G1 F1980 X144.457 Y125.400 E617.40042
G0 F12000 X145.496 Y124.800
G1 F1980 X159.503 Y124.800 E618.79804
G0 F12000 X158.463 Y124.200
G1 F1980 X146.536 Y124.200 E619.98812
G0 F12000 X147.575 Y123.600
G1 F1980 X157.424 Y123.600 E620.97086
G0 F12000 X156.385 Y123.000
G1 F1980 X148.614 Y123.000 E621.74625
G0 F12000 X149.653 Y122.400
G1 F1980 X155.346 Y122.400 E622.31430
G0 F12000 X154.307 Y121.800
G1 F1980 X150.692 Y121.800 E622.67501
G1 F2100 E622.27501
G1 Z1.200
G0 F12000 X125.009 Y140.400
G1 Z0.800
G1 F2100 E622.67501
G1 F1980 X179.989 Y140.400 E628.16094
G0 F12000 X179.989 Y141.000
G1 F1980 X125.009 Y141.000 E633.64686
G0 F12000 X125.009 Y141.600
G1 F1980 X179.989 Y141.600 E639.13279
G0 F12000 X179.989 Y142.200
G1 F1980 X125.009 Y142.200 E644.61872
G0 F12000 X125.009 Y142.800
G1 F1980 X179.989 Y142.800 E650.10464
G0 F12000 X179.989 Y143.400
G1 F1980 X125.009 Y143.400 E655.59057
G0 F12000 X125.009 Y144.000
G1 F1980 X179.989 Y144.000 E661.07650
G0 F12000 X179.989 Y144.600
G1 F1980 X125.009 Y144.600 E666.56242
G0 F12000 X125.009 Y145.200
G1 F1980 X179.989 Y145.200 E672.04835
G0 F12000 X179.989 Y145.800
G1 F1980 X125.009 Y145.800 E677.53428
G0 F12000 X125.009 Y146.400
G1 F1980 X179.989 Y146.400 E683.02020
G0 F12000 X179.989 Y147.000
G1 F1980 X125.009 Y147.000 E688.50613
G0 F12000 X125.009 Y147.600
G1 F1980 X179.989 Y147.600 E693.99206
G0 F12000 X179.989 Y148.200
G1 F1980 X125.009 Y148.200 E699.47798
G0 F12000 X125.009 Y148.800
G1 F1980 X179.989 Y148.800 E704.96391
G0 F12000 X179.989 Y149.400
G1 F1980 X125.009 Y149.400 E710.44984
G0 F12000 X125.009 Y150.000
G1 F1980 X179.989 Y150.000 E715.93576
G0 F12000 X179.989 Y150.600
G1 F1980 X125.009 Y150.600 E721.42169
G0 F12000 X125.009 Y151.200
G1 F1980 X179.989 Y151.200 E726.90762
G0 F12000 X179.989 Y151.800
G1 F1980 X125.009 Y151.800 E732.39354
G0 F12000 X125.009 Y152.400
G1 F1980 X179.989 Y152.400 E737.87947
G0 F12000 X179.989 Y153.000
G1 F1980 X125.009 Y153.000 E743.36540
G0 F12000 X125.009 Y153.600
G1 F1980 X179.989 Y153.600 E748.85132
G0 F12000 X179.989 Y154.200
G1 F1980 X125.009 Y154.200 E754.33725
G0 F12000 X125.009 Y154.800
G1 F1980 X179.989 Y154.800 E759.82318
G0 F12000 X179.989 Y155.400
G1 F1980 X125.009 Y155.400 E765.30910
G0 F12000 X125.009 Y156.000
G1 F1980 X179.989 Y156.000 E770.79503
G0 F12000 X179.989 Y156.600
G1 F1980 X125.009 Y156.600 E776.28096
G0 F12000 X125.009 Y157.200
G1 F1980 X179.989 Y157.200 E781.76688
G0 F12000 X179.989 Y157.800
G1 F1980 X125.009 Y157.800 E787.25281
G0 F12000 X125.009 Y158.400
G1 F1980 X179.989 Y158.400 E792.73874
G0 F12000 X179.989 Y159.000
G1 F1980 X125.009 Y159.000 E798.22466
G0 F12000 X125.009 Y159.600
G1 F1980 X179.989 Y159.600 E803.71059
G0 F12000 X179.989 Y160.200
G1 F1980 X125.009 Y160.200 E809.19652
G0 F12000 X125.009 Y160.800
G1 F1980 X179.989 Y160.800 E814.68244
G0 F12000 X179.989 Y161.400
G1 F1980 X125.009 Y161.400 E820.16837
G0 F12000 X125.009 Y162.000
G1 F1980 X179.989 Y162.000 E825.65430
G0 F12000 X179.989 Y162.600
G1 F1980 X125.009 Y162.600 E831.14022
G0 F12000 X125.009 Y163.200
G1 F1980 X179.989 Y163.200 E836.62615
G0 F12000 X179.989 Y163.800
G1 F1980 X125.009 Y163.800 E842.11208
G0 F12000 X125.009 Y164.400
G1 F1980 X179.989 Y164.400 E847.59800
G0 F12000 X179.989 Y165.000
G1 F1980 X125.009 Y165.000 E853.08393
G0 F12000 X125.009 Y165.600
G1 F1980 X179.989 Y165.600 E858.56986
G0 F12000 X179.989 Y166.200
G1 F1980 X125.009 Y166.200 E864.05578
G0 F12000 X125.009 Y166.800
G1 F1980 X179.989 Y166.800 E869.54171
G0 F12000 X179.841 Y167.400
G1 F1980 X125.156 Y167.400 E874.99820
G0 F12000 X125.502 Y168.000
G1 F1980 X179.494 Y168.000 E880.38554
G0 F12000 X179.148 Y168.600
G1 F1980 X125.849 Y168.600 E885.70374
G0 F12000 X126.447 Y169.200
G1 F1980 X178.550 Y169.200 E890.90260
G0 F12000 X177.511 Y169.800
G1 F1980 X127.486 Y169.800 E895.89411
G0 F12000 X128.525 Y170.400
G1 F1980 X176.472 Y170.400 E900.67828
G0 F12000 X175.432 Y171.000
G1 F1980 X129.565 Y171.000 E905.25491
G0 F12000 X130.604 Y171.600
G1 F1980 X174.393 Y171.600 E909.62420
G0 F12000 X173.354 Y172.200
G1 F1980 X131.643 Y172.200 E913.78614
G0 F12000 X132.682 Y172.800
G1 F1980 X172.315 Y172.800 E917.74073
G0 F12000 X171.276 Y173.400
G1 F1980 X133.721 Y173.400 E921.48799
G0 F12000 X134.761 Y174.000
G1 F1980 X170.236 Y174.000 E925.02770
G0 F12000 X169.197 Y174.600
G1 F1980 X135.800 Y174.600 E928.36006
G0 F12000 X136.839 Y175.200
G1 F1980 X168.158 Y175.200 E931.48509
G0 F12000 X167.119 Y175.800
G1 F1980 X137.878 Y175.800 E934.40276
G0 F12000 X138.917 Y176.400
G1 F1980 X166.080 Y176.400 E937.11310
G0 F12000 X165.041 Y177.000
G1 F1980 X139.956 Y177.000 E939.61609
G0 F12000 X140.996 Y177.600
G1 F1980 X164.001 Y177.600 E941.91154
G0 F12000 X162.962 Y178.200
G1 F1980 X142.035 Y178.200 E943.99964
G0 F12000 X143.074 Y178.800
G1 F1980 X161.923 Y178.800 E945.88040
G0 F12000 X160.884 Y179.400
G1 F1980 X144.113 Y179.400 E947.55382
G0 F12000 X145.152 Y180.000
G1 F1980 X159.845 Y180.000 E949.01990
G0 F12000 X158.805 Y180.600
G1 F1980 X146.192 Y180.600 E950.27843
G0 F12000 X147.231 Y181.200
G1 F1980 X157.766 Y181.200 E951.32961
G0 F12000 X156.727 Y181.800
G1 F1980 X148.270 Y181.800 E952.17345
G0 F12000 X149.309 Y182.400
G1 F1980 X155.688 Y182.400 E952.80995
G0 F12000 X154.649 Y183.000
G1 F1980 X150.348 Y183.000 E953.23911
G0 F12000 X151.388 Y183.600
G1 F1980 X153.609 Y183.600 E953.46072
;LAYER:2
M106 S40
G0 F12000 X153.724 Y184.241 Z1.200
;TYPE:WALL-INNER
G1 F2220 X151.276 Y184.241 E953.70498
G1 X125.623 Y169.429 E956.66069
G1 X124.400 Y167.311 E956.90473
G1 X124.400 Y137.689 E959.86043
G1 X125.623 Y135.571 E960.10446
G1 X151.276 Y120.759 E963.06017
G1 X153.724 Y120.759 E963.30444
G1 X179.377 Y135.571 E966.26015
G1 X180.600 Y137.689 E966.50418
G1 X180.600 Y167.311 E969.45988
G1 X179.377 Y169.429 E969.70392
G1 X153.724 Y184.241 E972.65963
G0 F12000 X153.883 Y184.841
;TYPE:WALL-OUTER
G1 F2220 X151.117 Y184.841 E972.93562
G1 X125.185 Y169.868 E975.92347
G1 X123.800 Y167.471 E976.19970
G1 X123.800 Y137.529 E979.18732
G1 X125.185 Y135.132 E979.46355
G1 X151.117 Y120.159 E982.45140
G1 X153.883 Y120.159 E982.72740
G1 X179.815 Y135.132 E985.71525
G1 X181.200 Y137.529 E985.99148
G1 X181.200 Y167.471 E988.97910
G1 X179.815 Y169.868 E989.25533
G1 X153.883 Y184.841 E992.24318
G0 F12000 X153.600 Y184.031
;TYPE:SKIN
G1 F2220 X153.600 Y120.969 E998.53553
G0 F12000 X153.000 Y120.969
G1 F2220 X153.000 Y184.031 E1004.82788
G0 F12000 X152.400 Y184.031
G1 F2220 X152.400 Y120.969 E1011.12024
G0 F12000 X151.800 Y120.969
G1 F2220 X151.800 Y184.031 E1017.41259
G0 F12000 X151.200 Y183.954
G1 F2220 X151.200 Y121.045 E1023.68967
G0 F12000 X150.600 Y121.392
G1 F2220 X150.600 Y183.607 E1029.89751
G0 F12000 X150.000 Y183.261
G1 F2220 X150.000 Y121.738 E1036.03630
G0 F12000 X149.400 Y122.085
G1 F2220 X149.400 Y182.914 E1042.10584
G0 F12000 X148.800 Y182.568
G1 F2220 X148.800 Y122.431 E1048.10634
G0 F12000 X148.200 Y122.777
G1 F2220 X148.200 Y182.222 E1054.03778
G0 F12000 X147.600 Y181.875
G1 F2220 X147.600 Y123.124 E1059.89998
G0 F12000 X147.000 Y123.470
G1 F2220 X147.000 Y181.529 E1065.69313
G0 F12000 X146.400 Y181.182
G1 F2220 X146.400 Y123.817 E1071.41704
G0 F12000 X145.800 Y124.163
G1 F2220 X145.800 Y180.836 E1077.07189
G0 F12000 X145.200 Y180.489
G1 F2220 X145.200 Y124.510 E1082.65750
G0 F12000 X144.600 Y124.856
G1 F2220 X144.600 Y180.143 E1088.17406
G1 F2100 E1087.77406
G1 Z1.600
G0 F12000 X154.200 Y183.724
G1 Z1.200
G1 F2100 E1088.17406
G1 F2220 X154.200 Y121.277 E1094.40504
G0 F12000 X154.800 Y121.624
G1 F2220 X154.800 Y183.377 E1100.56678
G0 F12000 X155.400 Y183.031
G1 F2220 X155.400 Y121.970 E1106.65947
G0 F12000 X156.000 Y122.317
G1 F2220 X156.000 Y182.684 E1112.68292
G0 F12000 X156.600 Y182.338
G1 F2220 X156.600 Y122.663 E1118.63731
G0 F12000 X157.200 Y123.009
G1 F2220 X157.200 Y181.992 E1124.52266
G0 F12000 X157.800 Y181.645
G1 F2220 X157.800 Y123.356 E1130.33876
G0 F12000 X158.400 Y123.702
G1 F2220 X158.400 Y181.299 E1136.08581
G0 F12000 X159.000 Y180.952
G1 F2220 X159.000 Y124.049 E1141.76362
G0 F12000 X159.600 Y124.395
G1 F2220 X159.600 Y180.606 E1147.37237
G0 F12000 X160.200 Y180.259
G1 F2220 X160.200 Y124.742 E1152.91188
G0 F12000 X160.800 Y125.088
G1 F2220 X160.800 Y179.913 E1158.38234
G0 F12000 X161.400 Y179.566
G1 F2220 X161.400 Y125.435 E1163.78356
G0 F12000 X162.000 Y125.781
G1 F2220 X162.000 Y179.220 E1169.11572
G0 F12000 X162.600 Y178.874
G1 F2220 X162.600 Y126.127 E1174.37884
G0 F12000 X163.200 Y126.474
G1 F2220 X163.200 Y178.527 E1179.57271
G0 F12000 X163.800 Y178.181
G1 F2220 X163.800 Y126.820 E1184.69753
G0 F12000 X164.400 Y127.167
G1 F2220 X164.400 Y177.834 E1189.75310
G0 F12000 X165.000 Y177.488
G1 F2220 X165.000 Y127.513 E1194.73963
G0 F12000 X165.600 Y127.860
G1 F2220 X165.600 Y177.141 E1199.65691
G0 F12000 X166.200 Y176.795
G1 F2220 X166.200 Y128.206 E1204.50514
G0 F12000 X166.800 Y128.552
G1 F2220 X166.800 Y176.449 E1209.28432
G0 F12000 X167.400 Y176.102
G1 F2220 X167.400 Y128.899 E1213.99425
G0 F12000 X168.000 Y129.245
G1 F2220 X168.000 Y175.756 E1218.63514
G0 F12000 X168.600 Y175.409
G1 F2220 X168.600 Y129.592 E1223.20678
G0 F12000 X169.200 Y129.938
G1 F2220 X169.200 Y175.063 E1227.70937
G0 F12000 X169.800 Y174.716
G1 F2220 X169.800 Y130.285 E1232.14271
G0 F12000 X170.400 Y130.631
G1 F2220 X170.400 Y174.370 E1236.50701
G0 F12000 X171.000 Y174.023
G1 F2220 X171.000 Y130.978 E1240.80206
G0 F12000 X171.600 Y131.324
G1 F2220 X171.600 Y173.677 E1245.02806
G0 F12000 X172.200 Y173.331
G1 F2220 X172.200 Y131.670 E1249.18501
G0 F12000 X172.800 Y132.017
G1 F2220 X172.800 Y172.984 E1253.27271
G0 F12000 X173.400 Y172.638
G1 F2220 X173.400 Y132.363 E1257.29137
G0 F12000 X174.000 Y132.710
G1 F2220 X174.000 Y172.291 E1261.24078
G0 F12000 X174.600 Y171.945
G1 F2220 X174.600 Y133.056 E1265.12114
G0 F12000 X175.200 Y133.403
G1 F2220 X175.200 Y171.598 E1268.93225
G0 F12000 X175.800 Y171.252
G1 F2220 X175.800 Y133.749 E1272.67431
G0 F12000 X176.400 Y134.096
G1 F2220 X176.400 Y170.905 E1276.34713
G0 F12000 X177.000 Y170.559
G1 F2220 X177.000 Y134.442 E1279.95090
G0 F12000 X177.600 Y134.788
G1 F2220 X177.600 Y170.213 E1283.48562
G0 F12000 X178.200 Y169.866
G1 F2220 X178.200 Y135.135 E1286.95109
G0 F12000 X178.800 Y135.481
G1 F2220 X178.800 Y169.520 E1290.34752
G0 F12000 X179.400 Y168.969
G1 F2220 X179.400 Y136.032 E1293.63398
G0 F12000 X180.000 Y137.071
G1 F2220 X180.000 Y167.930 E1296.71311
G1 F2100 E1296.31311
G1 Z1.600
G0 F12000 X144.000 Y179.796
G1 Z1.200
G1 F2100 E1296.71311
G1 F2220 X144.000 Y125.203 E1302.16042
G0 F12000 X143.400 Y125.549
G1 F2220 X143.400 Y179.450 E1307.53868
G0 F12000 X142.800 Y179.104
G1 F2220 X142.800 Y125.895 E1312.84790
G0 F12000 X142.200 Y126.242
G1 F2220 X142.200 Y178.757 E1318.08787
G0 F12000 X141.600 Y178.411
G1 F2220 X141.600 Y126.588 E1323.25879
G0 F12000 X141.000 Y126.935
G1 F2220 X141.000 Y178.064 E1328.36046
G0 F12000 X140.400 Y177.718
G1 F2220 X140.400 Y127.281 E1333.39308
G0 F12000 X139.800 Y127.628
G1 F2220 X139.800 Y177.371 E1338.35646
G0 F12000 X139.200 Y177.025
G1 F2220 X139.200 Y127.974 E1343.25079
G0 F12000 X138.600 Y128.321
G1 F2220 X138.600 Y176.678 E1348.07587
G0 F12000 X138.000 Y176.332
G1 F2220 X138.000 Y128.667 E1352.83190
G0 F12000 X137.400 Y129.013
G1 F2220 X137.400 Y175.986 E1357.51889
G0 F12000 X136.800 Y175.639
G1 F2220 X136.800 Y129.360 E1362.13663
G0 F12000 X136.200 Y129.706
G1 F2220 X136.200 Y175.293 E1366.68531
G0 F12000 X135.600 Y174.946
G1 F2220 X135.600 Y130.053 E1371.16476
G0 F12000 X135.000 Y130.399
G1 F2220 X135.000 Y174.600 E1375.57515
G0 F12000 X134.400 Y174.253
G1 F2220 X134.400 Y130.746 E1379.91630
G0 F12000 X133.800 Y131.092
G1 F2220 X133.800 Y173.907 E1384.18839
G0 F12000 X133.200 Y173.561
G1 F2220 X133.200 Y131.438 E1388.39144
G0 F12000 X132.600 Y131.785
G1 F2220 X132.600 Y173.214 E1392.52525
G0 F12000 X132.000 Y172.868
G1 F2220 X132.000 Y132.131 E1396.59000
G0 F12000 X131.400 Y132.478
G1 F2220 X131.400 Y172.521 E1400.58551
G0 F12000 X130.800 Y172.175
G1 F2220 X130.800 Y132.824 E1404.51197
G0 F12000 X130.200 Y133.171
G1 F2220 X130.200 Y171.828 E1408.36918
G0 F12000 X129.600 Y171.482
G1 F2220 X129.600 Y133.517 E1412.15734
G0 F12000 X129.000 Y133.864
G1 F2220 X129.000 Y171.135 E1415.87626
G0 F12000 X128.400 Y170.789
G1 F2220 X128.400 Y134.210 E1419.52612
G0 F12000 X127.800 Y134.556
G1 F2220 X127.800 Y170.443 E1423.10694
G0 F12000 X127.200 Y170.096
G1 F2220 X127.200 Y134.903 E1426.61852
G0 F12000 X126.600 Y135.249
G1 F2220 X126.600 Y169.750 E1430.06104
G0 F12000 X126.000 Y169.403
G1 F2220 X126.000 Y135.596 E1433.43431
G0 F12000 X125.400 Y136.377
G1 F2220 X125.400 Y168.622 E1436.65173
G0 F12000 X124.800 Y167.583
G1 F2220 X124.800 Y137.416 E1439.66181
;LAYER:3
M106 S63
G0 F12000 X124.000 Y137.582 Z1.600
;TYPE:WALL-INNER
G1 F2400 X125.331 Y135.279 E1439.92722
G1 X151.169 Y120.359 E1442.90431
G1 X153.831 Y120.359 E1443.16992
G1 X179.669 Y135.279 E1446.14701
G1 X181.000 Y137.581 E1446.41233
G1 X181.000 Y167.418 E1449.38948
G1 X179.669 Y169.721 E1449.65489
G1 X153.831 Y184.641 E1452.63197
G1 X151.169 Y184.641 E1452.89759
G1 X125.331 Y169.721 E1455.87467
G1 X124.000 Y167.419 E1456.14000
G1 X124.000 Y137.582 E1459.11715
G1 F2100 E1458.71715
G1 Z2.000
G0 F12000 X145.140 Y147.952
G1 Z1.600
G1 F2100 E1459.11715
G1 F2400 X144.873 Y148.614 E1459.18837
G1 X144.662 Y149.287 E1459.25875
G1 X144.489 Y150.111 E1459.34276
G1 X144.389 Y151.089 E1459.44085
G1 X144.386 Y151.317 E1459.46361
G1 X144.402 Y151.912 E1459.52300
G1 X144.415 Y152.136 E1459.54538
G1 X144.529 Y152.939 E1459.62631
G1 X144.725 Y153.721 E1459.70675
G1 X145.077 Y154.662 E1459.80700
G1 X145.434 Y155.348 E1459.88416
G1 X145.748 Y155.834 E1459.94190
G1 X146.003 Y156.195 E1459.98600
G1 X146.459 Y156.718 E1460.05524
G1 X146.705 Y156.973 E1460.09059
G1 X147.212 Y157.413 E1460.15757
G1 X147.701 Y157.763 E1460.21758
G1 X148.064 Y157.994 E1460.26051
G1 X148.449 Y158.196 E1460.30389
G1 X148.867 Y158.476 E1460.35409
G1 X149.663 Y158.887 E1460.44348
G1 X149.845 Y158.971 E1460.46348
G1 X150.611 Y159.228 E1460.54410
G1 X150.879 Y159.303 E1460.57187
G1 X151.417 Y159.409 E1460.62658
G1 X151.962 Y159.473 E1460.68133
G1 X152.511 Y159.494 E1460.73615
G1 X153.093 Y159.469 E1460.79428
G1 X154.511 Y159.361 E1460.93618
G1 X155.158 Y159.239 E1461.00187
G1 X155.624 Y159.121 E1461.04984
G1 X156.177 Y158.930 E1461.10822
G1 X156.722 Y158.692 E1461.16756
G1 X157.260 Y158.403 E1461.22849
G1 X157.778 Y158.063 E1461.29032
G1 X158.252 Y157.697 E1461.35007
G1 X158.700 Y157.291 E1461.41040
G1 X159.107 Y156.859 E1461.46962
G1 X159.328 Y156.608 E1461.50299
G1 X159.690 Y156.117 E1461.56386
G1 X160.021 Y155.595 E1461.62553
G1 X160.313 Y155.037 E1461.68837
G1 X160.565 Y154.449 E1461.75220
G1 X160.845 Y153.598 E1461.84160
G1 X161.031 Y152.728 E1461.93037
G1 X161.116 Y151.879 E1462.01550
G1 X161.131 Y151.409 E1462.06242
G1 X161.091 Y150.565 E1462.14673
G1 X161.012 Y149.995 E1462.20415
G1 X160.838 Y149.166 E1462.28867
G1 X160.592 Y148.384 E1462.37047
G1 X160.377 Y147.859 E1462.42708
G1 X160.207 Y147.566 E1462.46088
G1 X159.776 Y146.951 E1462.53581
G1 X159.288 Y146.365 E1462.61190
G1 X158.752 Y145.820 E1462.68818
G1 X158.172 Y145.322 E1462.76446
G1 X157.553 Y144.874 E1462.84070
G1 X156.899 Y144.479 E1462.91693
G1 X156.210 Y144.138 E1462.99364
G1 X155.352 Y143.811 E1463.08526
G1 X154.700 Y143.629 E1463.15280
G1 X154.143 Y143.498 E1463.20990
G1 X153.239 Y143.382 E1463.30084
G1 X152.366 Y143.356 E1463.38799
G1 X151.927 Y143.367 E1463.43180
G1 X151.047 Y143.466 E1463.52016
G1 X150.202 Y143.644 E1463.60633
G1 X149.418 Y143.888 E1463.68826
G1 X148.858 Y144.106 E1463.74822
G1 X148.118 Y144.467 E1463.83037
G1 X147.630 Y144.761 E1463.88722
G1 X147.366 Y144.972 E1463.92094
G1 X146.811 Y145.501 E1463.99745
G1 X146.305 Y146.073 E1464.07365
G1 X145.859 Y146.676 E1464.14849
G1 X145.469 Y147.303 E1464.22216
G1 X145.140 Y147.952 E1464.29477
G0 F12000 X145.687 Y148.201
;TYPE:WALL-OUTER
G1 F2400 X145.438 Y148.816 E1464.36097
G1 X145.243 Y149.439 E1464.42611
G1 X145.082 Y150.204 E1464.50411
G1 X144.988 Y151.123 E1464.59629
G1 X144.986 Y151.312 E1464.61515
G1 X145.001 Y151.887 E1464.67254
G1 X145.012 Y152.077 E1464.69153
G1 X145.118 Y152.823 E1464.76671
G1 X145.299 Y153.542 E1464.84069
G1 X145.626 Y154.417 E1464.93390
G1 X145.953 Y155.046 E1465.00464
G1 X146.245 Y155.498 E1465.05833
G1 X146.476 Y155.824 E1465.09820
G1 X146.901 Y156.312 E1465.16277
G1 X147.118 Y156.537 E1465.19396
G1 X147.584 Y156.942 E1465.25556
G1 X148.037 Y157.266 E1465.31113
G1 X148.365 Y157.475 E1465.34994
G1 X148.757 Y157.680 E1465.39408
G1 X149.172 Y157.959 E1465.44398
G1 X149.926 Y158.348 E1465.52863
G1 X150.788 Y158.655 E1465.61994
G1 X151.510 Y158.816 E1465.69375
G1 X152.009 Y158.874 E1465.74387
G1 X152.510 Y158.893 E1465.79390
G1 X153.044 Y158.870 E1465.84723
G1 X153.462 Y158.820 E1465.88924
G1 X154.438 Y158.764 E1465.98678
G1 X155.029 Y158.653 E1466.04678
G1 X155.452 Y158.546 E1466.09032
G1 X155.958 Y158.371 E1466.14374
G1 X156.459 Y158.152 E1466.19830
G1 X156.953 Y157.887 E1466.25424
G1 X157.429 Y157.574 E1466.31108
G1 X157.867 Y157.236 E1466.36628
G1 X158.280 Y156.862 E1466.42188
G1 X158.663 Y156.456 E1466.47757
G1 X158.860 Y156.231 E1466.50741
G1 X159.195 Y155.778 E1466.56363
G1 X159.501 Y155.295 E1466.62068
G1 X159.770 Y154.780 E1466.67866
G1 X160.003 Y154.236 E1466.73771
G1 X160.265 Y153.441 E1466.82123
G1 X160.437 Y152.635 E1466.90346
G1 X160.517 Y151.840 E1466.98319
G1 X160.530 Y151.414 E1467.02571
G1 X160.493 Y150.620 E1467.10503
G1 X160.421 Y150.098 E1467.15760
G1 X160.257 Y149.318 E1467.23713
G1 X160.027 Y148.588 E1467.31350
G1 X159.838 Y148.125 E1467.36340
G1 X159.701 Y147.890 E1467.39055
G1 X159.299 Y147.316 E1467.46047
G1 X158.843 Y146.768 E1467.53160
G1 X158.342 Y146.259 E1467.60287
G1 X157.800 Y145.793 E1467.67419
G1 X157.222 Y145.375 E1467.74536
G1 X156.610 Y145.006 E1467.81667
G1 X155.969 Y144.689 E1467.88802
G1 X155.164 Y144.382 E1467.97399
G1 X154.551 Y144.210 E1468.03752
G1 X154.036 Y144.089 E1468.09030
G1 X153.192 Y143.981 E1468.17520
G1 X152.365 Y143.956 E1468.25776
G1 X151.968 Y143.966 E1468.29738
G1 X151.142 Y144.059 E1468.38032
G1 X150.353 Y144.225 E1468.46077
G1 X149.616 Y144.455 E1468.53781
G1 X149.099 Y144.656 E1468.59316
G1 X148.405 Y144.995 E1468.67023
G1 X147.973 Y145.254 E1468.72048
G1 X147.761 Y145.424 E1468.74760
G1 X147.244 Y145.918 E1468.81895
G1 X146.772 Y146.451 E1468.88999
G1 X146.356 Y147.013 E1468.95975
G1 X145.992 Y147.598 E1469.02850
G1 X145.687 Y148.201 E1469.09593
G1 F2100 E1468.69593
G1 Z2.000
G0 F12000 X124.893 Y134.840
G1 Z1.600
G1 F2100 E1469.09593
G1 F2400 X151.010 Y119.759 E1472.10516
G1 X153.990 Y119.759 E1472.40250
G1 X180.108 Y134.840 E1475.41181
G1 X181.600 Y137.421 E1475.70928
G1 X181.600 Y167.578 E1478.71836
G1 X180.107 Y170.160 E1479.01596
G1 X153.990 Y185.241 E1482.02519
G1 X151.010 Y185.241 E1482.32253
G1 X124.892 Y170.160 E1485.33184
G1 X123.400 Y167.579 E1485.62931
G1 X123.400 Y137.422 E1488.63839
G1 X124.893 Y134.840 E1488.93599
G0 F12000 X125.387 Y135.600
;TYPE:SKIN
G1 F2400 X179.612 Y135.600 E1494.34658
G0 F12000 X179.959 Y136.200
G1 F2400 X125.041 Y136.200 E1499.82632
G0 F12000 X124.694 Y136.800
G1 F2400 X180.306 Y136.800 E1505.37531
G0 F12000 X180.652 Y137.400
G1 F2400 X124.347 Y137.400 E1510.99345
G0 F12000 X124.209 Y138.000
G1 F2400 X180.789 Y138.000 E1516.63902
G0 F12000 X180.789 Y138.600
G1 F2400 X124.209 Y138.600 E1522.28460
G0 F12000 X124.209 Y139.200
G1 F2400 X180.789 Y139.200 E1527.93017
G0 F12000 X180.789 Y139.800
G1 F2400 X124.209 Y139.800 E1533.57575
G1 F2100 E1533.17575
G1 Z2.000
G0 F12000 X126.233 Y135.000
G1 Z1.600
G1 F2100 E1533.57575
G1 F2400 X178.766 Y135.000 E1538.81751
G0 F12000 X177.727 Y134.400
G1 F2400 X127.272 Y134.400 E1543.85193
G0 F12000 X128.311 Y133.800
G1 F2400 X176.688 Y133.800 E1548.67901
G0 F12000 X175.649 Y133.200
G1 F2400 X129.350 Y133.200 E1553.29874
G0 F12000 X130.389 Y132.600
G1 F2400 X174.610 Y132.600 E1557.71113
G0 F12000 X173.571 Y132.000
G1 F2400 X131.428 Y132.000 E1561.91618
G0 F12000 X132.467 Y131.400
G1 F2400 X172.532 Y131.400 E1565.91388
G0 F12000 X171.493 Y130.800
G1 F2400 X133.506 Y130.800 E1569.70424
G0 F12000 X134.545 Y130.200
G1 F2400 X170.454 Y130.200 E1573.28725
G0 F12000 X169.415 Y129.600
G1 F2400 X135.584 Y129.600 E1576.66292
G0 F12000 X136.623 Y129.000
G1 F2400 X168.376 Y129.000 E1579.83125
G0 F12000 X167.337 Y128.400
G1 F2400 X137.662 Y128.400 E1582.79223
G0 F12000 X138.701 Y127.800
G1 F2400 X166.298 Y127.800 E1585.54587
G0 F12000 X165.259 Y127.200
G1 F2400 X139.740 Y127.200 E1588.09217
G0 F12000 X140.779 Y126.600
G1 F2400 X164.220 Y126.600 E1590.43112
G0 F12000 X163.180 Y126.000
G1 F2400 X141.819 Y126.000 E1592.56253
G0 F12000 X142.858 Y125.400
G1 F2400 X162.141 Y125.400 E1594.48660
G0 F12000 X161.102 Y124.800
G1 F2400 X143.897 Y124.800 E1596.20332
G0 F12000 X144.936 Y124.200
G1 F2400 X160.063 Y124.200 E1597.71270
G0 F12000 X159.024 Y123.600
G1 F2400 X145.975 Y123.600 E1599.01473
G0 F12000 X147.014 Y123.000
G1 F2400 X157.985 Y123.000 E1600.10942
G0 F12000 X156.946 Y122.400
G1 F2400 X148.053 Y122.400 E1600.99677
G0 F12000 X149.092 Y121.800
G1 F2400 X155.907 Y121.800 E1601.67677
G0 F12000 X154.868 Y121.200
G1 F2400 X150.131 Y121.200 E1602.14943
G0 F12000 X151.170 Y120.600
G1 F2400 X153.829 Y120.600 E1602.41475
G1 F2100 E1602.01475
G1 Z2.000
G0 F12000 X154.646 Y143.400
G1 Z1.600
G1 F2100 E1602.41475
G1 F2400 X180.789 Y143.400 E1605.02331
G0 F12000 X180.789 Y144.000
G1 F2400 X156.404 Y144.000 E1607.45645
G0 F12000 X157.505 Y144.600
G1 F2400 X180.789 Y144.600 E1609.77974
G0 F12000 X180.789 Y145.200
G1 F2400 X158.352 Y145.200 E1612.01851
G0 F12000 X159.027 Y145.800
G1 F2400 X180.789 Y145.800 E1614.18994
G0 F12000 X180.789 Y146.400
G1 F2400 X159.590 Y146.400 E1616.30518
G1 F2100 E1615.90518
G1 Z2.000
G0 F12000 X150.333 Y143.400
G1 Z1.600
G1 F2100 E1616.30518
G1 F2400 X124.209 Y143.400 E1618.91184
G0 F12000 X124.209 Y144.000
G1 F2400 X148.593 Y144.000 E1621.34489
G0 F12000 X147.491 Y144.600
G1 F2400 X124.209 Y144.600 E1623.66798
G0 F12000 X124.209 Y145.200
G1 F2400 X146.820 Y145.200 E1625.92411
G0 F12000 X146.264 Y145.800
G1 F2400 X124.209 Y145.800 E1628.12477
G0 F12000 X124.209 Y146.400
G1 F2400 X145.800 Y146.400 E1630.27913
G0 F12000 X145.408 Y147.000
G1 F2400 X124.209 Y147.000 E1632.39437
G0 F12000 X124.209 Y147.600
G1 F2400 X145.081 Y147.600 E1634.47699
G0 F12000 X144.811 Y148.200
G1 F2400 X124.209 Y148.200 E1636.53266
G0 F12000 X124.209 Y148.800
G1 F2400 X144.593 Y148.800 E1638.56659
G0 F12000 X144.421 Y149.400
G1 F2400 X124.209 Y149.400 E1640.58335
G0 F12000 X124.209 Y150.000
G1 F2400 X144.296 Y150.000 E1642.58764
G0 F12000 X144.227 Y150.600
G1 F2400 X124.209 Y150.600 E1644.58504
G0 F12000 X124.209 Y151.200
G1 F2400 X144.176 Y151.200 E1646.57736
G0 F12000 X144.188 Y151.800
G1 F2400 X124.209 Y151.800 E1648.57087
G0 F12000 X124.209 Y152.400
G1 F2400 X144.240 Y152.400 E1650.56957
G0 F12000 X144.327 Y153.000
G1 F2400 X124.209 Y153.000 E1652.57695
G0 F12000 X124.209 Y153.600
G1 F2400 X144.477 Y153.600 E1654.59930
G0 F12000 X144.679 Y154.200
G1 F2400 X124.209 Y154.200 E1656.64181
G0 F12000 X124.209 Y154.800
G1 F2400 X144.912 Y154.800 E1658.70756
G0 F12000 X145.224 Y155.400
G1 F2400 X124.209 Y155.400 E1660.80445
G0 F12000 X124.209 Y156.000
G1 F2400 X145.607 Y156.000 E1662.93955
G0 F12000 X146.078 Y156.600
G1 F2400 X124.209 Y156.600 E1665.12165
G0 F12000 X124.209 Y157.200
G1 F2400 X146.646 Y157.200 E1667.36042
G0 F12000 X147.392 Y157.800
G1 F2400 X124.209 Y157.800 E1669.67363
G0 F12000 X124.209 Y158.400
G1 F2400 X148.376 Y158.400 E1672.08502
G0 F12000 X149.424 Y159.000
G1 F2400 X124.209 Y159.000 E1674.60098
G0 F12000 X124.209 Y159.600
G1 F2400 X151.299 Y159.600 E1677.30403
G1 F2100 E1676.90403
G1 Z2.000
G0 F12000 X154.124 Y159.600
G1 Z1.600
G1 F2100 E1677.30403
G1 F2400 X180.789 Y159.600 E1679.96468
G0 F12000 X180.789 Y159.000
G1 F2400 X156.539 Y159.000 E1682.38435
G0 F12000 X157.646 Y158.400
G1 F2400 X180.789 Y158.400 E1684.69357
G0 F12000 X180.789 Y157.800
G1 F2400 X158.449 Y157.800 E1686.92267
G0 F12000 X159.073 Y157.200
G1 F2400 X180.789 Y157.200 E1689.08950
G0 F12000 X180.789 Y156.600
G1 F2400 X159.594 Y156.600 E1691.20434
G0 F12000 X160.012 Y156.000
G1 F2400 X180.789 Y156.000 E1693.27748
G0 F12000 X180.789 Y155.400
G1 F2400 X160.359 Y155.400 E1695.31599
G0 F12000 X160.642 Y154.800
G1 F2400 X180.789 Y154.800 E1697.32627
G0 F12000 X180.789 Y154.200
G1 F2400 X160.867 Y154.200 E1699.31410
G0 F12000 X161.058 Y153.600
G1 F2400 X180.789 Y153.600 E1701.28286
G0 F12000 X180.789 Y153.000
G1 F2400 X161.187 Y153.000 E1703.23876
G0 F12000 X161.274 Y152.400
G1 F2400 X180.789 Y152.400 E1705.18597
G0 F12000 X180.789 Y151.800
G1 F2400 X161.328 Y151.800 E1707.12780
G0 F12000 X161.330 Y151.200
G1 F2400 X180.789 Y151.200 E1709.06943
G0 F12000 X180.789 Y150.600
G1 F2400 X161.301 Y150.600 E1711.01395
G0 F12000 X161.224 Y150.000
G1 F2400 X180.789 Y150.000 E1712.96615
G0 F12000 X180.789 Y149.400
G1 F2400 X161.101 Y149.400 E1714.93063
G0 F12000 X160.942 Y148.800
G1 F2400 X180.789 Y148.800 E1716.91097
G0 F12000 X180.789 Y148.200
G1 F2400 X160.742 Y148.200 E1718.91127
G0 F12000 X160.469 Y147.600
G1 F2400 X180.789 Y147.600 E1720.93880
G0 F12000 X180.789 Y147.000
G1 F2400 X160.066 Y147.000 E1723.00655
G1 F2100 E1722.60655
G1 Z2.000
G0 F12000 X180.789 Y142.800
G1 Z1.600
G1 F2100 E1723.00655
G1 F2400 X124.209 Y142.800 E1728.65213
G0 F12000 X124.209 Y142.200
G1 F2400 X180.789 Y142.200 E1734.29770
G0 F12000 X180.789 Y141.600
G1 F2400 X124.209 Y141.600 E1739.94328
G0 F12000 X124.209 Y141.000
G1 F2400 X180.789 Y141.000 E1745.58885
G0 F12000 X180.789 Y140.400
G1 F2400 X124.209 Y140.400 E1751.23443
G1 F2100 E1750.83443
G1 Z2.000
G0 F12000 X124.209 Y160.200
G1 Z1.600
G1 F2100 E1751.23443
G1 F2400 X180.789 Y160.200 E1756.88001
G0 F12000 X180.789 Y160.800
G1 F2400 X124.209 Y160.800 E1762.52558
G0 F12000 X124.209 Y161.400
G1 F2400 X180.789 Y161.400 E1768.17116
G0 F12000 X180.789 Y162.000
G1 F2400 X124.209 Y162.000 E1773.81673
G0 F12000 X124.209 Y162.600
G1 F2400 X180.789 Y162.600 E1779.46231
G0 F12000 X180.789 Y163.200
G1 F2400 X124.209 Y163.200 E1785.10788
G0 F12000 X124.209 Y163.800
G1 F2400 X180.789 Y163.800 E1790.75346
G0 F12000 X180.789 Y164.400
G1 F2400 X124.209 Y164.400 E1796.39903
G0 F12000 X124.209 Y165.000
G1 F2400 X180.789 Y165.000 E1802.04461
G0 F12000 X180.789 Y165.600
G1 F2400 X124.209 Y165.600 E1807.69018
G0 F12000 X124.209 Y166.200
G1 F2400 X180.789 Y166.200 E1813.33576
G0 F12000 X180.789 Y166.800
G1 F2400 X124.209 Y166.800 E1818.98133
G0 F12000 X124.231 Y167.400
G1 F2400 X180.765 Y167.400 E1824.62232
G0 F12000 X180.419 Y168.000
G1 F2400 X124.578 Y168.000 E1830.19416
G0 F12000 X124.925 Y168.600
G1 F2400 X180.072 Y168.600 E1835.69675
G0 F12000 X179.725 Y169.200
G1 F2400 X125.272 Y169.200 E1841.13009
G0 F12000 X125.889 Y169.800
G1 F2400 X179.108 Y169.800 E1846.44030
G0 F12000 X178.069 Y170.400
G1 F2400 X126.928 Y170.400 E1851.54317
G0 F12000 X127.967 Y171.000
G1 F2400 X177.030 Y171.000 E1856.43870
G0 F12000 X175.991 Y171.600
G1 F2400 X129.006 Y171.600 E1861.12688
G0 F12000 X130.045 Y172.200
G1 F2400 X174.952 Y172.200 E1865.60772
G0 F12000 X173.913 Y172.800
G1 F2400 X131.084 Y172.800 E1869.88121
G0 F12000 X132.123 Y173.400
G1 F2400 X172.874 Y173.400 E1873.94737
G0 F12000 X171.835 Y174.000
G1 F2400 X133.162 Y174.000 E1877.80617
G0 F12000 X134.201 Y174.600
G1 F2400 X170.796 Y174.600 E1881.45764
G0 F12000 X169.757 Y175.200
G1 F2400 X135.240 Y175.200 E1884.90176
G0 F12000 X136.279 Y175.800
G1 F2400 X168.718 Y175.800 E1888.13853
G0 F12000 X167.679 Y176.400
G1 F2400 X137.318 Y176.400 E1891.16797
G0 F12000 X138.357 Y177.000
G1 F2400 X166.640 Y177.000 E1893.99006
G0 F12000 X165.600 Y177.600
G1 F2400 X139.397 Y177.600 E1896.60460
G0 F12000 X140.436 Y178.200
G1 F2400 X164.561 Y178.200 E1899.01180
G0 F12000 X163.522 Y178.800
G1 F2400 X141.475 Y178.800 E1901.21166
G0 F12000 X142.514 Y179.400
G1 F2400 X162.483 Y179.400 E1903.20418
G0 F12000 X161.444 Y180.000
G1 F2400 X143.553 Y180.000 E1904.98935
G0 F12000 X144.592 Y180.600
G1 F2400 X160.405 Y180.600 E1906.56718
G0 F12000 X159.366 Y181.200
G1 F2400 X145.631 Y181.200 E1907.93766
G0 F12000 X146.670 Y181.800
G1 F2400 X158.327 Y181.800 E1909.10080
G0 F12000 X157.288 Y182.400
G1 F2400 X147.709 Y182.400 E1910.05660
G0 F12000 X148.748 Y183.000
G1 F2400 X156.249 Y183.000 E1910.80505
G0 F12000 X155.210 Y183.600
G1 F2400 X149.787 Y183.600 E1911.34616
G0 F12000 X150.826 Y184.200
G1 F2400 X154.171 Y184.200 E1911.67992
;LAYER:4
M106 S84
G0 F12000 X153.938 Y185.041 Z2.000
;TYPE:WALL-INNER
G1 F2700 X151.064 Y185.041 E1911.96669
G1 X125.038 Y170.013 E1914.96541
G1 X123.600 Y167.525 E1915.25215
G1 X123.600 Y137.475 E1918.25055
G1 X125.038 Y134.986 E1918.53737
G1 X151.062 Y119.959 E1921.53587
G1 X153.936 Y119.959 E1921.82264
G1 X179.962 Y134.987 E1924.82135
G1 X181.400 Y137.475 E1925.10809
G1 X181.400 Y167.525 E1928.10649
G1 X179.962 Y170.014 E1928.39331
G1 X153.938 Y185.041 E1931.39181
G1 F2100 E1930.99181
G1 Z2.400
G0 F12000 X153.586 Y160.104
G1 Z2.000
G1 F2100 E1931.39181
G1 F2700 X154.229 Y160.075 E1931.45603
G1 X154.877 Y159.992 E1931.52122
G1 X155.534 Y159.851 E1931.58827
G1 X156.425 Y159.568 E1931.68155
G1 X157.049 Y159.293 E1931.74959
G1 X157.650 Y158.966 E1931.81786
G1 X158.230 Y158.583 E1931.88721
G1 X158.773 Y158.153 E1931.95632
G1 X159.287 Y157.675 E1932.02636
G1 X159.770 Y157.142 E1932.09813
G1 X160.276 Y156.474 E1932.18175
G1 X160.601 Y155.949 E1932.24336
G1 X161.004 Y155.179 E1932.33008
G1 X161.291 Y154.468 E1932.40658
G1 X161.529 Y153.696 E1932.48719
G1 X161.604 Y153.348 E1932.52271
G1 X161.645 Y152.808 E1932.57675
G1 X161.636 Y152.150 E1932.64241
G1 X161.639 Y152.093 E1932.64810
G1 X161.635 Y151.972 E1932.66018
G1 X161.568 Y151.285 E1932.72906
G1 X161.436 Y150.535 E1932.80504
G1 X161.240 Y149.796 E1932.88133
G1 X160.984 Y149.077 E1932.95749
G1 X160.668 Y148.383 E1933.03357
G1 X160.298 Y147.715 E1933.10977
G1 X159.870 Y147.081 E1933.18609
G1 X159.393 Y146.486 E1933.26219
G1 X158.867 Y145.931 E1933.33848
G1 X158.297 Y145.423 E1933.41467
G1 X157.687 Y144.964 E1933.49084
G1 X157.043 Y144.561 E1933.56664
G1 X156.524 Y144.284 E1933.62534
G1 X155.789 Y143.963 E1933.70537
G1 X154.996 Y143.698 E1933.78880
G1 X154.318 Y143.537 E1933.85833
G1 X154.202 Y143.510 E1933.87022
G1 X153.451 Y143.400 E1933.94595
G1 X153.081 Y143.377 E1933.98294
G1 X152.526 Y143.418 E1934.03847
G1 X151.786 Y143.537 E1934.11326
G1 X151.055 Y143.719 E1934.18842
G1 X150.373 Y143.951 E1934.26030
G1 X149.681 Y144.253 E1934.33564
G1 X148.955 Y144.651 E1934.41825
G1 X148.464 Y144.979 E1934.47717
G1 X147.925 Y145.399 E1934.54535
G1 X147.158 Y146.139 E1934.65169
G1 X146.831 Y146.511 E1934.70111
G1 X146.430 Y147.053 E1934.76839
G1 X146.078 Y147.616 E1934.83464
G1 X145.781 Y148.199 E1934.89993
G1 X145.538 Y148.788 E1934.96350
G1 X145.349 Y149.376 E1935.02513
G1 X145.261 Y149.719 E1935.06046
G1 X145.135 Y150.400 E1935.12957
G1 X145.074 Y151.075 E1935.19719
G1 X145.070 Y151.478 E1935.23741
G1 X145.102 Y152.134 E1935.30294
G1 X145.194 Y152.771 E1935.36716
G1 X145.332 Y153.358 E1935.42733
G1 X145.472 Y153.809 E1935.47445
G1 X145.686 Y154.345 E1935.53203
G1 X145.867 Y154.712 E1935.57286
G1 X146.047 Y155.196 E1935.62439
G1 X146.278 Y155.694 E1935.67917
G1 X146.547 Y156.172 E1935.73390
G1 X146.854 Y156.629 E1935.78883
G1 X147.202 Y157.066 E1935.84457
G1 X147.718 Y157.599 E1935.91859
G1 X148.397 Y158.164 E1936.00673
G1 X148.898 Y158.493 E1936.06654
G1 X149.280 Y158.711 E1936.11042
G1 X149.678 Y158.984 E1936.15858
G1 X150.128 Y159.251 E1936.21079
G1 X150.644 Y159.500 E1936.26796
G1 X151.187 Y159.708 E1936.32598
G1 X151.752 Y159.876 E1936.38479
G1 X152.344 Y160.002 E1936.44519
G1 X152.957 Y160.078 E1936.50682
G1 X153.586 Y160.104 E1936.56963
G0 F12000 X153.585 Y159.503
;TYPE:WALL-OUTER
G1 F2700 X154.177 Y159.477 E1936.62876
G1 X154.776 Y159.400 E1936.68902
G1 X155.380 Y159.270 E1936.75067
G1 X156.213 Y159.006 E1936.83786
G1 X156.784 Y158.754 E1936.90014
G1 X157.341 Y158.451 E1936.96341
G1 X157.878 Y158.096 E1937.02764
G1 X158.382 Y157.698 E1937.09172
G1 X158.860 Y157.253 E1937.15688
G1 X159.307 Y156.759 E1937.22336
G1 X159.781 Y156.134 E1937.30163
G1 X160.090 Y155.635 E1937.36019
G1 X160.183 Y155.482 E1937.37805
G1 X160.457 Y154.932 E1937.43937
G1 X160.725 Y154.267 E1937.51091
G1 X160.948 Y153.544 E1937.58640
G1 X161.009 Y153.261 E1937.61529
G1 X161.045 Y152.789 E1937.66252
G1 X161.036 Y152.160 E1937.72529
G1 X161.038 Y152.092 E1937.73208
G1 X161.036 Y152.011 E1937.74016
G1 X160.973 Y151.366 E1937.80483
G1 X160.849 Y150.664 E1937.87596
G1 X160.667 Y149.974 E1937.94716
G1 X160.427 Y149.302 E1938.01836
G1 X160.132 Y148.653 E1938.08949
G1 X159.786 Y148.029 E1938.16069
G1 X159.387 Y147.437 E1938.23192
G1 X158.940 Y146.881 E1938.30311
G1 X158.449 Y146.362 E1938.37439
G1 X157.916 Y145.888 E1938.44556
G1 X157.346 Y145.459 E1938.51675
G1 X156.742 Y145.080 E1938.58790
G1 X156.263 Y144.825 E1938.64204
G1 X155.573 Y144.524 E1938.71716
G1 X154.831 Y144.275 E1938.79525
G1 X154.181 Y144.121 E1938.86190
G1 X153.389 Y143.997 E1938.94189
G1 X153.084 Y143.978 E1938.97239
G1 X152.596 Y144.015 E1939.02122
G1 X151.906 Y144.126 E1939.09095
G1 X151.224 Y144.295 E1939.16106
G1 X150.578 Y144.515 E1939.22915
G1 X149.948 Y144.791 E1939.29778
G1 X149.266 Y145.165 E1939.37539
G1 X148.815 Y145.466 E1939.42950
G1 X148.311 Y145.859 E1939.49327
G1 X147.596 Y146.550 E1939.59248
G1 X147.298 Y146.888 E1939.63745
G1 X146.926 Y147.391 E1939.69987
G1 X146.601 Y147.912 E1939.76114
G1 X146.326 Y148.450 E1939.82143
G1 X146.102 Y148.995 E1939.88022
G1 X145.926 Y149.542 E1939.93756
G1 X145.730 Y150.482 E1940.03337
G1 X145.674 Y151.106 E1940.09588
G1 X145.670 Y151.467 E1940.13191
G1 X145.700 Y152.076 E1940.19275
G1 X145.784 Y152.659 E1940.25152
G1 X145.911 Y153.200 E1940.30697
G1 X146.038 Y153.608 E1940.34960
G1 X146.235 Y154.101 E1940.40258
G1 X146.427 Y154.495 E1940.44631
G1 X146.601 Y154.965 E1940.49632
G1 X146.813 Y155.420 E1940.54640
G1 X147.058 Y155.857 E1940.59639
G1 X147.339 Y156.274 E1940.64657
G1 X147.653 Y156.669 E1940.69692
G1 X148.127 Y157.158 E1940.76487
G1 X148.755 Y157.681 E1940.84642
G1 X149.211 Y157.981 E1940.90088
G1 X149.593 Y158.198 E1940.94472
G1 X150.412 Y158.722 E1941.04173
G1 X150.882 Y158.949 E1941.09381
G1 X151.380 Y159.139 E1941.14700
G1 X151.901 Y159.294 E1941.20123
G1 X152.443 Y159.410 E1941.25654
G1 X153.006 Y159.479 E1941.31314
G1 X153.585 Y159.503 E1941.37096
G1 F2100 E1940.97096
G1 Z2.400
G0 F12000 X154.097 Y185.641
G1 Z2.000
G1 F2100 E1941.37096
G1 F2700 X150.903 Y185.641 E1941.68966
G1 X124.600 Y170.453 E1944.72029
G1 X123.000 Y167.685 E1945.03931
G1 X123.000 Y137.315 E1948.06964
G1 X124.600 Y134.547 E1948.38865
G1 X150.903 Y119.359 E1951.41929
G1 X154.097 Y119.359 E1951.73799
G1 X180.400 Y134.547 E1954.76862
G1 X182.000 Y137.315 E1955.08764
G1 X182.000 Y167.685 E1958.11797
G1 X180.400 Y170.453 E1958.43698
G1 X154.097 Y185.641 E1961.46762
G1 F2100 E1961.06762
G1 Z2.400
G0 F12000 X152.499 Y184.131
;TYPE:FILL
G1 Z2.000
G1 F2100 E1961.46762
G1 F2700 X152.499 Y160.956 E1963.78003
G1 F2100 E1963.38003
G1 Z2.400
G0 F12000 X142.697 Y179.159
G1 Z2.000
G1 F2100 E1963.78003
G1 F2700 X142.697 Y125.840 E1969.10022
G1 F2100 E1968.70022
G1 Z2.400
G0 F12000 X144.116 Y125.021
G1 Z2.000
G1 F2100 E1969.10022
G1 F2700 X180.489 Y146.022 E1973.29104
G1 F2100 E1972.89104
G1 Z2.400
G0 F12000 X180.488 Y147.657
G1 Z2.000
G1 F2100 E1973.29104
G1 F2700 X134.311 Y174.318 E1978.61143
G1 F2100 E1978.21143
G1 Z2.400
G0 F12000 X132.895 Y173.499
G1 Z2.000
G1 F2100 E1978.61143
G1 F2700 X132.895 Y131.500 E1982.80211
G1 F2100 E1982.40211
G1 Z2.400
G0 F12000 X134.314 Y130.681
G1 Z2.000
G1 F2100 E1982.80211
G1 F2700 X180.489 Y157.340 E1988.12222
G1 F2100 E1987.72222
G1 Z2.400
G0 F12000 X180.488 Y158.976
G1 Z2.000
G1 F2100 E1988.12222
G1 F2700 X144.113 Y179.977 E1992.31321
G1 F2100 E1991.91321
G1 Z2.400
G0 F12000 X160.885 Y179.976
G1 Z2.000
G1 F2100 E1992.31321
G1 F2700 X124.509 Y158.975 E1996.50430
G1 F2100 E1996.10430
G1 Z2.400
G0 F12000 X124.509 Y157.340
G1 Z2.000
G1 F2100 E1996.50430
G1 F2700 X170.686 Y130.680 E2001.82463
G1 F2100 E2001.42463
G1 Z2.400
G0 F12000 X172.103 Y131.500
G1 Z2.000
G1 F2100 E2001.82463
G1 F2700 X172.103 Y173.501 E2006.01551
G1 F2100 E2005.61551
G1 Z2.400
G0 F12000 X170.686 Y174.317
G1 Z2.000
G1 F2100 E2006.01551
G1 F2700 X124.508 Y147.656 E2011.33598
G1 F2100 E2010.93598
G1 Z2.400
G0 F12000 X124.509 Y146.022
G1 Z2.000
G1 F2100 E2011.33598
G1 F2700 X160.884 Y125.021 E2015.52698
G1 F2100 E2015.12698
G1 Z2.400
G0 F12000 X162.301 Y125.840
G1 Z2.000
G1 F2100 E2015.52698
G1 F2700 X162.301 Y179.161 E2020.84737
G1 F2100 E2020.44737
G1 Z2.400
G0 F12000 X179.892 Y168.313
G1 Z2.000
G1 F2100 E2020.84737
G1 F2700 X160.188 Y156.937 E2023.11759
G1 F2100 E2022.71759
G1 Z2.400
G0 F12000 X160.597 Y147.823
G1 Z2.000
G1 F2100 E2023.11759
G1 F2700 X179.891 Y136.684 E2025.34055
G1 F2100 E2024.94055
G1 Z2.400
G0 F12000 X152.499 Y143.210
G1 Z2.000
G1 F2100 E2025.34055
G1 F2700 X152.499 Y120.869 E2027.56975
G1 F2100 E2027.16975
G1 Z2.400
G0 F12000 X145.457 Y148.432
G1 Z2.000
G1 F2100 E2027.56975
G1 F2700 X125.108 Y136.684 E2029.91426
G1 F2100 E2029.51426
G1 Z2.400
G0 F12000 X145.190 Y156.719
G1 Z2.000
G1 F2100 E2029.91426
G1 F2700 X125.106 Y168.314 E2032.22825
G0 F12000 X126.000 Y168.302
;TYPE:SKIN
G1 F2700 X126.000 Y170.325 E2032.43010
G0 F12000 X125.400 Y169.979
G1 F2700 X125.400 Y167.265 E2032.70091
G0 F12000 X124.200 Y168.142
G1 F2700 X124.200 Y136.856 E2035.82264
G0 F12000 X124.800 Y135.818
G1 F2700 X124.800 Y169.180 E2039.15151
G1 F2100 E2038.75151
G1 Z2.400
G0 F12000 X126.600 Y168.966
G1 Z2.000
G1 F2100 E2039.15151
G1 F2700 X126.600 Y170.672 E2039.32173
G0 F12000 X127.200 Y171.018
G1 F2700 X127.200 Y169.312 E2039.49196
G0 F12000 X127.800 Y169.658
G1 F2700 X127.800 Y171.364 E2039.66219
G0 F12000 X128.400 Y171.711
G1 F2700 X128.400 Y170.005 E2039.83241
G0 F12000 X129.000 Y170.351
G1 F2700 X129.000 Y172.057 E2040.00264
G0 F12000 X129.600 Y172.404
G1 F2700 X129.600 Y170.698 E2040.17286
G0 F12000 X130.200 Y171.044
G1 F2700 X130.200 Y172.750 E2040.34309
G0 F12000 X130.800 Y173.097
G1 F2700 X130.800 Y171.391 E2040.51331
G0 F12000 X131.400 Y171.737
G1 F2700 X131.400 Y173.443 E2040.68354
G0 F12000 X132.000 Y173.790
G1 F2700 X132.000 Y172.084 E2040.85376
G0 F12000 X132.600 Y172.430
G1 F2700 X132.600 Y174.136 E2041.02399
G0 F12000 X133.200 Y174.483
G1 F2700 X133.200 Y172.776 E2041.19431
G0 F12000 X133.800 Y173.123
G1 F2700 X133.800 Y174.829 E2041.36454
G0 F12000 X134.400 Y175.175
G1 F2700 X134.400 Y173.469 E2041.53476
G0 F12000 X135.000 Y173.816
G1 F2700 X135.000 Y175.522 E2041.70499
G0 F12000 X135.600 Y175.868
G1 F2700 X135.600 Y174.162 E2041.87522
G0 F12000 X136.200 Y174.509
G1 F2700 X136.200 Y176.215 E2042.04544
G0 F12000 X136.800 Y176.561
G1 F2700 X136.800 Y174.855 E2042.21567
G0 F12000 X137.400 Y175.201
G1 F2700 X137.400 Y176.908 E2042.38599
G0 F12000 X138.000 Y177.254
G1 F2700 X138.000 Y175.548 E2042.55622
G0 F12000 X138.600 Y175.894
G1 F2700 X138.600 Y177.601 E2042.72654
G0 F12000 X139.200 Y177.947
G1 F2700 X139.200 Y176.241 E2042.89677
G0 F12000 X139.800 Y176.587
G1 F2700 X139.800 Y178.293 E2043.06699
G0 F12000 X140.400 Y178.640
G1 F2700 X140.400 Y176.934 E2043.23722
G0 F12000 X141.000 Y177.280
G1 F2700 X141.000 Y178.986 E2043.40744
G0 F12000 X141.600 Y179.333
G1 F2700 X141.600 Y177.627 E2043.57767
G0 F12000 X142.200 Y177.973
G1 F2700 X142.200 Y179.679 E2043.74789
G0 F12000 X142.800 Y180.026
G1 F2700 X142.800 Y178.319 E2043.91822
G0 F12000 X143.400 Y178.666
G1 F2700 X143.400 Y180.372 E2044.08844
G0 F12000 X144.000 Y180.719
G1 F2700 X144.000 Y179.012 E2044.25877
G0 F12000 X144.600 Y179.359
G1 F2700 X144.600 Y181.065 E2044.42899
G0 F12000 X145.200 Y181.412
G1 F2700 X145.200 Y179.705 E2044.59932
G1 F2100 E2044.19932
G1 Z2.400
G0 F12000 X159.600 Y179.820
G1 Z2.000
G1 F2100 E2044.59932
G1 F2700 X159.600 Y181.529 E2044.76984
G0 F12000 X159.000 Y181.876
G1 F2700 X159.000 Y180.166 E2044.94047
G0 F12000 X158.400 Y180.513
G1 F2700 X158.400 Y182.222 E2045.11099
G0 F12000 X157.800 Y182.569
G1 F2700 X157.800 Y180.859 E2045.28162
G0 F12000 X157.200 Y181.206
G1 F2700 X157.200 Y182.915 E2045.45214
G0 F12000 X156.600 Y183.261
G1 F2700 X156.600 Y181.552 E2045.62267
G0 F12000 X156.000 Y181.898
G1 F2700 X156.000 Y183.608 E2045.79329
G0 F12000 X155.400 Y183.954
G1 F2700 X155.400 Y182.245 E2045.96382
G0 F12000 X154.800 Y182.591
G1 F2700 X154.800 Y184.301 E2046.13444
G0 F12000 X154.200 Y184.647
G1 F2700 X154.200 Y182.938 E2046.30497
G0 F12000 X153.600 Y183.284
G1 F2700 X153.600 Y184.831 E2046.45933
G0 F12000 X153.000 Y184.831
G1 F2700 X153.000 Y183.351 E2046.60700
G0 F12000 X152.400 Y183.351
G1 F2700 X152.400 Y184.831 E2046.75468
G0 F12000 X151.800 Y184.831
G1 F2700 X151.800 Y183.351 E2046.90235
G0 F12000 X151.200 Y183.170
G1 F2700 X151.200 Y184.831 E2047.06809
G0 F12000 X150.600 Y184.530
G1 F2700 X150.600 Y182.823 E2047.23841
G0 F12000 X150.000 Y182.477
G1 F2700 X150.000 Y184.183 E2047.40864
G0 F12000 X149.400 Y183.837
G1 F2700 X149.400 Y182.130 E2047.57896
G0 F12000 X148.800 Y181.784
G1 F2700 X148.800 Y183.490 E2047.74919
G0 F12000 X148.200 Y183.144
G1 F2700 X148.200 Y181.437 E2047.91951
G0 F12000 X147.600 Y181.091
G1 F2700 X147.600 Y182.797 E2048.08974
G0 F12000 X147.000 Y182.451
G1 F2700 X147.000 Y180.745 E2048.25996
G0 F12000 X146.400 Y180.398
G1 F2700 X146.400 Y182.104 E2048.43019
G0 F12000 X145.800 Y181.758
G1 F2700 X145.800 Y180.052 E2048.60041
G1 F2100 E2048.20041
G1 Z2.400
G0 F12000 X160.200 Y179.473
G1 Z2.000
G1 F2100 E2048.60041
G1 F2700 X160.200 Y181.183 E2048.77104
G0 F12000 X160.800 Y180.836
G1 F2700 X160.800 Y179.127 E2048.94156
G0 F12000 X161.400 Y178.781
G1 F2700 X161.400 Y180.490 E2049.11209
G0 F12000 X162.000 Y180.143
G1 F2700 X162.000 Y178.434 E2049.28261
G0 F12000 X162.600 Y178.088
G1 F2700 X162.600 Y179.797 E2049.45314
G0 F12000 X163.200 Y179.450
G1 F2700 X163.200 Y177.741 E2049.62366
G0 F12000 X163.800 Y177.395
G1 F2700 X163.800 Y179.104 E2049.79419
G0 F12000 X164.400 Y178.758
G1 F2700 X164.400 Y177.048 E2049.96481
G0 F12000 X165.000 Y176.702
G1 F2700 X165.000 Y178.411 E2050.13534
G0 F12000 X165.600 Y178.065
G1 F2700 X165.600 Y176.356 E2050.30586
G0 F12000 X166.200 Y176.009
G1 F2700 X166.200 Y177.718 E2050.47639
G0 F12000 X166.800 Y177.372
G1 F2700 X166.800 Y175.663 E2050.64691
G0 F12000 X167.400 Y175.316
G1 F2700 X167.400 Y177.025 E2050.81744
G0 F12000 X168.000 Y176.679
G1 F2700 X168.000 Y174.970 E2050.98796
G0 F12000 X168.600 Y174.623
G1 F2700 X168.600 Y176.332 E2051.15848
G0 F12000 X169.200 Y175.986
G1 F2700 X169.200 Y174.277 E2051.32901
G0 F12000 X169.800 Y173.931
G1 F2700 X169.800 Y175.639 E2051.49943
G0 F12000 X170.400 Y175.293
G1 F2700 X170.400 Y173.584 E2051.66996
G0 F12000 X171.000 Y173.238
G1 F2700 X171.000 Y174.946 E2051.84038
G0 F12000 X171.600 Y174.600
G1 F2700 X171.600 Y172.891 E2052.01091
G0 F12000 X172.200 Y172.545
G1 F2700 X172.200 Y174.254 E2052.18143
G0 F12000 X172.800 Y173.907
G1 F2700 X172.800 Y172.198 E2052.35196
G0 F12000 X173.400 Y171.852
G1 F2700 X173.400 Y173.561 E2052.52248
G0 F12000 X174.000 Y173.214
G1 F2700 X174.000 Y171.506 E2052.69291
G0 F12000 X174.600 Y171.159
G1 F2700 X174.600 Y172.868 E2052.86343
G0 F12000 X175.200 Y172.521
G1 F2700 X175.200 Y170.813 E2053.03386
G0 F12000 X175.800 Y170.466
G1 F2700 X175.800 Y172.175 E2053.20438
G0 F12000 X176.400 Y171.828
G1 F2700 X176.400 Y170.120 E2053.37481
G0 F12000 X177.000 Y169.773
G1 F2700 X177.000 Y171.482 E2053.54533
G0 F12000 X177.600 Y171.135
G1 F2700 X177.600 Y169.427 E2053.71576
G0 F12000 X178.200 Y169.081
G1 F2700 X178.200 Y170.789 E2053.88618
G0 F12000 X178.800 Y170.443
G1 F2700 X178.800 Y168.648 E2054.06529
G0 F12000 X179.400 Y167.609
G1 F2700 X179.400 Y170.096 E2054.31344
G0 F12000 X180.000 Y169.528
G1 F2700 X180.000 Y135.474 E2057.71136
G0 F12000 X180.600 Y136.512
G1 F2700 X180.600 Y168.490 E2060.90214
G1 F2100 E2060.50214
G1 Z2.400
G0 F12000 X159.000 Y158.675
G1 Z2.000
G1 F2100 E2060.90214
G1 F2700 X158.700 Y158.472 E2060.94666
G1 X158.100 Y159.256 E2061.01446
G1 X157.500 Y160.219 E2061.10107
G1 X156.900 Y159.584 E2061.20117
G1 X156.300 Y160.913 E2061.30690
G1 X156.000 Y159.922 E2061.41021
G1 F2100 E2061.01021
G1 Z2.400
G0 F12000 X151.200 Y159.932
G1 Z2.000
G1 F2100 E2061.41021
G1 F2700 X151.200 Y161.639 E2061.58054
G0 F12000 X151.800 Y161.703
G1 F2700 X151.800 Y160.101 E2061.74039
G0 F12000 X152.400 Y160.221
G1 F2700 X152.400 Y161.734 E2061.89136
G0 F12000 X153.000 Y161.718
G1 F2700 X153.000 Y160.290 E2062.03384
G0 F12000 X153.600 Y160.313
G1 F2700 X153.600 Y161.671 E2062.16934
G0 F12000 X154.200 Y161.578
G1 F2700 X154.200 Y160.286 E2062.29826
G0 F12000 X154.800 Y160.213
G1 F2700 X154.800 Y161.441 E2062.42079
G0 F12000 X155.400 Y161.264
G1 F2700 X155.400 Y160.094 E2062.53753
G1 F2100 E2062.13753
G1 Z2.400
G0 F12000 X150.600 Y159.708
G1 Z2.000
G1 F2100 E2062.53753
G1 F2700 X150.600 Y161.538 E2062.72013
G0 F12000 X150.000 Y161.388
G1 F2700 X150.000 Y159.421 E2062.91640
G0 F12000 X149.400 Y159.049
G1 F2700 X149.400 Y161.195 E2063.13053
G0 F12000 X148.800 Y160.956
G1 F2700 X148.800 Y158.680 E2063.35763
G0 F12000 X148.200 Y158.273
G1 F2700 X148.200 Y160.667 E2063.59650
G0 F12000 X147.600 Y160.323
G1 F2700 X147.600 Y157.774 E2063.85084
G0 F12000 X147.000 Y157.150
G1 F2700 X147.000 Y159.914 E2064.12664
G0 F12000 X146.400 Y159.431
G1 F2700 X146.400 Y156.330 E2064.43605
G0 F12000 X145.800 Y155.137
G1 F2700 X145.800 Y158.852 E2064.80674
G0 F12000 X145.200 Y158.149
G1 F2700 X145.200 Y153.642 E2065.25645
G1 F2100 E2064.85645
G1 Z2.400
G0 F12000 X144.000 Y155.545
G1 Z2.000
G1 F2100 E2065.25645
G1 F2700 X144.000 Y151.672 E2065.64290
G1 F2100 E2065.24290
G1 Z2.400
G0 F12000 X144.600 Y149.933
G1 Z2.000
G1 F2100 E2065.64290
G1 F2700 X144.600 Y157.283 E2066.37628
G1 F2100 E2065.97628
G1 Z2.400
G0 F12000 X125.400 Y137.737
G1 Z2.000
G1 F2100 E2066.37628
G1 F2700 X125.400 Y135.019 E2066.64749
G0 F12000 X126.000 Y134.673
G1 F2700 X126.000 Y136.699 E2066.84964
G0 F12000 X126.600 Y136.035
G1 F2700 X126.600 Y134.326 E2067.02017
G0 F12000 X127.200 Y133.980
G1 F2700 X127.200 Y135.688 E2067.19059
G0 F12000 X127.800 Y135.342
G1 F2700 X127.800 Y133.634 E2067.36102
G0 F12000 X128.400 Y133.287
G1 F2700 X128.400 Y134.996 E2067.53154
G0 F12000 X129.000 Y134.649
G1 F2700 X129.000 Y132.941 E2067.70197
G0 F12000 X129.600 Y132.594
G1 F2700 X129.600 Y134.303 E2067.87249
G0 F12000 X130.200 Y133.956
G1 F2700 X130.200 Y132.248 E2068.04292
G0 F12000 X130.800 Y131.901
G1 F2700 X130.800 Y133.610 E2068.21344
G0 F12000 X131.400 Y133.263
G1 F2700 X131.400 Y131.555 E2068.38387
G0 F12000 X132.000 Y131.208
G1 F2700 X132.000 Y132.917 E2068.55439
G0 F12000 X132.600 Y132.571
G1 F2700 X132.600 Y130.862 E2068.72492
G0 F12000 X133.200 Y130.515
G1 F2700 X133.200 Y132.224 E2068.89544
G0 F12000 X133.800 Y131.878
G1 F2700 X133.800 Y130.169 E2069.06597
G0 F12000 X134.400 Y129.823
G1 F2700 X134.400 Y131.531 E2069.23639
G0 F12000 X135.000 Y131.185
G1 F2700 X135.000 Y129.476 E2069.40692
G0 F12000 X135.600 Y129.130
G1 F2700 X135.600 Y130.838 E2069.57734
G0 F12000 X136.200 Y130.492
G1 F2700 X136.200 Y128.783 E2069.74786
G0 F12000 X136.800 Y128.437
G1 F2700 X136.800 Y130.146 E2069.91839
G0 F12000 X137.400 Y129.799
G1 F2700 X137.400 Y128.090 E2070.08891
G0 F12000 X138.000 Y127.744
G1 F2700 X138.000 Y129.453 E2070.25944
G0 F12000 X138.600 Y129.106
G1 F2700 X138.600 Y127.397 E2070.42996
G0 F12000 X139.200 Y127.051
G1 F2700 X139.200 Y128.760 E2070.60049
G0 F12000 X139.800 Y128.413
G1 F2700 X139.800 Y126.704 E2070.77101
G0 F12000 X140.400 Y126.358
G1 F2700 X140.400 Y128.067 E2070.94154
G0 F12000 X141.000 Y127.721
G1 F2700 X141.000 Y126.012 E2071.11206
G0 F12000 X141.600 Y125.665
G1 F2700 X141.600 Y127.374 E2071.28259
G0 F12000 X142.200 Y127.028
G1 F2700 X142.200 Y125.319 E2071.45311
G0 F12000 X142.800 Y124.972
G1 F2700 X142.800 Y126.681 E2071.62364
G0 F12000 X143.400 Y126.335
G1 F2700 X143.400 Y124.626 E2071.79416
G0 F12000 X144.000 Y124.279
G1 F2700 X144.000 Y125.988 E2071.96469
G0 F12000 X144.600 Y125.642
G1 F2700 X144.600 Y123.933 E2072.13521
G0 F12000 X145.200 Y123.586
G1 F2700 X145.200 Y125.296 E2072.30584
G0 F12000 X145.800 Y124.949
G1 F2700 X145.800 Y123.240 E2072.47636
G0 F12000 X146.400 Y122.893
G1 F2700 X146.400 Y124.603 E2072.64698
G0 F12000 X147.000 Y124.256
G1 F2700 X147.000 Y122.547 E2072.81751
G0 F12000 X147.600 Y122.200
G1 F2700 X147.600 Y123.910 E2072.98813
G0 F12000 X148.200 Y123.564
G1 F2700 X148.200 Y121.854 E2073.15876
G0 F12000 X148.800 Y121.508
G1 F2700 X148.800 Y123.217 E2073.32928
G0 F12000 X149.400 Y122.871
G1 F2700 X149.400 Y121.161 E2073.49991
G0 F12000 X150.000 Y120.815
G1 F2700 X150.000 Y122.524 E2073.67043
G0 F12000 X150.600 Y122.178
G1 F2700 X150.600 Y120.468 E2073.84106
G0 F12000 X151.200 Y120.169
G1 F2700 X151.200 Y121.831 E2074.00689
G0 F12000 X151.800 Y121.649
G1 F2700 X151.800 Y120.169 E2074.15457
G0 F12000 X152.400 Y120.169
G1 F2700 X152.400 Y121.649 E2074.30224
G0 F12000 X153.000 Y121.649
G1 F2700 X153.000 Y120.169 E2074.44992
G0 F12000 X153.600 Y120.169
G1 F2700 X153.600 Y121.715 E2074.60418
G0 F12000 X154.200 Y122.061
G1 F2700 X154.200 Y120.355 E2074.77440
G0 F12000 X154.800 Y120.701
G1 F2700 X154.800 Y122.408 E2074.94473
G0 F12000 X155.400 Y122.754
G1 F2700 X155.400 Y121.048 E2075.11495
G0 F12000 X156.000 Y121.394
G1 F2700 X156.000 Y123.101 E2075.28528
G0 F12000 X156.600 Y123.447
G1 F2700 X156.600 Y121.741 E2075.45550
G0 F12000 X157.200 Y122.087
G1 F2700 X157.200 Y123.794 E2075.62583
G0 F12000 X157.800 Y124.140
G1 F2700 X157.800 Y122.434 E2075.79605
G0 F12000 X158.400 Y122.780
G1 F2700 X158.400 Y124.486 E2075.96628
G0 F12000 X159.000 Y124.833
G1 F2700 X159.000 Y123.126 E2076.13660
G0 F12000 X159.600 Y123.473
G1 F2700 X159.600 Y125.179 E2076.30683
G0 F12000 X160.200 Y125.526
G1 F2700 X160.200 Y123.819 E2076.47716
G0 F12000 X160.800 Y124.166
G1 F2700 X160.800 Y125.872 E2076.64738
G0 F12000 X161.400 Y126.219
G1 F2700 X161.400 Y124.512 E2076.81771
G0 F12000 X162.000 Y124.859
G1 F2700 X162.000 Y126.565 E2076.98793
G0 F12000 X162.600 Y126.912
G1 F2700 X162.600 Y125.205 E2077.15826
G0 F12000 X163.200 Y125.552
G1 F2700 X163.200 Y127.258 E2077.32848
G0 F12000 X163.800 Y127.604
G1 F2700 X163.800 Y125.898 E2077.49871
G0 F12000 X164.400 Y126.245
G1 F2700 X164.400 Y127.951 E2077.66893
G0 F12000 X165.000 Y128.297
G1 F2700 X165.000 Y126.591 E2077.83916
G0 F12000 X165.600 Y126.937
G1 F2700 X165.600 Y128.644 E2078.00948
G0 F12000 X166.200 Y128.990
G1 F2700 X166.200 Y127.284 E2078.17971
G0 F12000 X166.800 Y127.630
G1 F2700 X166.800 Y129.337 E2078.35003
G0 F12000 X167.400 Y129.683
G1 F2700 X167.400 Y127.977 E2078.52026
G0 F12000 X168.000 Y128.323
G1 F2700 X168.000 Y130.029 E2078.69048
G0 F12000 X168.600 Y130.376
G1 F2700 X168.600 Y128.670 E2078.86071
G0 F12000 X169.200 Y129.016
G1 F2700 X169.200 Y130.722 E2079.03093
G0 F12000 X169.800 Y131.069
G1 F2700 X169.800 Y129.363 E2079.20116
G0 F12000 X170.400 Y129.709
G1 F2700 X170.400 Y131.415 E2079.37139
G0 F12000 X171.000 Y131.762
G1 F2700 X171.000 Y130.056 E2079.54161
G0 F12000 X171.600 Y130.402
G1 F2700 X171.600 Y132.108 E2079.71184
G0 F12000 X172.200 Y132.455
G1 F2700 X172.200 Y130.748 E2079.88216
G0 F12000 X172.800 Y131.095
G1 F2700 X172.800 Y132.801 E2080.05239
G0 F12000 X173.400 Y133.147
G1 F2700 X173.400 Y131.441 E2080.22261
G0 F12000 X174.000 Y131.788
G1 F2700 X174.000 Y133.494 E2080.39284
G0 F12000 X174.600 Y133.840
G1 F2700 X174.600 Y132.134 E2080.56306
G0 F12000 X175.200 Y132.481
G1 F2700 X175.200 Y134.187 E2080.73329
G0 F12000 X175.800 Y134.533
G1 F2700 X175.800 Y132.827 E2080.90351
G0 F12000 X176.400 Y133.174
G1 F2700 X176.400 Y134.880 E2081.07374
G0 F12000 X177.000 Y135.226
G1 F2700 X177.000 Y133.520 E2081.24396
G0 F12000 X177.600 Y133.867
G1 F2700 X177.600 Y135.573 E2081.41419
G0 F12000 X178.200 Y135.919
G1 F2700 X178.200 Y134.213 E2081.58442
G0 F12000 X178.800 Y134.559
G1 F2700 X178.800 Y136.353 E2081.76342
G0 F12000 X179.400 Y137.390
G1 F2700 X179.400 Y134.906 E2082.01128
;LAYER:5
M106 S104
G0 F12000 X180.108 Y134.839 Z2.400
;TYPE:WALL-INNER
G1 F2700 X181.600 Y137.422 E2082.30891
G1 X181.600 Y167.579 E2085.31799
G1 X180.109 Y170.161 E2085.61550
G1 X153.992 Y185.241 E2088.62467
G1 X151.008 Y185.241 E2088.92242
G1 X124.892 Y170.161 E2091.93151
G1 X123.400 Y167.578 E2092.22915
G1 X123.400 Y137.421 E2095.23822
G1 X124.891 Y134.839 E2095.53573
G1 X151.008 Y119.759 E2098.54490
G1 X153.992 Y119.759 E2098.84265
G1 X180.108 Y134.839 E2101.85174
G1 F2100 E2101.45174
G1 Z2.800
G0 F12000 X160.039 Y147.317
G1 Z2.400
G1 F2100 E2101.85174
G1 F2700 X159.554 Y146.672 E2101.93226
G1 X159.013 Y146.074 E2102.01272
G1 X158.422 Y145.525 E2102.09321
G1 X158.313 Y145.441 E2102.10694
G1 X157.664 Y145.061 E2102.18198
G1 X156.942 Y144.722 E2102.26157
G1 X156.228 Y144.457 E2102.33756
G1 X155.580 Y144.277 E2102.40467
G1 X154.776 Y144.124 E2102.48633
G1 X154.048 Y144.051 E2102.55933
G1 X153.508 Y144.046 E2102.61322
G1 X153.333 Y144.043 E2102.63068
G1 X152.632 Y144.096 E2102.70083
G1 X151.953 Y144.203 E2102.76942
G1 X151.294 Y144.362 E2102.83706
G1 X150.670 Y144.570 E2102.90269
G1 X149.816 Y144.951 E2102.99600
G1 X149.243 Y145.279 E2103.06188
G1 X148.706 Y145.648 E2103.12689
G1 X148.212 Y146.053 E2103.19063
G1 X147.764 Y146.487 E2103.25287
G1 X147.358 Y146.948 E2103.31416
G1 X147.001 Y147.431 E2103.37409
G1 X146.689 Y147.929 E2103.43273
G1 X146.416 Y148.454 E2103.49177
G1 X146.049 Y149.412 E2103.59413
G1 X145.897 Y150.013 E2103.65599
G1 X145.830 Y150.413 E2103.69646
G1 X145.693 Y150.897 E2103.74665
G1 X145.588 Y151.438 E2103.80164
G1 X145.526 Y151.984 E2103.85647
G1 X145.506 Y152.542 E2103.91218
G1 X145.557 Y153.305 E2103.98848
G1 X145.598 Y153.635 E2104.02166
G1 X145.749 Y154.314 E2104.09107
G1 X146.042 Y155.187 E2104.18295
G1 X146.244 Y155.632 E2104.23172
G1 X146.415 Y156.109 E2104.28228
G1 X146.628 Y156.597 E2104.33541
G1 X146.907 Y157.105 E2104.39324
G1 X147.229 Y157.597 E2104.45191
G1 X147.599 Y158.074 E2104.51214
G1 X148.017 Y158.527 E2104.57365
G1 X148.468 Y158.941 E2104.63473
G1 X148.773 Y159.193 E2104.67421
G1 X149.281 Y159.546 E2104.73594
G1 X149.826 Y159.865 E2104.79895
G1 X150.408 Y160.143 E2104.86330
G1 X151.022 Y160.376 E2104.92883
G1 X151.664 Y160.559 E2104.99544
G1 X152.330 Y160.692 E2105.06321
G1 X153.018 Y160.769 E2105.13229
G1 X153.705 Y160.787 E2105.20086
G1 X153.916 Y160.783 E2105.22192
G1 X154.603 Y160.730 E2105.29067
G1 X155.172 Y160.635 E2105.34823
G1 X155.887 Y160.466 E2105.42154
G1 X156.691 Y160.199 E2105.50607
G1 X157.313 Y159.921 E2105.57405
G1 X157.970 Y159.568 E2105.64847
G1 X158.081 Y159.504 E2105.66125
G1 X158.683 Y159.101 E2105.73354
G1 X159.288 Y158.615 E2105.81097
G1 X159.387 Y158.523 E2105.82446
G1 X159.847 Y157.952 E2105.89762
G1 X160.289 Y157.301 E2105.97613
G1 X160.661 Y156.636 E2106.05216
G1 X160.977 Y155.940 E2106.12843
G1 X161.234 Y155.222 E2106.20453
G1 X161.430 Y154.483 E2106.28081
G1 X161.565 Y153.731 E2106.35705
G1 X161.637 Y152.961 E2106.43421
G1 X161.631 Y152.542 E2106.47603
G1 X161.644 Y152.221 E2106.50808
G1 X161.588 Y151.447 E2106.58551
G1 X161.468 Y150.692 E2106.66179
G1 X161.286 Y149.950 E2106.73803
G1 X161.043 Y149.226 E2106.81423
G1 X160.741 Y148.530 E2106.88993
G1 X160.464 Y147.996 E2106.94996
G1 X160.039 Y147.317 E2107.02988
G0 F12000 X159.544 Y147.657
;TYPE:WALL-OUTER
G1 F2700 X159.091 Y147.055 E2107.10506
G1 X158.586 Y146.496 E2107.18023
G1 X158.033 Y145.983 E2107.25549
G1 X157.976 Y145.939 E2107.26268
G1 X157.385 Y145.592 E2107.33106
G1 X156.710 Y145.276 E2107.40543
G1 X156.043 Y145.028 E2107.47643
G1 X155.443 Y144.862 E2107.53855
G1 X154.690 Y144.719 E2107.61503
G1 X154.015 Y144.651 E2107.68272
G1 X153.499 Y144.646 E2107.73421
G1 X153.351 Y144.644 E2107.74898
G1 X152.701 Y144.693 E2107.81402
G1 X152.070 Y144.792 E2107.87775
G1 X151.459 Y144.939 E2107.94045
G1 X150.877 Y145.133 E2108.00167
G1 X150.092 Y145.484 E2108.08747
G1 X149.562 Y145.788 E2108.14843
G1 X149.067 Y146.128 E2108.20835
G1 X148.611 Y146.501 E2108.26714
G1 X148.199 Y146.901 E2108.32443
G1 X147.825 Y147.325 E2108.38085
G1 X147.497 Y147.769 E2108.43593
G1 X147.210 Y148.227 E2108.48986
G1 X146.964 Y148.701 E2108.54315
G1 X146.622 Y149.593 E2108.63847
G1 X146.485 Y150.136 E2108.69435
G1 X146.417 Y150.541 E2108.73532
G1 X146.277 Y151.036 E2108.78665
G1 X146.181 Y151.529 E2108.83677
G1 X146.125 Y152.029 E2108.88697
G1 X146.107 Y152.533 E2108.93729
G1 X146.154 Y153.248 E2109.00879
G1 X146.190 Y153.532 E2109.03735
G1 X146.328 Y154.153 E2109.10083
G1 X146.601 Y154.967 E2109.18649
G1 X146.801 Y155.408 E2109.23481
G1 X146.973 Y155.887 E2109.28559
G1 X147.167 Y156.332 E2109.33403
G1 X147.422 Y156.796 E2109.38686
G1 X147.718 Y157.248 E2109.44077
G1 X148.057 Y157.686 E2109.49604
G1 X148.441 Y158.102 E2109.55253
G1 X148.863 Y158.488 E2109.60959
G1 X149.136 Y158.715 E2109.64502
G1 X149.604 Y159.040 E2109.70187
G1 X150.107 Y159.334 E2109.76001
G1 X150.644 Y159.591 E2109.81941
G1 X151.211 Y159.806 E2109.87991
G1 X151.805 Y159.976 E2109.94156
G1 X152.422 Y160.099 E2110.00434
G1 X153.059 Y160.170 E2110.06829
G1 X153.708 Y160.187 E2110.13307
G1 X153.887 Y160.184 E2110.15094
G1 X154.530 Y160.134 E2110.21529
G1 X155.053 Y160.046 E2110.26821
G1 X155.723 Y159.888 E2110.33689
G1 X156.474 Y159.639 E2110.41584
G1 X157.048 Y159.382 E2110.47859
G1 X157.679 Y159.043 E2110.55007
G1 X158.328 Y158.617 E2110.62753
G1 X158.895 Y158.161 E2110.70013
G1 X159.373 Y157.584 E2110.77489
G1 X159.777 Y156.987 E2110.84682
G1 X160.125 Y156.365 E2110.91794
G1 X160.420 Y155.715 E2110.98916
G1 X160.661 Y155.043 E2111.06039
G1 X160.844 Y154.353 E2111.13162
G1 X160.970 Y153.650 E2111.20289
G1 X161.036 Y152.937 E2111.27433
G1 X161.031 Y152.557 E2111.31225
G1 X161.043 Y152.231 E2111.34480
G1 X160.991 Y151.516 E2111.41633
G1 X160.879 Y150.811 E2111.48756
G1 X160.709 Y150.117 E2111.55886
G1 X160.482 Y149.441 E2111.63001
G1 X160.199 Y148.788 E2111.70102
G1 X159.943 Y148.294 E2111.75654
G1 X159.544 Y147.657 E2111.83154
G1 F2100 E2111.43154
G1 Z2.800
G0 F12000 X180.547 Y134.400
G1 Z2.400
G1 F2100 E2111.83154
G1 F2700 X182.200 Y137.261 E2112.16123
G1 X182.200 Y167.739 E2115.20234
G1 X180.547 Y170.600 E2115.53203
G1 X154.151 Y185.841 E2118.57335
G1 X150.849 Y185.841 E2118.90283
G1 X124.453 Y170.600 E2121.94414
G1 X122.800 Y167.739 E2122.27384
G1 X122.800 Y137.261 E2125.31495
G1 X124.453 Y134.400 E2125.64464
G1 X150.849 Y119.159 E2128.68596
G1 X154.151 Y119.159 E2129.01543
G1 X180.547 Y134.400 E2132.05675
G1 F2100 E2131.65675
G1 Z2.800
G0 F12000 X180.579 Y137.076
;TYPE:FILL
G1 Z2.400
G1 F2100 E2132.05675
G1 F2700 X160.922 Y148.424 E2134.32151
G1 F2100 E2133.92151
G1 Z2.800
G0 F12000 X161.617 Y150.418
G1 Z2.400
G1 F2100 E2134.32151
G1 F2700 X161.617 Y124.983 E2136.85943
G0 F12000 X161.967 Y125.184
G1 F2700 X124.109 Y147.042 E2141.22133
G0 F12000 X124.108 Y146.635
G1 F2700 X171.771 Y174.153 E2146.71288
G0 F12000 X171.419 Y174.358
G1 F2700 X171.419 Y130.643 E2151.07478
G0 F12000 X171.768 Y130.844
G1 F2700 X124.109 Y158.360 E2156.56588
G0 F12000 X124.109 Y157.954
G1 F2700 X161.969 Y179.813 E2160.92801
G0 F12000 X161.617 Y180.018
G1 F2700 X161.617 Y154.596 E2163.46462
G1 F2100 E2163.06462
G1 Z2.800
G0 F12000 X160.919 Y156.570
G1 Z2.400
G1 F2100 E2163.46462
G1 F2700 X180.580 Y167.921 E2165.72988
G1 F2100 E2165.32988
G1 Z2.800
G0 F12000 X180.888 Y159.534
G1 Z2.400
G1 F2100 E2165.72988
G1 F2700 X144.396 Y180.603 E2169.93438
G1 F2100 E2169.53438
G1 Z2.800
G0 F12000 X151.815 Y184.531
G1 Z2.400
G1 F2100 E2169.93438
G1 F2700 X151.815 Y160.925 E2172.28979
G1 F2100 E2171.88979
G1 Z2.800
G0 F12000 X142.013 Y179.226
G1 Z2.400
G1 F2100 E2172.28979
G1 F2700 X142.013 Y125.773 E2177.62335
G1 F2100 E2177.22335
G1 Z2.800
G0 F12000 X144.399 Y124.395
G1 Z2.400
G1 F2100 E2177.62335
G1 F2700 X180.889 Y145.463 E2181.82763
G1 F2100 E2181.42763
G1 Z2.800
G0 F12000 X180.888 Y148.215
G1 Z2.400
G1 F2100 E2181.82763
G1 F2700 X134.595 Y174.943 E2187.16138
G1 F2100 E2186.76138
G1 Z2.800
G0 F12000 X132.211 Y173.566
G1 Z2.400
G1 F2100 E2187.16138
G1 F2700 X132.211 Y131.433 E2191.36543
G1 F2100 E2190.96543
G1 Z2.800
G0 F12000 X134.598 Y130.055
G1 Z2.400
G1 F2100 E2191.36543
G1 F2700 X180.889 Y156.781 E2196.69891
G1 F2100 E2196.29891
G1 Z2.800
G0 F12000 X151.815 Y144.022
G1 Z2.400
G1 F2100 E2196.69891
G1 F2700 X151.815 Y120.469 E2199.04904
G1 F2100 E2198.64904
G1 Z2.800
G0 F12000 X146.044 Y147.981
G1 Z2.400
G1 F2100 E2199.04904
G1 F2700 X125.103 Y135.891 E2201.46177
G1 F2100 E2201.06177
G1 Z2.800
G0 F12000 X145.542 Y157.304
G1 Z2.400
G1 F2100 E2201.46177
G1 F2700 X125.101 Y169.106 E2203.81693
G0 F12000 X124.579 Y169.200
;TYPE:SKIN
G1 F2700 X126.208 Y169.200 E2203.97947
G0 F12000 X125.711 Y168.600
G1 F2700 X124.232 Y168.600 E2204.12705
G0 F12000 X123.886 Y168.000
G1 F2700 X125.364 Y168.000 E2204.27452
G0 F12000 X125.018 Y167.400
G1 F2700 X123.609 Y167.400 E2204.41511
G0 F12000 X123.609 Y166.800
G1 F2700 X124.889 Y166.800 E2204.54283
G0 F12000 X124.889 Y166.200
G1 F2700 X123.609 Y166.200 E2204.67055
G0 F12000 X123.609 Y165.600
G1 F2700 X124.889 Y165.600 E2204.79827
G0 F12000 X124.889 Y165.000
G1 F2700 X123.609 Y165.000 E2204.92599
G0 F12000 X123.609 Y164.400
G1 F2700 X124.889 Y164.400 E2205.05371
G0 F12000 X124.889 Y163.800
G1 F2700 X123.609 Y163.800 E2205.18143
G0 F12000 X123.609 Y163.200
G1 F2700 X124.889 Y163.200 E2205.30915
G0 F12000 X124.889 Y162.600
G1 F2700 X123.609 Y162.600 E2205.43687
G0 F12000 X123.609 Y162.000
G1 F2700 X124.889 Y162.000 E2205.56458
G0 F12000 X124.889 Y161.400
G1 F2700 X123.609 Y161.400 E2205.69230
G0 F12000 X123.609 Y160.800
G1 F2700 X124.889 Y160.800 E2205.82002
G0 F12000 X124.889 Y160.200
G1 F2700 X123.609 Y160.200 E2205.94774
G1 F2100 E2205.54774
G1 Z2.800
G0 F12000 X124.926 Y169.800
G1 Z2.400
G1 F2100 E2205.94774
G1 F2700 X127.247 Y169.800 E2206.17933
G0 F12000 X128.286 Y170.400
G1 F2700 X125.727 Y170.400 E2206.43467
G0 F12000 X126.766 Y171.000
G1 F2700 X129.325 Y171.000 E2206.69001
G0 F12000 X130.364 Y171.600
G1 F2700 X127.805 Y171.600 E2206.94535
G0 F12000 X128.844 Y172.200
G1 F2700 X131.403 Y172.200 E2207.20068
G0 F12000 X132.443 Y172.800
G1 F2700 X129.883 Y172.800 E2207.45612
G0 F12000 X130.922 Y173.400
G1 F2700 X133.482 Y173.400 E2207.71156
G0 F12000 X134.521 Y174.000
G1 F2700 X131.961 Y174.000 E2207.96700
G0 F12000 X133.001 Y174.600
G1 F2700 X135.560 Y174.600 E2208.22234
G0 F12000 X136.599 Y175.200
G1 F2700 X134.040 Y175.200 E2208.47767
G0 F12000 X135.079 Y175.800
G1 F2700 X137.639 Y175.800 E2208.73311
G0 F12000 X138.678 Y176.400
G1 F2700 X136.118 Y176.400 E2208.98855
G0 F12000 X137.157 Y177.000
G1 F2700 X139.717 Y177.000 E2209.24399
G0 F12000 X140.756 Y177.600
G1 F2700 X138.196 Y177.600 E2209.49943
G0 F12000 X139.235 Y178.200
G1 F2700 X141.795 Y178.200 E2209.75486
G0 F12000 X142.834 Y178.800
G1 F2700 X140.274 Y178.800 E2210.01030
G0 F12000 X141.313 Y179.400
G1 F2700 X143.874 Y179.400 E2210.26584
G1 F2100 E2209.86584
G1 Z2.800
G0 F12000 X150.053 Y161.400
G1 Z2.400
G1 F2100 E2210.26584
G1 F2700 X153.831 Y161.400 E2210.64281
G1 F2100 E2210.24281
G1 Z2.800
G0 F12000 X151.802 Y160.800
G1 Z2.400
G1 F2100 E2210.64281
G1 F2700 X148.462 Y160.800 E2210.97608
G0 F12000 X147.409 Y160.200
G1 F2700 X150.043 Y160.200 E2211.23890
G0 F12000 X148.991 Y159.600
G1 F2700 X146.595 Y159.600 E2211.47797
G0 F12000 X145.942 Y159.000
G1 F2700 X148.222 Y159.000 E2211.70547
G0 F12000 X147.614 Y158.400
G1 F2700 X145.396 Y158.400 E2211.92678
G0 F12000 X144.938 Y157.800
G1 F2700 X147.121 Y157.800 E2212.14460
G0 F12000 X146.720 Y157.200
G1 F2700 X144.553 Y157.200 E2212.36083
G0 F12000 X144.228 Y156.600
G1 F2700 X146.399 Y156.600 E2212.57745
G0 F12000 X146.153 Y156.000
G1 F2700 X143.957 Y156.000 E2212.79657
G0 F12000 X143.734 Y155.400
G1 F2700 X145.907 Y155.400 E2213.01339
G0 F12000 X145.690 Y154.800
G1 F2700 X143.555 Y154.800 E2213.22642
G0 F12000 X143.418 Y154.200
G1 F2700 X145.509 Y154.200 E2213.43506
G0 F12000 X145.381 Y153.600
G1 F2700 X143.331 Y153.600 E2213.63961
G0 F12000 X143.279 Y153.000
G1 F2700 X145.326 Y153.000 E2213.84386
G0 F12000 X145.300 Y152.400
G1 F2700 X143.267 Y152.400 E2214.04672
G0 F12000 X143.287 Y151.800
G1 F2700 X145.334 Y151.800 E2214.25097
G0 F12000 X145.418 Y151.200
G1 F2700 X143.412 Y151.200 E2214.45113
G0 F12000 X143.596 Y150.600
G1 F2700 X145.557 Y150.600 E2214.64680
G0 F12000 X145.685 Y150.000
G1 F2700 X143.826 Y150.000 E2214.83229
G0 F12000 X144.104 Y149.400
G1 F2700 X145.833 Y149.400 E2215.00481
G0 F12000 X146.057 Y148.800
G1 F2700 X144.438 Y148.800 E2215.16635
G0 F12000 X144.843 Y148.200
G1 F2700 X146.309 Y148.200 E2215.31263
G0 F12000 X146.645 Y147.600
G1 F2700 X145.329 Y147.600 E2215.44394
G0 F12000 X145.921 Y147.000
G1 F2700 X146.851 Y146.700 E2215.55705
G1 X147.569 Y146.100 E2215.64792
G1 X148.187 Y145.800 E2215.71647
G1 F2100 E2215.31647
G1 Z2.800
G0 F12000 X137.980 Y129.000
G1 Z2.400
G1 F2100 E2215.71647
G1 F2700 X135.422 Y129.000 E2215.97171
G0 F12000 X134.383 Y129.600
G1 F2700 X136.941 Y129.600 E2216.22694
G0 F12000 X135.902 Y130.200
G1 F2700 X133.344 Y130.200 E2216.48218
G0 F12000 X132.305 Y130.800
G1 F2700 X134.863 Y130.800 E2216.73742
G0 F12000 X133.824 Y131.400
G1 F2700 X131.265 Y131.400 E2216.99276
G0 F12000 X130.226 Y132.000
G1 F2700 X132.785 Y132.000 E2217.24810
G0 F12000 X131.745 Y132.600
G1 F2700 X129.187 Y132.600 E2217.50334
G0 F12000 X128.148 Y133.200
G1 F2700 X130.706 Y133.200 E2217.75857
G0 F12000 X129.667 Y133.800
G1 F2700 X127.109 Y133.800 E2218.01381
G0 F12000 X126.070 Y134.400
G1 F2700 X128.628 Y134.400 E2218.26905
G0 F12000 X127.589 Y135.000
G1 F2700 X125.040 Y135.000 E2218.52339
G0 F12000 X124.693 Y135.600
G1 F2700 X126.550 Y135.600 E2218.70868
G0 F12000 X125.824 Y136.200
G1 F2700 X124.347 Y136.200 E2218.85606
G0 F12000 X124.000 Y136.800
G1 F2700 X125.478 Y136.800 E2219.00353
G0 F12000 X125.132 Y137.400
G1 F2700 X123.654 Y137.400 E2219.15101
G0 F12000 X123.609 Y138.000
G1 F2700 X124.889 Y138.000 E2219.27873
G0 F12000 X124.889 Y138.600
G1 F2700 X123.609 Y138.600 E2219.40645
G0 F12000 X123.609 Y139.200
G1 F2700 X124.889 Y139.200 E2219.53417
G0 F12000 X124.889 Y139.800
G1 F2700 X123.609 Y139.800 E2219.66188
G1 F2100 E2219.26188
G1 Z2.800
G0 F12000 X136.461 Y128.400
G1 Z2.400
G1 F2100 E2219.66188
G1 F2700 X139.020 Y128.400 E2219.91722
G0 F12000 X140.059 Y127.800
G1 F2700 X137.500 Y127.800 E2220.17256
G0 F12000 X138.539 Y127.200
G1 F2700 X141.098 Y127.200 E2220.42790
G0 F12000 X142.137 Y126.600
G1 F2700 X139.579 Y126.600 E2220.68314
G0 F12000 X140.618 Y126.000
G1 F2700 X143.176 Y126.000 E2220.93838
G0 F12000 X144.215 Y125.400
G1 F2700 X141.657 Y125.400 E2221.19361
G0 F12000 X142.696 Y124.800
G1 F2700 X145.255 Y124.800 E2221.44895
G0 F12000 X146.294 Y124.200
G1 F2700 X143.735 Y124.200 E2221.70429
G0 F12000 X144.774 Y123.600
G1 F2700 X147.333 Y123.600 E2221.95963
G0 F12000 X148.372 Y123.000
G1 F2700 X145.813 Y123.000 E2222.21497
G0 F12000 X146.853 Y122.400
G1 F2700 X149.411 Y122.400 E2222.47020
G0 F12000 X150.450 Y121.800
G1 F2700 X147.892 Y121.800 E2222.72544
G0 F12000 X148.931 Y121.200
G1 F2700 X156.068 Y121.200 E2223.43758
G0 F12000 X157.107 Y121.800
G1 F2700 X154.547 Y121.800 E2223.69301
G0 F12000 X155.586 Y122.400
G1 F2700 X158.146 Y122.400 E2223.94845
G0 F12000 X159.185 Y123.000
G1 F2700 X156.625 Y123.000 E2224.20389
G0 F12000 X157.664 Y123.600
G1 F2700 X160.225 Y123.600 E2224.45943
G0 F12000 X161.264 Y124.200
G1 F2700 X158.703 Y124.200 E2224.71496
G0 F12000 X159.742 Y124.800
G1 F2700 X162.303 Y124.800 E2224.97050
G0 F12000 X163.342 Y125.400
G1 F2700 X160.782 Y125.400 E2225.22594
G0 F12000 X161.821 Y126.000
G1 F2700 X164.381 Y126.000 E2225.48138
G0 F12000 X165.420 Y126.600
G1 F2700 X162.860 Y126.600 E2225.73682
G0 F12000 X163.899 Y127.200
G1 F2700 X166.459 Y127.200 E2225.99225
G0 F12000 X167.498 Y127.800
G1 F2700 X164.938 Y127.800 E2226.24769
G0 F12000 X165.977 Y128.400
G1 F2700 X168.537 Y128.400 E2226.50313
G0 F12000 X169.576 Y129.000
G1 F2700 X167.017 Y129.000 E2226.75847
G0 F12000 X168.056 Y129.600
G1 F2700 X170.615 Y129.600 E2227.01380
G0 F12000 X171.655 Y130.200
G1 F2700 X169.095 Y130.200 E2227.26924
G0 F12000 X170.134 Y130.800
G1 F2700 X172.694 Y130.800 E2227.52468
G0 F12000 X173.733 Y131.400
G1 F2700 X171.173 Y131.400 E2227.78012
G0 F12000 X172.212 Y132.000
G1 F2700 X174.772 Y132.000 E2228.03556
G0 F12000 X175.811 Y132.600
G1 F2700 X173.252 Y132.600 E2228.29089
G0 F12000 X174.291 Y133.200
G1 F2700 X176.850 Y133.200 E2228.54623
G0 F12000 X177.889 Y133.800
G1 F2700 X175.330 Y133.800 E2228.80157
G0 F12000 X176.369 Y134.400
G1 F2700 X178.928 Y134.400 E2229.05691
G0 F12000 X179.958 Y135.000
G1 F2700 X177.408 Y135.000 E2229.31135
G0 F12000 X178.447 Y135.600
G1 F2700 X180.305 Y135.600 E2229.49674
G0 F12000 X180.651 Y136.200
G1 F2700 X179.173 Y136.200 E2229.64422
G0 F12000 X179.519 Y136.800
G1 F2700 X180.998 Y136.800 E2229.79179
G0 F12000 X181.344 Y137.400
G1 F2700 X179.866 Y137.400 E2229.93927
G0 F12000 X180.109 Y138.000
G1 F2700 X181.389 Y138.000 E2230.06699
G0 F12000 X181.389 Y138.600
G1 F2700 X180.109 Y138.600 E2230.19470
G0 F12000 X180.109 Y139.200
G1 F2700 X181.389 Y139.200 E2230.32242
G0 F12000 X181.389 Y139.800
G1 F2700 X180.109 Y139.800 E2230.45014
G0 F12000 X180.109 Y140.400
G1 F2700 X181.389 Y140.400 E2230.57786
G0 F12000 X181.389 Y141.000
G1 F2700 X180.109 Y141.000 E2230.70558
G0 F12000 X180.109 Y141.600
G1 F2700 X181.389 Y141.600 E2230.83330
G0 F12000 X181.389 Y142.200
G1 F2700 X180.109 Y142.200 E2230.96102
G0 F12000 X180.109 Y142.800
G1 F2700 X181.389 Y142.800 E2231.08874
G0 F12000 X181.389 Y143.400
G1 F2700 X180.109 Y143.400 E2231.21646
G0 F12000 X180.109 Y144.000
G1 F2700 X181.389 Y144.000 E2231.34417
G0 F12000 X181.389 Y144.600
G1 F2700 X180.109 Y144.600 E2231.47189
G0 F12000 X180.109 Y145.200
G1 F2700 X181.389 Y145.200 E2231.59961
G0 F12000 X181.389 Y145.800
G1 F2700 X180.109 Y145.800 E2231.72733
G0 F12000 X180.109 Y146.400
G1 F2700 X181.389 Y146.400 E2231.85505
G0 F12000 X181.389 Y147.000
G1 F2700 X180.109 Y147.000 E2231.98277
G0 F12000 X180.109 Y147.600
G1 F2700 X181.389 Y147.600 E2232.11049
G0 F12000 X181.389 Y148.200
G1 F2700 X180.109 Y148.200 E2232.23821
G0 F12000 X180.109 Y148.800
G1 F2700 X181.389 Y148.800 E2232.36593
G0 F12000 X181.389 Y149.400
G1 F2700 X180.109 Y149.400 E2232.49364
G0 F12000 X180.109 Y150.000
G1 F2700 X181.389 Y150.000 E2232.62136
G0 F12000 X181.389 Y150.600
G1 F2700 X180.109 Y150.600 E2232.74908
G0 F12000 X180.109 Y151.200
G1 F2700 X181.389 Y151.200 E2232.87680
G0 F12000 X181.389 Y151.800
G1 F2700 X180.109 Y151.800 E2233.00452
G0 F12000 X180.109 Y152.400
G1 F2700 X181.389 Y152.400 E2233.13224
G0 F12000 X181.389 Y153.000
G1 F2700 X180.109 Y153.000 E2233.25996
G0 F12000 X180.109 Y153.600
G1 F2700 X181.389 Y153.600 E2233.38768
G0 F12000 X181.389 Y154.200
G1 F2700 X180.109 Y154.200 E2233.51540
G0 F12000 X180.109 Y154.800
G1 F2700 X181.389 Y154.800 E2233.64312
G0 F12000 X181.389 Y155.400
G1 F2700 X180.109 Y155.400 E2233.77083
G0 F12000 X180.109 Y156.000
G1 F2700 X181.389 Y156.000 E2233.89855
G0 F12000 X181.389 Y156.600
G1 F2700 X180.109 Y156.600 E2234.02627
G0 F12000 X180.109 Y157.200
G1 F2700 X181.389 Y157.200 E2234.15399
G0 F12000 X181.389 Y157.800
G1 F2700 X180.109 Y157.800 E2234.28171
G0 F12000 X180.109 Y158.400
G1 F2700 X181.389 Y158.400 E2234.40943
G0 F12000 X181.389 Y159.000
G1 F2700 X180.109 Y159.000 E2234.53715
G0 F12000 X180.109 Y159.600
G1 F2700 X181.389 Y159.600 E2234.66487
G0 F12000 X181.389 Y160.200
G1 F2700 X180.109 Y160.200 E2234.79259
G0 F12000 X180.109 Y160.800
G1 F2700 X181.389 Y160.800 E2234.92030
G0 F12000 X181.389 Y161.400
G1 F2700 X180.109 Y161.400 E2235.04802
G0 F12000 X180.109 Y162.000
G1 F2700 X181.389 Y162.000 E2235.17574
G0 F12000 X181.389 Y162.600
G1 F2700 X180.109 Y162.600 E2235.30346
G0 F12000 X180.109 Y163.200
G1 F2700 X181.389 Y163.200 E2235.43118
G0 F12000 X181.389 Y163.800
G1 F2700 X180.109 Y163.800 E2235.55890
G0 F12000 X180.109 Y164.400
G1 F2700 X181.389 Y164.400 E2235.68662
G0 F12000 X181.389 Y165.000
G1 F2700 X180.109 Y165.000 E2235.81434
G0 F12000 X180.109 Y165.600
G1 F2700 X181.389 Y165.600 E2235.94206
G0 F12000 X181.389 Y166.200
G1 F2700 X180.109 Y166.200 E2236.06977
G0 F12000 X180.109 Y166.800
G1 F2700 X181.389 Y166.800 E2236.19749
G0 F12000 X181.389 Y167.400
G1 F2700 X179.981 Y167.400 E2236.33798
G0 F12000 X179.634 Y168.000
G1 F2700 X181.112 Y168.000 E2236.48546
G0 F12000 X180.765 Y168.600
G1 F2700 X179.288 Y168.600 E2236.63284
G0 F12000 X178.791 Y169.200
G1 F2700 X180.419 Y169.200 E2236.79528
G0 F12000 X180.072 Y169.800
G1 F2700 X177.752 Y169.800 E2237.02677
G0 F12000 X176.713 Y170.400
G1 F2700 X179.271 Y170.400 E2237.28201
G0 F12000 X178.232 Y171.000
G1 F2700 X175.674 Y171.000 E2237.53725
G0 F12000 X174.635 Y171.600
G1 F2700 X177.193 Y171.600 E2237.79248
G0 F12000 X176.154 Y172.200
G1 F2700 X173.596 Y172.200 E2238.04772
G0 F12000 X172.556 Y172.800
G1 F2700 X175.115 Y172.800 E2238.30306
G0 F12000 X174.075 Y173.400
G1 F2700 X171.517 Y173.400 E2238.55830
G0 F12000 X170.478 Y174.000
G1 F2700 X173.036 Y174.000 E2238.81354
G0 F12000 X171.997 Y174.600
G1 F2700 X169.439 Y174.600 E2239.06877
G0 F12000 X168.400 Y175.200
G1 F2700 X170.958 Y175.200 E2239.32401
G0 F12000 X169.919 Y175.800
G1 F2700 X167.360 Y175.800 E2239.57935
G0 F12000 X166.321 Y176.400
G1 F2700 X168.880 Y176.400 E2239.83469
G0 F12000 X167.841 Y177.000
G1 F2700 X165.282 Y177.000 E2240.09003
G0 F12000 X164.243 Y177.600
G1 F2700 X166.801 Y177.600 E2240.34527
G0 F12000 X165.762 Y178.200
G1 F2700 X163.204 Y178.200 E2240.60050
G0 F12000 X162.165 Y178.800
G1 F2700 X164.723 Y178.800 E2240.85574
G0 F12000 X163.684 Y179.400
G1 F2700 X161.125 Y179.400 E2241.11108
G0 F12000 X160.086 Y180.000
G1 F2700 X162.645 Y180.000 E2241.36642
G0 F12000 X161.606 Y180.600
G1 F2700 X159.047 Y180.600 E2241.62176
G0 F12000 X158.008 Y181.200
G1 F2700 X160.567 Y181.200 E2241.87709
G0 F12000 X159.528 Y181.800
G1 F2700 X156.969 Y181.800 E2242.13243
G0 F12000 X155.930 Y182.400
G1 F2700 X158.488 Y182.400 E2242.38767
G0 F12000 X157.449 Y183.000
G1 F2700 X154.890 Y183.000 E2242.64301
G0 F12000 X153.851 Y183.600
G1 F2700 X156.410 Y183.600 E2242.89835
G0 F12000 X155.371 Y184.200
G1 F2700 X149.626 Y184.200 E2243.47158
G0 F12000 X150.665 Y184.800
G1 F2700 X154.332 Y184.800 E2243.83748
G1 F2100 E2243.43748
G1 Z2.800
G0 F12000 X151.148 Y183.600
G1 Z2.400
G1 F2100 E2243.83748
G1 F2700 X148.587 Y183.600 E2244.09302
G0 F12000 X147.548 Y183.000
G1 F2700 X150.109 Y183.000 E2244.34855
G0 F12000 X149.069 Y182.400
G1 F2700 X146.509 Y182.400 E2244.60399
G0 F12000 X145.470 Y181.800
G1 F2700 X148.030 Y181.800 E2244.85943
G0 F12000 X146.991 Y181.200
G1 F2700 X144.431 Y181.200 E2245.11487
G0 F12000 X143.391 Y180.600
G1 F2700 X145.952 Y180.600 E2245.37041
G0 F12000 X144.913 Y180.000
G1 F2700 X142.352 Y180.000 E2245.62594
G1 F2100 E2245.22594
G1 Z2.800
G0 F12000 X124.889 Y159.600
G1 Z2.400
G1 F2100 E2245.62594
G1 F2700 X123.609 Y159.600 E2245.75366
G0 F12000 X123.609 Y159.000
G1 F2700 X124.889 Y159.000 E2245.88138
G0 F12000 X124.889 Y158.400
G1 F2700 X123.609 Y158.400 E2246.00910
G0 F12000 X123.609 Y157.800
G1 F2700 X124.889 Y157.800 E2246.13682
G0 F12000 X124.889 Y157.200
G1 F2700 X123.609 Y157.200 E2246.26454
G0 F12000 X123.609 Y156.600
G1 F2700 X124.889 Y156.600 E2246.39226
G0 F12000 X124.889 Y156.000
G1 F2700 X123.609 Y156.000 E2246.51998
G0 F12000 X123.609 Y155.400
G1 F2700 X124.889 Y155.400 E2246.64769
G0 F12000 X124.889 Y154.800
G1 F2700 X123.609 Y154.800 E2246.77541
G0 F12000 X123.609 Y154.200
G1 F2700 X124.889 Y154.200 E2246.90313
G0 F12000 X124.889 Y153.600
G1 F2700 X123.609 Y153.600 E2247.03085
G0 F12000 X123.609 Y153.000
G1 F2700 X124.889 Y153.000 E2247.15857
G0 F12000 X124.889 Y152.400
G1 F2700 X123.609 Y152.400 E2247.28629
G0 F12000 X123.609 Y151.800
G1 F2700 X124.889 Y151.800 E2247.41401
G0 F12000 X124.889 Y151.200
G1 F2700 X123.609 Y151.200 E2247.54173
G0 F12000 X123.609 Y150.600
G1 F2700 X124.889 Y150.600 E2247.66945
G0 F12000 X124.889 Y150.000
G1 F2700 X123.609 Y150.000 E2247.79717
G0 F12000 X123.609 Y149.400
G1 F2700 X124.889 Y149.400 E2247.92488
G0 F12000 X124.889 Y148.800
G1 F2700 X123.609 Y148.800 E2248.05260
G0 F12000 X123.609 Y148.200
G1 F2700 X124.889 Y148.200 E2248.18032
G0 F12000 X124.889 Y147.600
G1 F2700 X123.609 Y147.600 E2248.30804
G0 F12000 X123.609 Y147.000
G1 F2700 X124.889 Y147.000 E2248.43576
G0 F12000 X124.889 Y146.400
G1 F2700 X123.609 Y146.400 E2248.56348
G0 F12000 X123.609 Y145.800
G1 F2700 X124.889 Y145.800 E2248.69120
G0 F12000 X124.889 Y145.200
G1 F2700 X123.609 Y145.200 E2248.81892
G0 F12000 X123.609 Y144.600
G1 F2700 X124.889 Y144.600 E2248.94664
G0 F12000 X124.889 Y144.000
G1 F2700 X123.609 Y144.000 E2249.07435
G0 F12000 X123.609 Y143.400
G1 F2700 X124.889 Y143.400 E2249.20207
G0 F12000 X124.889 Y142.800
G1 F2700 X123.609 Y142.800 E2249.32979
G0 F12000 X123.609 Y142.200
G1 F2700 X124.889 Y142.200 E2249.45751
G0 F12000 X124.889 Y141.600
G1 F2700 X123.609 Y141.600 E2249.58523
G0 F12000 X123.609 Y141.000
G1 F2700 X124.889 Y141.000 E2249.71295
G0 F12000 X124.889 Y140.400
G1 F2700 X123.609 Y140.400 E2249.84067
G1 F2100 E2249.44067
G1 Z2.800
G0 F12000 X149.970 Y120.600
G1 Z2.400
G1 F2100 E2249.84067
G1 F2700 X155.029 Y120.600 E2250.34546
G0 F12000 X153.990 Y120.000
G1 F2700 X151.009 Y120.000 E2250.64290
;LAYER:6
M106 S127
G0 F12000 X151.008 Y119.759 Z2.800
;TYPE:WALL-INNER
G1 F2700 X153.992 Y119.759 E2250.94065
G1 X180.108 Y134.839 E2253.94974
G1 X181.600 Y137.422 E2254.24738
G1 X181.600 Y167.580 E2257.25655
G1 X180.109 Y170.161 E2257.55397
G1 X153.992 Y185.241 E2260.56315
G1 X151.008 Y185.241 E2260.86089
G1 X124.892 Y170.161 E2263.86998
G1 X123.400 Y167.578 E2264.16762
G1 X123.400 Y137.420 E2267.17680
G1 X124.891 Y134.839 E2267.47421
G1 X151.008 Y119.759 E2270.48339
G1 F2100 E2270.08339
G1 Z3.200
G0 F12000 X152.725 Y144.774
G1 Z2.800
G1 F2100 E2270.48339
G1 F2700 X152.120 Y144.868 E2270.54448
G1 X151.533 Y145.005 E2270.60463
G1 X150.968 Y145.189 E2270.66392
G1 X150.440 Y145.409 E2270.72099
G1 X150.033 Y145.609 E2270.76624
G1 X149.533 Y145.907 E2270.82432
G1 X149.050 Y146.245 E2270.88314
G1 X148.349 Y146.876 E2270.97725
G1 X147.928 Y147.207 E2271.03069
G1 X147.524 Y147.585 E2271.08589
G1 X147.145 Y148.001 E2271.14204
G1 X146.654 Y148.669 E2271.22477
G1 X146.250 Y149.361 E2271.30472
G1 X145.969 Y150.008 E2271.37510
G1 X145.695 Y150.888 E2271.46707
G1 X145.587 Y151.396 E2271.51889
G1 X145.351 Y152.311 E2271.61318
G1 X145.271 Y152.877 E2271.67021
G1 X145.237 Y153.446 E2271.72709
G1 X145.249 Y154.026 E2271.78498
G1 X145.308 Y154.615 E2271.84404
G1 X145.416 Y155.210 E2271.90438
G1 X145.578 Y155.808 E2271.96620
G1 X145.792 Y156.397 E2272.02873
G1 X146.055 Y156.982 E2272.09273
G1 X146.371 Y157.542 E2272.15689
G1 X146.537 Y157.803 E2272.18775
G1 X146.911 Y158.318 E2272.25126
G1 X147.339 Y158.817 E2272.31685
G1 X147.817 Y159.287 E2272.38374
G1 X148.342 Y159.725 E2272.45197
G1 X148.910 Y160.122 E2272.52111
G1 X149.522 Y160.480 E2272.59186
G1 X150.057 Y160.729 E2272.65074
G1 X150.850 Y161.041 E2272.73577
G1 X151.575 Y161.243 E2272.81087
G1 X152.222 Y161.362 E2272.87651
G1 X153.080 Y161.459 E2272.96266
G1 X153.798 Y161.470 E2273.03431
G1 X153.850 Y161.473 E2273.03951
G1 X154.476 Y161.427 E2273.10214
G1 X154.766 Y161.366 E2273.13171
G1 X155.488 Y161.148 E2273.20697
G1 X156.198 Y160.869 E2273.28308
G1 X156.882 Y160.530 E2273.35925
G1 X157.537 Y160.137 E2273.43547
G1 X158.156 Y159.690 E2273.51166
G1 X158.736 Y159.193 E2273.58787
G1 X159.273 Y158.649 E2273.66414
G1 X159.762 Y158.062 E2273.74037
G1 X160.200 Y157.437 E2273.81653
G1 X160.586 Y156.778 E2273.89273
G1 X160.915 Y156.088 E2273.96901
G1 X161.184 Y155.374 E2274.04514
G1 X161.393 Y154.644 E2274.12090
G1 X161.510 Y154.082 E2274.17818
G1 X161.612 Y153.305 E2274.25638
G1 X161.629 Y153.097 E2274.27720
G1 X161.626 Y152.941 E2274.29277
G1 X161.648 Y152.374 E2274.34939
G1 X161.613 Y151.678 E2274.41892
G1 X161.507 Y150.880 E2274.49925
G1 X161.361 Y150.236 E2274.56514
G1 X160.938 Y149.295 E2274.66808
G1 X160.547 Y148.626 E2274.74540
G1 X160.152 Y148.066 E2274.81378
G1 X159.639 Y147.444 E2274.89423
G1 X159.120 Y146.925 E2274.96746
G1 X158.573 Y146.463 E2275.03890
G1 X158.000 Y146.053 E2275.10921
G1 X157.414 Y145.707 E2275.17711
G1 X157.223 Y145.606 E2275.19867
G1 X156.598 Y145.321 E2275.26721
G1 X155.951 Y145.087 E2275.33586
G1 X155.296 Y144.913 E2275.40348
G1 X154.641 Y144.796 E2275.46987
G1 X153.993 Y144.736 E2275.53481
G1 X153.351 Y144.728 E2275.59887
G1 X152.725 Y144.774 E2275.66150
G0 F12000 X152.793 Y145.371
;TYPE:WALL-OUTER
G1 F2700 X152.235 Y145.457 E2275.71784
G1 X151.694 Y145.584 E2275.77329
G1 X151.177 Y145.752 E2275.82753
G1 X150.688 Y145.956 E2275.88040
G1 X150.319 Y146.137 E2275.92141
G1 X149.859 Y146.411 E2275.97483
G1 X149.424 Y146.716 E2276.02784
G1 X148.738 Y147.333 E2276.11990
G1 X148.319 Y147.663 E2276.17312
G1 X147.951 Y148.007 E2276.22338
G1 X147.610 Y148.382 E2276.27396
G1 X147.156 Y148.999 E2276.35039
G1 X146.786 Y149.632 E2276.42355
G1 X146.532 Y150.217 E2276.48719
G1 X146.276 Y151.039 E2276.57310
G1 X146.174 Y151.522 E2276.62235
G1 X145.940 Y152.428 E2276.71572
G1 X145.868 Y152.937 E2276.76701
G1 X145.838 Y153.457 E2276.81899
G1 X145.848 Y153.990 E2276.87218
G1 X145.903 Y154.531 E2276.92644
G1 X146.002 Y155.078 E2276.98190
G1 X146.151 Y155.627 E2277.03867
G1 X146.348 Y156.171 E2277.09640
G1 X146.591 Y156.711 E2277.15548
G1 X146.886 Y157.233 E2277.21531
G1 X147.382 Y157.945 E2277.30189
G1 X147.778 Y158.407 E2277.36261
G1 X148.220 Y158.842 E2277.42449
G1 X148.707 Y159.248 E2277.48775
G1 X149.234 Y159.616 E2277.55189
G1 X149.801 Y159.948 E2277.61745
G1 X150.294 Y160.178 E2277.67173
G1 X151.041 Y160.471 E2277.75179
G1 X151.710 Y160.658 E2277.82110
G1 X152.331 Y160.772 E2277.88410
G1 X152.455 Y160.796 E2277.89671
G1 X153.113 Y160.860 E2277.96267
G1 X153.823 Y160.870 E2278.03352
G1 X153.848 Y160.872 E2278.03602
G1 X154.391 Y160.832 E2278.09035
G1 X154.617 Y160.784 E2278.11341
G1 X155.291 Y160.581 E2278.18364
G1 X155.955 Y160.320 E2278.25483
G1 X156.594 Y160.003 E2278.32601
G1 X157.206 Y159.636 E2278.39721
G1 X157.785 Y159.218 E2278.46846
G1 X158.327 Y158.754 E2278.53966
G1 X158.828 Y158.246 E2278.61085
G1 X159.285 Y157.697 E2278.68212
G1 X159.695 Y157.113 E2278.75332
G1 X160.055 Y156.497 E2278.82451
G1 X160.362 Y155.853 E2278.89570
G1 X160.614 Y155.185 E2278.96694
G1 X160.810 Y154.500 E2279.03803
G1 X160.918 Y153.982 E2279.09083
G1 X161.015 Y153.242 E2279.16530
G1 X161.028 Y153.078 E2279.18171
G1 X161.026 Y152.952 E2279.19429
G1 X161.047 Y152.378 E2279.25160
G1 X161.015 Y151.733 E2279.31604
G1 X160.916 Y150.986 E2279.39122
G1 X160.789 Y150.427 E2279.44842
G1 X160.404 Y149.570 E2279.54217
G1 X160.042 Y148.951 E2279.61372
G1 X159.675 Y148.430 E2279.67731
G1 X159.194 Y147.848 E2279.75264
G1 X158.713 Y147.367 E2279.82052
G1 X158.204 Y146.937 E2279.88700
G1 X157.672 Y146.556 E2279.95230
G1 X157.122 Y146.231 E2280.01604
G1 X156.371 Y145.877 E2280.09888
G1 X155.772 Y145.660 E2280.16245
G1 X155.166 Y145.499 E2280.22502
G1 X154.560 Y145.391 E2280.28644
G1 X153.961 Y145.335 E2280.34647
G1 X153.370 Y145.328 E2280.40544
G1 X152.793 Y145.371 E2280.46317
G1 F2100 E2280.06317
G1 Z3.200
G0 F12000 X154.151 Y119.159
G1 Z2.800
G1 F2100 E2280.46317
G1 F2700 X180.547 Y134.400 E2283.50449
G1 X182.200 Y137.261 E2283.83418
G1 X182.200 Y167.739 E2286.87529
G1 X180.547 Y170.600 E2287.20499
G1 X154.151 Y185.841 E2290.24630
G1 X150.849 Y185.841 E2290.57578
G1 X124.453 Y170.600 E2293.61710
G1 X122.800 Y167.739 E2293.94679
G1 X122.800 Y137.261 E2296.98790
G1 X124.453 Y134.400 E2297.31759
G1 X150.849 Y119.159 E2300.35891
G1 X154.151 Y119.159 E2300.68838
G1 F2100 E2300.28838
G1 Z3.200
G0 F12000 X152.590 Y120.068
;TYPE:FILL
G1 Z2.800
G1 F2100 E2300.68838
G1 F2700 X124.369 Y136.362 E2303.93994
G0 F12000 X125.098 Y135.101
G1 F2700 X145.957 Y147.144 E2306.34324
G1 F2100 E2305.94324
G1 Z3.200
G0 F12000 X151.133 Y144.913
G1 Z2.800
G1 F2100 E2306.34324
G1 F2700 X151.133 Y120.069 E2308.82219
G1 F2100 E2308.42219
G1 Z3.200
G0 F12000 X144.681 Y123.770
G1 Z2.800
G1 F2100 E2308.82219
G1 F2700 X181.290 Y144.907 E2313.04019
G1 F2100 E2312.64019
G1 Z3.200
G0 F12000 X181.288 Y148.773
G1 Z2.800
G1 F2100 E2313.04019
G1 F2700 X134.877 Y175.568 E2318.38748
G1 F2100 E2317.98748
G1 Z3.200
G0 F12000 X131.529 Y173.635
G1 Z2.800
G1 F2100 E2318.38748
G1 F2700 X131.529 Y131.364 E2322.60530
G1 F2100 E2322.20530
G1 Z3.200
G0 F12000 X134.879 Y129.430
G1 Z2.800
G1 F2100 E2322.60530
G1 F2700 X181.290 Y156.225 E2327.95259
G1 F2100 E2327.55259
G1 Z3.200
G0 F12000 X181.288 Y160.091
G1 Z2.800
G1 F2100 E2327.95259
G1 F2700 X144.678 Y181.228 E2332.17067
G1 F2100 E2331.77067
G1 Z3.200
G0 F12000 X151.133 Y184.931
G1 Z2.800
G1 F2100 E2332.17067
G1 F2700 X151.133 Y161.338 E2334.52479
G0 F12000 X150.728 Y161.217
G1 F2700 X172.852 Y173.990 E2337.07383
G1 F2100 E2336.67383
G1 Z3.200
G0 F12000 X170.737 Y175.214
G1 Z2.800
G1 F2100 E2337.07383
G1 F2700 X170.737 Y129.787 E2341.60655
G1 F2100 E2341.20655
G1 Z3.200
G0 F12000 X172.851 Y131.007
G1 Z2.800
G1 F2100 E2341.60655
G1 F2700 X123.709 Y159.379 E2347.26851
G1 F2100 E2346.86851
G1 Z3.200
G0 F12000 X123.709 Y156.936
G1 Z2.800
G1 F2100 E2347.26851
G1 F2700 X163.050 Y179.649 E2351.80122
G1 F2100 E2351.40122
G1 Z3.200
G0 F12000 X160.935 Y180.874
G1 Z2.800
G1 F2100 E2351.80122
G1 F2700 X160.935 Y156.534 E2354.22987
G0 F12000 X161.193 Y155.940
G1 F2700 X181.267 Y167.530 E2356.54274
G0 F12000 X180.539 Y168.795
G1 F2700 X180.539 Y136.206 E2359.79449
G0 F12000 X181.267 Y137.467
G1 F2700 X161.079 Y149.122 E2362.12045
G0 F12000 X160.935 Y148.873
G1 F2700 X160.935 Y124.127 E2364.58962
G1 F2100 E2364.18962
G1 Z3.200
G0 F12000 X163.050 Y125.348
G1 Z2.800
G1 F2100 E2364.58962
G1 F2700 X123.709 Y148.061 E2369.12232
G1 F2100 E2368.72232
G1 Z3.200
G0 F12000 X123.709 Y145.618
G1 Z2.800
G1 F2100 E2369.12232
G1 F2700 X147.723 Y159.482 E2371.88910
G1 F2100 E2371.48910
G1 Z3.200
G0 F12000 X145.960 Y157.852
G1 Z2.800
G1 F2100 E2371.88910
G1 F2700 X125.096 Y169.897 E2374.29294
G0 F12000 X124.369 Y168.635
G1 F2700 X152.592 Y184.930 E2377.54472
G1 F2100 E2377.14472
G1 Z3.200
G0 F12000 X141.331 Y179.294
G1 Z2.800
G1 F2100 E2377.54472
G1 F2700 X141.331 Y125.705 E2382.89185
G0 F12000 X141.000 Y125.780
;TYPE:SKIN
G1 F2700 X140.700 Y126.970 E2382.99328
G1 X140.400 Y126.126 E2383.08266
G0 F12000 X141.600 Y126.450
G1 F2700 X141.900 Y125.260 E2383.18389
G1 X142.500 Y125.930 E2383.28529
G1 X143.100 Y124.567 E2383.38659
G1 X143.700 Y125.238 E2383.48808
G1 X144.300 Y123.874 E2383.58943
G1 X144.900 Y124.545 E2383.69092
G1 X145.500 Y123.182 E2383.79222
G1 X146.100 Y123.852 E2383.89362
G1 X146.700 Y122.489 E2383.99492
G1 X147.300 Y123.159 E2384.09632
G1 X147.900 Y121.796 E2384.19762
G1 X148.500 Y122.466 E2384.29902
G1 X149.100 Y121.103 E2384.40032
G1 X149.700 Y121.773 E2384.50172
G1 X150.300 Y120.410 E2384.60302
G1 X150.900 Y121.080 E2384.70442
G1 X151.500 Y119.969 E2384.79787
G1 X152.100 Y120.849 E2384.88554
G1 X152.700 Y119.969 E2384.97322
G1 X153.300 Y120.849 E2385.06089
G1 X153.900 Y120.046 E2385.14858
G1 X154.500 Y121.310 E2385.24956
G1 X155.100 Y120.642 E2385.35080
G1 X155.700 Y122.003 E2385.45197
G1 X156.300 Y121.335 E2385.55321
G1 X156.900 Y122.696 E2385.65438
G1 X157.500 Y122.028 E2385.75562
G1 X158.100 Y123.389 E2385.85679
G1 X158.700 Y122.721 E2385.95803
G1 X159.300 Y124.082 E2386.05919
G1 X159.900 Y123.414 E2386.16043
G1 X160.500 Y124.775 E2386.26160
G1 X161.100 Y124.107 E2386.36284
G1 X161.700 Y125.468 E2386.46401
G1 X162.300 Y124.799 E2386.56533
G1 X162.900 Y126.160 E2386.66650
G1 X163.500 Y125.492 E2386.76774
G1 X164.100 Y126.853 E2386.86891
G1 X164.700 Y126.185 E2386.97015
G1 X165.300 Y127.546 E2387.07131
G1 X165.900 Y126.878 E2387.17255
G1 X166.500 Y128.239 E2387.27372
G1 X167.100 Y127.571 E2387.37496
G1 X167.700 Y128.932 E2387.47613
G1 X168.300 Y128.264 E2387.57737
G1 X168.900 Y129.625 E2387.67854
G1 X169.500 Y128.957 E2387.77978
G1 X170.100 Y130.318 E2387.88094
G1 X170.700 Y129.650 E2387.98218
G1 X171.300 Y131.011 E2388.08335
G1 X171.900 Y130.343 E2388.18459
G1 X172.500 Y131.704 E2388.28576
G1 X173.100 Y131.036 E2388.38700
G1 X173.700 Y132.396 E2388.48810
G1 X174.300 Y131.729 E2388.58926
G1 X174.900 Y133.089 E2388.69037
G1 X175.500 Y132.421 E2388.79161
G1 X176.100 Y133.782 E2388.89277
G1 X176.700 Y133.114 E2388.99401
G1 X177.300 Y134.475 E2389.09518
G1 X177.900 Y133.807 E2389.19642
G1 X178.500 Y135.168 E2389.29759
G1 X179.100 Y134.500 E2389.39883
G1 X179.400 Y135.791 E2389.53108
G0 F12000 X180.000 Y135.073
G1 F2700 X180.000 Y136.829 E2389.70629
G0 F12000 X180.600 Y136.112
G1 F2700 X180.600 Y168.891 E2392.97699
G0 F12000 X180.000 Y168.170
G1 F2700 X180.000 Y169.930 E2393.15261
G1 F2100 E2392.75261
G1 Z3.200
G0 F12000 X181.200 Y167.852
G1 Z2.800
G1 F2100 E2393.15261
G1 F2700 X181.200 Y137.151 E2396.21596
G1 F2100 E2395.81596
G1 Z3.200
G0 F12000 X153.000 Y144.278
G1 Z2.800
G1 F2100 E2396.21596
G1 F2700 X152.700 Y144.578 E2396.24249
G1 X152.100 Y144.159 E2396.28533
G1 X151.500 Y144.810 E2396.34452
G1 X150.900 Y144.146 E2396.42072
G1 X150.300 Y145.254 E2396.51564
G1 X150.000 Y144.239 E2396.62125
G0 F12000 X149.400 Y144.370
G1 F2700 X149.400 Y145.745 E2396.75845
G0 F12000 X148.800 Y146.188
G1 F2700 X148.800 Y144.537 E2396.92319
G0 F12000 X148.200 Y144.759
G1 F2700 X148.200 Y146.727 E2397.11955
G0 F12000 X147.600 Y147.227
G1 F2700 X147.600 Y145.031 E2397.33867
G0 F12000 X147.000 Y145.350
G1 F2700 X147.000 Y147.850 E2397.58812
G0 F12000 X146.400 Y148.688
G1 F2700 X146.400 Y145.738 E2397.88247
G0 F12000 X145.800 Y146.196
G1 F2700 X145.800 Y149.871 E2398.24917
G1 F2100 E2397.84917
G1 Z3.200
G0 F12000 X144.000 Y148.896
G1 Z2.800
