;-- START GCODE --
;Sliced for Type A Machines Series 1
;Sliced at: Fri 02-12-2016 16:42:52
;Basic settings:
; Layer height: 0.4
; Walls: 1.2
; Fill: 8
; Print Speed: 45
; Support: 0
; Retraction Speed: 35
; Retraction Distance: 0.4
;Print time: 1 hour 40 minutes
;Filament used: 12.269m 36.0g
;Settings based on: Type A Machines Everyday PLA
G21        ;metric values
G90        ;absolute positioning
G28     ;move to endstops
G1 Z15.0 F12000 ;move the platform down 15mm
G1 X150 Y5 F12000 ;center
M140 S50 ;Prep Heat Bed
M109 S215 ;Heat To temp
M190 S50 ;Heat Bed to temp
G1 X150 Y5 Z0.3 ;move the platform to purge extrusion
G92 E0 ;zero the extruded length
G1 F200 X250 E30 ;extrude 30mm of feed stock
G92 E0 ;zero the extruded length again
G1 X150 Y150  Z25 F12000 ;recenter and begin
G1 F12000

;Layer count: 200
;LAYER:0
M107
G0 F12000 X124.681 Y138.951 Z0.400
;TYPE:SKIRT
G1 F1800 X125.890 Y137.957 E0.15617
G1 X127.178 Y137.071 E0.31216
G1 X128.540 Y136.298 E0.46842
G1 X129.962 Y135.647 E0.62447
G1 X131.433 Y135.118 E0.78045
G1 X132.946 Y134.718 E0.93661
G1 X134.488 Y134.449 E1.09279
G1 X136.047 Y134.315 E1.24892
G1 X137.612 Y134.313 E1.40508
G1 X139.172 Y134.447 E1.56131
G1 X140.713 Y134.715 E1.71738
G1 X142.225 Y135.113 E1.87339
G1 X143.699 Y135.641 E2.02961
G1 X145.121 Y136.292 E2.18566
G1 X146.482 Y137.063 E2.34174
G1 X147.773 Y137.949 E2.49798
G1 X148.982 Y138.942 E2.65409
G1 X150.101 Y140.035 E2.81016
G1 X151.123 Y141.220 E2.96630
G1 X152.039 Y142.489 E3.12247
G1 X152.500 Y143.260 E3.21210
G1 X152.955 Y142.499 E3.30057
G1 X153.869 Y141.232 E3.45645
G1 X154.889 Y140.045 E3.61262
G1 X156.008 Y138.951 E3.76876
G1 X157.217 Y137.957 E3.92494
G1 X158.507 Y137.071 E4.08109
G1 X159.868 Y136.298 E4.23727
G1 X161.289 Y135.647 E4.39322
G1 X162.761 Y135.118 E4.54930
G1 X164.274 Y134.718 E4.70545
G1 X165.816 Y134.449 E4.86164
G1 X167.373 Y134.315 E5.01757
G1 X168.938 Y134.313 E5.17373
G1 X170.500 Y134.447 E5.33016
G1 X172.041 Y134.715 E5.48623
G1 X173.553 Y135.113 E5.64223
G1 X175.026 Y135.641 E5.79837
G1 X176.448 Y136.291 E5.95437
G1 X177.811 Y137.063 E6.11067
G1 X179.100 Y137.949 E6.26674
G1 X180.310 Y138.942 E6.42293
G1 X181.430 Y140.036 E6.57915
G1 X182.449 Y141.220 E6.73502
G1 X183.367 Y142.489 E6.89130
G1 X184.170 Y143.833 E7.04752
G1 X186.301 Y148.206 E7.53291
G1 X180.335 Y150.805 E8.18223
G1 X180.402 Y151.237 E8.22585
G1 X180.469 Y152.497 E8.35175
G1 X180.404 Y153.747 E8.47665
G1 X180.336 Y154.189 E8.52127
G1 X183.134 Y155.410 E8.82588
G1 X186.310 Y156.772 E9.17069
G1 X184.176 Y161.157 E9.65729
G1 X183.373 Y162.501 E9.81351
G1 X182.458 Y163.768 E9.96945
G1 X181.439 Y164.955 E10.12555
G1 X180.319 Y166.049 E10.28177
G1 X179.110 Y167.043 E10.43794
G1 X177.822 Y167.929 E10.59393
G1 X176.460 Y168.702 E10.75019
G1 X175.038 Y169.353 E10.90624
G1 X173.567 Y169.882 E11.06222
G1 X172.054 Y170.282 E11.21838
G1 X170.512 Y170.551 E11.37456
G1 X168.953 Y170.685 E11.53069
G1 X167.388 Y170.687 E11.68685
G1 X165.828 Y170.553 E11.84308
G1 X164.287 Y170.285 E11.99915
G1 X162.775 Y169.887 E12.15516
G1 X161.301 Y169.359 E12.31138
G1 X159.879 Y168.708 E12.46743
G1 X158.518 Y167.937 E12.62351
G1 X157.227 Y167.051 E12.77974
G1 X156.018 Y166.058 E12.93585
G1 X154.899 Y164.965 E13.09193
G1 X153.877 Y163.780 E13.24807
G1 X152.961 Y162.511 E13.40424
G1 X152.500 Y161.741 E13.49378
G1 X152.045 Y162.501 E13.58217
G1 X151.131 Y163.768 E13.73805
G1 X150.111 Y164.955 E13.89421
G1 X148.992 Y166.049 E14.05036
G1 X147.783 Y167.043 E14.20653
G1 X146.493 Y167.929 E14.36269
G1 X145.132 Y168.702 E14.51886
G1 X143.711 Y169.353 E14.67482
G1 X142.239 Y169.882 E14.83089
G1 X140.726 Y170.282 E14.98705
G1 X139.184 Y170.551 E15.14323
G1 X137.627 Y170.685 E15.29917
G1 X136.062 Y170.687 E15.45532
G1 X134.500 Y170.553 E15.61175
G1 X132.959 Y170.285 E15.76782
G1 X131.447 Y169.887 E15.92383
G1 X129.974 Y169.359 E16.07996
G1 X128.552 Y168.709 E16.23597
G1 X127.189 Y167.937 E16.39227
G1 X125.900 Y167.051 E16.54834
G1 X124.690 Y166.058 E16.70453
G1 X123.570 Y164.964 E16.86075
G1 X122.551 Y163.780 E17.01662
G1 X121.633 Y162.511 E17.17290
G1 X120.830 Y161.167 E17.32911
G1 X118.699 Y156.794 E17.81451
G1 X124.665 Y154.195 E18.46383
G1 X124.598 Y153.763 E18.50745
G1 X124.531 Y152.503 E18.63335
G1 X124.596 Y151.253 E18.75824
G1 X124.664 Y150.811 E18.80287
G1 X121.866 Y149.590 E19.10748
G1 X118.690 Y148.228 E19.45229
G1 X120.824 Y143.843 E19.93889
G1 X121.627 Y142.499 E20.09511
G1 X122.542 Y141.232 E20.25105
G1 X123.561 Y140.045 E20.40715
G1 X124.681 Y138.951 E20.56337
G1 F2100 E20.16337
G1 Z0.800
G0 F12000 X127.488 Y142.080
;TYPE:WALL-INNER
G1 Z0.400
G1 F2100 E20.56337
G1 F1800 X128.415 Y141.318 E20.68310
G1 X129.415 Y140.631 E20.80416
G1 X130.454 Y140.040 E20.92343
G1 X131.549 Y139.539 E21.04358
G1 X132.682 Y139.132 E21.16371
G1 X133.838 Y138.827 E21.28300
G1 X135.032 Y138.618 E21.40395
G1 X136.234 Y138.515 E21.52432
G1 X137.431 Y138.513 E21.64376
G1 X138.631 Y138.617 E21.76395
G1 X139.824 Y138.824 E21.88476
G1 X140.981 Y139.128 E22.00413
G1 X142.111 Y139.533 E22.12390
G1 X143.205 Y140.034 E22.24396
G1 X144.258 Y140.630 E22.36470
G1 X145.242 Y141.306 E22.48382
G1 X146.177 Y142.073 E22.60449
G1 X147.035 Y142.912 E22.72423
G1 X147.824 Y143.827 E22.84478
G1 X148.532 Y144.808 E22.96549
G1 X149.145 Y145.832 E23.08458
G1 X149.279 Y146.106 E23.11501
G1 X144.819 Y148.049 E23.60043
G1 X144.704 Y147.827 E23.62538
G1 X144.105 Y146.941 E23.73209
G1 X143.406 Y146.129 E23.83900
G1 X142.616 Y145.405 E23.94592
G1 X141.749 Y144.779 E24.05262
G1 X140.812 Y144.258 E24.15960
G1 X138.989 Y143.508 E24.35629
G1 X136.949 Y149.410 E24.97938
G1 X136.915 Y149.480 E24.98715
G1 X136.904 Y149.493 E24.98884
G1 X136.857 Y149.519 E24.99420
G1 X136.836 Y149.522 E24.99632
G1 X136.812 Y149.519 E24.99873
G1 X136.773 Y149.497 E25.00320
G1 X136.757 Y149.479 E25.00560
G1 X135.001 Y144.405 E25.54135
G1 X134.659 Y143.518 E25.63621
G1 X132.871 Y144.253 E25.82910
G1 X131.935 Y144.772 E25.93589
G1 X131.065 Y145.397 E26.04278
G1 X130.274 Y146.121 E26.14978
G1 X129.575 Y146.931 E26.25653
G1 X128.973 Y147.817 E26.36341
G1 X128.850 Y148.055 E26.39014
G1 X124.391 Y146.109 E26.87559
G1 X124.522 Y145.841 E26.90536
G1 X125.134 Y144.817 E27.02439
G1 X125.847 Y143.830 E27.14588
G1 X126.625 Y142.924 E27.26504
G1 X127.488 Y142.080 E27.38548
G1 F2100 E26.98548
G1 Z0.800
G0 F12000 X128.878 Y157.020
G1 Z0.400
G1 F2100 E27.38548
G1 F1800 X129.461 Y157.917 E27.49223
G1 X130.145 Y158.741 E27.59909
G1 X130.919 Y159.481 E27.70593
G1 X131.776 Y160.124 E27.81284
G1 X132.699 Y160.662 E27.91944
G1 X133.683 Y161.090 E28.02651
G1 X134.707 Y161.399 E28.13323
G1 X135.762 Y161.587 E28.24016
G1 X136.830 Y161.651 E28.34692
G1 X137.900 Y161.589 E28.45386
G1 X138.955 Y161.402 E28.56077
G1 X139.979 Y161.095 E28.66744
G1 X140.962 Y160.669 E28.77434
G1 X141.888 Y160.131 E28.88120
G1 X142.744 Y159.488 E28.98802
G1 X143.521 Y158.750 E29.09495
G1 X144.204 Y157.927 E29.20166
G1 X144.788 Y157.029 E29.30855
G1 X144.828 Y156.948 E29.31756
G1 X149.282 Y158.891 E29.80243
G1 X149.151 Y159.159 E29.83219
G1 X148.534 Y160.189 E29.95200
G1 X147.830 Y161.166 E30.07215
G1 X147.048 Y162.075 E30.19180
G1 X146.184 Y162.920 E30.31239
G1 X145.252 Y163.686 E30.43276
G1 X144.263 Y164.366 E30.55252
G1 X143.218 Y164.960 E30.67246
G1 X142.124 Y165.461 E30.79252
G1 X140.990 Y165.868 E30.91274
G1 X139.834 Y166.173 E31.03203
G1 X138.640 Y166.382 E31.15298
G1 X137.439 Y166.485 E31.27326
G1 X136.242 Y166.487 E31.39269
G1 X135.041 Y166.383 E31.51298
G1 X133.848 Y166.176 E31.63379
G1 X132.695 Y165.873 E31.75275
G1 X131.553 Y165.464 E31.87378
G1 X130.471 Y164.969 E31.99251
G1 X129.420 Y164.373 E32.11307
G1 X128.425 Y163.690 E32.23349
G1 X127.495 Y162.926 E32.35358
G1 X126.632 Y162.083 E32.47396
G1 X125.848 Y161.172 E32.59388
G1 X125.145 Y160.200 E32.71358
G1 X124.528 Y159.168 E32.83355
G1 X124.394 Y158.894 E32.86398
G1 X128.846 Y156.955 E33.34851
G1 X128.878 Y157.020 E33.35574
G0 F12000 X129.401 Y156.723
;TYPE:WALL-OUTER
G1 F1800 X129.945 Y157.561 E33.45543
G1 X130.584 Y158.331 E33.55527
G1 X131.308 Y159.022 E33.65513
G1 X132.108 Y159.623 E33.75497
G1 X132.971 Y160.126 E33.85464
G1 X133.890 Y160.526 E33.95465
G1 X134.847 Y160.814 E34.05437
G1 X135.833 Y160.990 E34.15431
G1 X136.831 Y161.050 E34.25407
G1 X137.830 Y160.992 E34.35392
G1 X138.816 Y160.817 E34.45384
G1 X139.773 Y160.530 E34.55353
G1 X140.691 Y160.132 E34.65337
G1 X141.556 Y159.630 E34.75316
G1 X142.356 Y159.029 E34.85300
G1 X143.082 Y158.339 E34.95294
G1 X143.720 Y157.570 E35.05264
G1 X144.266 Y156.732 E35.15244
G1 X144.709 Y155.834 E35.25235
G1 X145.045 Y154.892 E35.35214
G1 X145.267 Y153.917 E35.45192
G1 X145.374 Y152.938 E35.55019
G1 X145.377 Y152.911 E35.55290
G1 X145.368 Y151.923 E35.65149
G1 X145.241 Y150.930 E35.75137
G1 X145.001 Y149.960 E35.85108
G1 X144.648 Y149.023 E35.95099
G1 X144.187 Y148.134 E36.05091
G1 X143.628 Y147.306 E36.15059
G1 X142.975 Y146.548 E36.25042
G1 X142.237 Y145.871 E36.35035
G1 X141.426 Y145.286 E36.45013
G1 X140.551 Y144.799 E36.55005
G1 X139.348 Y144.305 E36.67981
G1 X137.505 Y149.639 E37.24291
G1 X137.420 Y149.812 E37.26215
G1 X137.313 Y149.939 E37.27872
G1 X137.164 Y150.044 E37.29691
G1 X137.001 Y150.105 E37.31427
G1 X136.836 Y150.126 E37.33087
G1 X136.664 Y150.104 E37.34817
G1 X136.503 Y150.042 E37.36538
G1 X136.364 Y149.943 E37.38241
G1 X136.252 Y149.810 E37.39976
G1 X136.170 Y149.644 E37.41824
G1 X134.437 Y144.610 E37.94946
G1 X134.320 Y144.306 E37.98196
G1 X133.132 Y144.794 E38.11011
G1 X132.256 Y145.280 E38.21007
G1 X131.444 Y145.864 E38.30987
G1 X130.705 Y146.540 E38.40981
G1 X130.052 Y147.297 E38.50956
G1 X129.490 Y148.124 E38.60933
G1 X129.030 Y149.013 E38.70921
G1 X128.676 Y149.949 E38.80906
G1 X128.434 Y150.919 E38.90881
G1 X128.307 Y151.912 E39.00870
G1 X128.295 Y152.910 E39.10829
G1 X128.402 Y153.905 E39.20814
G1 X128.623 Y154.882 E39.30809
G1 X128.958 Y155.825 E39.40794
G1 X129.401 Y156.723 E39.50786
G0 F12000 X128.965 Y156.251
G1 F1800 X128.546 Y155.135 E39.62680
G1 X128.319 Y154.271 E39.71594
G1 X128.184 Y153.396 E39.80428
G1 X128.137 Y152.499 E39.89390
G1 X128.182 Y151.621 E39.98163
G1 X128.319 Y150.731 E40.07148
G1 X128.543 Y149.875 E40.15977
G1 X128.961 Y148.758 E40.27877
G1 X123.579 Y146.409 E40.86471
G1 X123.996 Y145.552 E40.95981
G1 X124.635 Y144.482 E41.08416
G1 X125.372 Y143.462 E41.20972
G1 X126.188 Y142.512 E41.33468
G1 X127.087 Y141.634 E41.46007
G1 X128.063 Y140.831 E41.58618
G1 X129.091 Y140.125 E41.71061
G1 X130.181 Y139.506 E41.83569
G1 X131.330 Y138.980 E41.96178
G1 X132.498 Y138.560 E42.08563
G1 X133.711 Y138.240 E42.21080
G1 X134.957 Y138.023 E42.33700
G1 X136.206 Y137.915 E42.46209
G1 X137.458 Y137.913 E42.58702
G1 X138.706 Y138.021 E42.71201
G1 X139.952 Y138.237 E42.83819
G1 X141.161 Y138.555 E42.96292
G1 X142.333 Y138.975 E43.08715
G1 X143.484 Y139.502 E43.21346
G1 X144.572 Y140.118 E43.33822
G1 X145.607 Y140.829 E43.46351
G1 X146.572 Y141.621 E43.58807
G1 X147.480 Y142.508 E43.71473
G1 X148.293 Y143.452 E43.83904
G1 X149.028 Y144.469 E43.96424
G1 X149.671 Y145.543 E44.08915
G1 X150.092 Y146.406 E44.18496
G1 X144.986 Y148.630 E44.74067
G1 X144.708 Y148.749 E44.77084
G1 X145.127 Y149.865 E44.88978
G1 X145.354 Y150.729 E44.97892
G1 X145.488 Y151.600 E45.06685
G1 X145.535 Y152.500 E45.15678
G1 X145.491 Y153.376 E45.24429
G1 X145.354 Y154.269 E45.33444
G1 X145.131 Y155.123 E45.42251
G1 X144.712 Y156.242 E45.54174
G1 X150.094 Y158.591 E46.12767
G1 X149.677 Y159.448 E46.22277
G1 X149.037 Y160.518 E46.34718
G1 X148.305 Y161.534 E46.47213
G1 X147.488 Y162.484 E46.59715
G1 X146.585 Y163.366 E46.72310
G1 X145.610 Y164.168 E46.84907
G1 X144.584 Y164.873 E46.97328
G1 X143.492 Y165.493 E47.09858
G1 X142.343 Y166.020 E47.22471
G1 X141.174 Y166.440 E47.34866
G1 X139.961 Y166.760 E47.47383
G1 X138.715 Y166.977 E47.60003
G1 X137.467 Y167.085 E47.72502
G1 X136.215 Y167.087 E47.84994
G1 X134.966 Y166.979 E47.97503
G1 X133.720 Y166.763 E48.10122
G1 X132.511 Y166.445 E48.22595
G1 X131.340 Y166.025 E48.35008
G1 X130.188 Y165.498 E48.47649
G1 X129.097 Y164.880 E48.60160
G1 X128.066 Y164.171 E48.72645
G1 X127.100 Y163.379 E48.85109
G1 X126.192 Y162.492 E48.97775
G1 X125.380 Y161.548 E49.10199
G1 X124.640 Y160.525 E49.22798
G1 X124.002 Y159.457 E49.35211
G1 X123.581 Y158.594 E49.44792
G1 X128.687 Y156.370 E50.00363
G1 X128.965 Y156.251 E50.03380
G0 F12000 X128.400 Y157.378
;TYPE:SKIN
G1 F1800 X128.400 Y163.397 E50.63438
G0 F12000 X129.000 Y163.829
G1 F1800 X129.000 Y157.593 E51.25661
G0 F12000 X129.600 Y158.414
G1 F1800 X129.600 Y164.233 E51.83723
G0 F12000 X130.200 Y164.573
G1 F1800 X130.200 Y159.085 E52.38483
G0 F12000 X130.800 Y159.654
G1 F1800 X130.800 Y164.887 E52.90698
G0 F12000 X131.400 Y165.162
G1 F1800 X131.400 Y160.104 E53.41167
G0 F12000 X132.000 Y160.498
G1 F1800 X132.000 Y165.401 E53.90089
G0 F12000 X132.600 Y165.616
G1 F1800 X132.600 Y160.848 E54.37664
G0 F12000 X133.200 Y161.109
G1 F1800 X133.200 Y165.789 E54.84362
G0 F12000 X133.800 Y165.946
G1 F1800 X133.800 Y161.345 E55.30271
G0 F12000 X134.400 Y161.526
G1 F1800 X134.400 Y166.057 E55.75481
G0 F12000 X135.000 Y166.161
G1 F1800 X135.000 Y161.664 E56.20352
G0 F12000 X135.600 Y161.771
G1 F1800 X135.600 Y166.220 E56.64745
G0 F12000 X136.200 Y166.272
G1 F1800 X136.200 Y161.824 E57.09127
G0 F12000 X136.800 Y161.861
G1 F1800 X136.800 Y166.277 E57.53190
G0 F12000 X137.400 Y166.276
G1 F1800 X137.400 Y161.828 E57.97572
G0 F12000 X138.000 Y161.783
G1 F1800 X138.000 Y166.226 E58.41905
G0 F12000 X138.600 Y166.174
G1 F1800 X138.600 Y161.677 E58.86776
G0 F12000 X139.200 Y161.547
G1 F1800 X139.200 Y166.070 E59.31907
G0 F12000 X139.800 Y165.965
G1 F1800 X139.800 Y161.367 E59.77786
G1 F2100 E59.37786
G1 Z0.800
G0 F12000 X127.800 Y162.904
G1 Z0.400
G1 F2100 E59.77786
G1 F1800 X127.800 Y157.639 E60.30320
G0 F12000 X127.200 Y157.900
G1 F1800 X127.200 Y162.343 E60.74653
G0 F12000 X126.600 Y161.724
G1 F1800 X126.600 Y158.162 E61.10194
G0 F12000 X126.000 Y158.423
G1 F1800 X126.000 Y161.023 E61.36137
G0 F12000 X125.400 Y160.194
G1 F1800 X125.400 Y158.684 E61.51204
G0 F12000 X124.800 Y158.945
G1 F1800 X124.800 Y159.213 E61.53878
G1 F2100 E61.13878
G1 Z0.800
G0 F12000 X128.400 Y147.629
G1 Z0.400
G1 F2100 E61.53878
G1 F1800 X128.400 Y141.602 E62.14016
G0 F12000 X129.000 Y141.170
G1 F1800 X129.000 Y147.404 E62.76219
G0 F12000 X129.600 Y146.582
G1 F1800 X129.600 Y140.767 E63.34241
G0 F12000 X130.200 Y140.426
G1 F1800 X130.200 Y145.905 E63.88911
G0 F12000 X130.800 Y145.356
G1 F1800 X130.800 Y140.113 E64.41226
G0 F12000 X131.400 Y139.839
G1 F1800 X131.400 Y144.899 E64.91715
G0 F12000 X132.000 Y144.496
G1 F1800 X132.000 Y139.599 E65.40577
G0 F12000 X132.600 Y139.384
G1 F1800 X132.600 Y144.164 E65.88272
G0 F12000 X133.200 Y143.891
G1 F1800 X133.200 Y139.212 E66.34959
G0 F12000 X133.800 Y139.054
G1 F1800 X133.800 Y143.644 E66.80759
G0 F12000 X134.400 Y143.398
G1 F1800 X134.400 Y138.942 E67.25221
G0 F12000 X135.000 Y138.838
G1 F1800 X135.000 Y143.817 E67.74901
G1 F2100 E67.34901
G1 Z0.800
G0 F12000 X135.600 Y145.492
G1 Z0.400
G1 F2100 E67.74901
G1 F1800 X135.600 Y138.780 E68.41874
G0 F12000 X136.200 Y138.728
G1 F1800 X136.200 Y147.225 E69.26657
G0 F12000 X137.400 Y147.462
G1 F1800 X137.400 Y138.723 E70.13856
G0 F12000 X136.800 Y138.724
G1 F1800 X136.800 Y148.893 E71.15322
G1 F2100 E70.75322
G1 Z0.800
G0 F12000 X138.000 Y145.726
G1 Z0.400
G1 F2100 E71.15322
G1 F1800 X138.000 Y138.774 E71.84690
G0 F12000 X138.600 Y138.826
G1 F1800 X138.600 Y143.990 E72.36216
G0 F12000 X139.200 Y143.367
G1 F1800 X139.200 Y138.930 E72.80489
G0 F12000 X139.800 Y139.035
G1 F1800 X139.800 Y143.614 E73.26178
G1 F2100 E72.86178
G1 Z0.800
G0 F12000 X127.800 Y142.096
G1 Z0.400
G1 F2100 E73.26178
G1 F1800 X127.800 Y147.368 E73.78782
G0 F12000 X127.200 Y147.106
G1 F1800 X127.200 Y142.654 E74.23205
G0 F12000 X126.600 Y143.275
G1 F1800 X126.600 Y146.844 E74.58816
G0 F12000 X126.000 Y146.582
G1 F1800 X126.000 Y143.976 E74.84819
G0 F12000 X125.400 Y144.807
G1 F1800 X125.400 Y146.320 E74.99916
G0 F12000 X124.800 Y146.058
G1 F1800 X124.800 Y145.786 E75.02630
G1 F2100 E74.62630
G1 Z0.800
G0 F12000 X140.400 Y143.861
G1 Z0.400
G1 F2100 E75.02630
G1 F1800 X140.400 Y139.193 E75.49207
G0 F12000 X141.000 Y139.358
G1 F1800 X141.000 Y144.122 E75.96743
G0 F12000 X141.600 Y144.455
G1 F1800 X141.600 Y139.573 E76.45456
G0 F12000 X142.200 Y139.806
G1 F1800 X142.200 Y144.845 E76.95735
G0 F12000 X142.800 Y145.288
G1 F1800 X142.800 Y140.081 E77.47691
G0 F12000 X143.400 Y140.387
G1 F1800 X143.400 Y145.838 E78.02081
G0 F12000 X144.000 Y146.497
G1 F1800 X144.000 Y140.726 E78.59664
G0 F12000 X144.600 Y141.121
G1 F1800 X144.600 Y147.298 E79.21298
G0 F12000 X145.200 Y147.654
G1 F1800 X145.200 Y141.544 E79.82264
G0 F12000 X145.800 Y142.036
G1 F1800 X145.800 Y147.393 E80.35717
G0 F12000 X146.400 Y147.132
G1 F1800 X146.400 Y142.585 E80.81087
G0 F12000 X147.000 Y143.193
G1 F1800 X147.000 Y146.871 E81.17786
G0 F12000 X147.600 Y146.609
G1 F1800 X147.600 Y143.889 E81.44926
G0 F12000 X148.200 Y144.707
G1 F1800 X148.200 Y146.348 E81.61300
G0 F12000 X148.800 Y146.087
G1 F1800 X148.800 Y145.665 E81.65511
G1 F2100 E81.25511
G1 Z0.800
G0 F12000 X145.200 Y157.340
G1 Z0.400
G1 F2100 E81.65511
G1 F1800 X145.200 Y163.457 E82.26547
G0 F12000 X144.600 Y163.880
G1 F1800 X144.600 Y157.703 E82.88181
G0 F12000 X144.000 Y158.500
G1 F1800 X144.000 Y164.274 E83.45794
G0 F12000 X143.400 Y164.615
G1 F1800 X143.400 Y159.153 E84.00294
G0 F12000 X142.800 Y159.708
G1 F1800 X142.800 Y164.920 E84.52300
G0 F12000 X142.200 Y165.195
G1 F1800 X142.200 Y160.160 E85.02539
G0 F12000 X141.600 Y160.541
G1 F1800 X141.600 Y165.427 E85.51292
G0 F12000 X141.000 Y165.643
G1 F1800 X141.000 Y160.880 E85.98817
G0 F12000 X140.400 Y161.140
G1 F1800 X140.400 Y165.807 E86.45385
G1 F2100 E86.05385
G1 Z0.800
G0 F12000 X145.800 Y162.964
G1 Z0.400
G1 F2100 E86.45385
G1 F1800 X145.800 Y157.602 E86.98887
G0 F12000 X146.400 Y157.863
G1 F1800 X146.400 Y162.415 E87.44307
G0 F12000 X147.000 Y161.809
G1 F1800 X147.000 Y158.125 E87.81066
G0 F12000 X147.600 Y158.387
G1 F1800 X147.600 Y161.113 E88.08266
G0 F12000 X148.200 Y160.295
G1 F1800 X148.200 Y158.648 E88.24700
G0 F12000 X148.800 Y158.910
G1 F1800 X148.800 Y159.338 E88.28971
G1 F2100 E87.88971
G1 Z0.800
G0 F12000 X155.855 Y159.168
;TYPE:WALL-INNER
G1 Z0.400
G1 F2100 E88.28971
G1 F1800 X155.722 Y158.894 E88.32010
G1 X160.173 Y156.955 E88.80453
G1 X160.205 Y157.020 E88.81176
G1 X160.789 Y157.917 E88.91856
G1 X161.471 Y158.741 E89.02529
G1 X162.246 Y159.481 E89.13221
G1 X163.103 Y160.124 E89.23912
G1 X164.028 Y160.662 E89.34589
G1 X165.009 Y161.090 E89.45268
G1 X166.034 Y161.399 E89.55951
G1 X167.089 Y161.587 E89.66643
G1 X168.158 Y161.651 E89.77329
G1 X169.227 Y161.589 E89.88013
G1 X170.282 Y161.402 E89.98704
G1 X171.306 Y161.095 E90.09371
G1 X172.290 Y160.669 E90.20070
G1 X173.215 Y160.131 E90.30747
G1 X174.071 Y159.488 E90.41430
G1 X174.847 Y158.750 E90.52115
G1 X175.532 Y157.927 E90.62799
G1 X176.115 Y157.029 E90.73482
G1 X176.155 Y156.948 E90.74384
G1 X180.609 Y158.891 E91.22871
G1 X180.478 Y159.159 E91.25847
G1 X179.866 Y160.183 E91.37751
G1 X179.153 Y161.170 E91.49900
G1 X178.375 Y162.076 E91.61816
G1 X177.512 Y162.920 E91.73860
G1 X176.585 Y163.682 E91.85834
G1 X175.585 Y164.369 E91.97939
G1 X174.546 Y164.960 E92.09866
G1 X173.451 Y165.461 E92.21882
G1 X172.318 Y165.868 E92.33894
G1 X171.162 Y166.173 E92.45823
G1 X169.968 Y166.382 E92.57918
G1 X168.766 Y166.485 E92.69956
G1 X167.569 Y166.487 E92.81900
G1 X166.369 Y166.383 E92.93918
G1 X165.176 Y166.176 E93.06000
G1 X164.019 Y165.872 E93.17936
G1 X162.889 Y165.467 E93.29914
G1 X161.795 Y164.966 E93.41920
G1 X160.742 Y164.370 E93.53993
G1 X159.758 Y163.694 E93.65905
G1 X158.823 Y162.927 E93.77972
G1 X157.965 Y162.088 E93.89946
G1 X157.176 Y161.173 E94.02002
G1 X156.468 Y160.192 E94.14073
G1 X155.855 Y159.168 E94.25981
G1 F2100 E93.85981
G1 Z0.800
G0 F12000 X160.302 Y147.816
G1 Z0.400
G1 F2100 E94.25981
G1 F1800 X160.178 Y148.055 E94.28668
G1 X155.719 Y146.109 E94.77213
G1 X155.852 Y145.836 E94.80243
G1 X156.466 Y144.811 E94.92165
G1 X157.170 Y143.834 E95.04180
G1 X157.952 Y142.925 E95.16145
G1 X158.816 Y142.080 E95.28204
G1 X159.748 Y141.314 E95.40241
G1 X160.737 Y140.634 E95.52217
G1 X161.782 Y140.040 E95.64211
G1 X162.876 Y139.539 E95.76217
G1 X164.010 Y139.132 E95.88239
G1 X165.166 Y138.827 E96.00168
G1 X166.360 Y138.618 E96.12263
G1 X167.561 Y138.515 E96.24291
G1 X168.758 Y138.513 E96.36234
G1 X169.959 Y138.617 E96.48263
G1 X171.152 Y138.824 E96.60344
G1 X172.305 Y139.127 E96.72240
G1 X173.447 Y139.536 E96.84343
G1 X174.529 Y140.031 E96.96216
G1 X175.580 Y140.627 E97.08272
G1 X176.575 Y141.310 E97.20314
G1 X177.505 Y142.074 E97.32323
G1 X178.368 Y142.917 E97.44361
G1 X179.152 Y143.828 E97.56353
G1 X179.855 Y144.800 E97.68323
G1 X180.472 Y145.832 E97.80320
G1 X180.606 Y146.106 E97.83364
G1 X176.146 Y148.049 E98.31905
G1 X176.032 Y147.828 E98.34387
G1 X175.433 Y146.941 E98.45066
G1 X174.734 Y146.129 E98.55757
G1 X173.944 Y145.405 E98.66449
G1 X173.076 Y144.779 E98.77127
G1 X172.140 Y144.258 E98.87816
G1 X170.317 Y143.508 E99.07485
G1 X168.276 Y149.410 E99.69798
G1 X168.232 Y149.493 E99.70735
G1 X168.206 Y149.511 E99.71051
G1 X168.164 Y149.522 E99.71484
G1 X168.138 Y149.519 E99.71745
G1 X168.120 Y149.512 E99.71938
G1 X168.085 Y149.480 E99.72411
G1 X168.057 Y149.422 E99.73054
G1 X166.329 Y144.405 E100.25999
G1 X165.988 Y143.518 E100.35482
G1 X164.198 Y144.252 E100.54786
G1 X163.261 Y144.773 E100.65483
G1 X162.392 Y145.397 E100.76158
G1 X161.602 Y146.121 E100.86850
G1 X160.903 Y146.931 E100.97526
G1 X160.302 Y147.816 E101.08200
G0 F12000 X160.818 Y148.124
;TYPE:WALL-OUTER
G1 F1800 X160.357 Y149.013 E101.18192
G1 X160.003 Y149.949 E101.28177
G1 X159.761 Y150.919 E101.38153
G1 X159.634 Y151.912 E101.48141
G1 X159.622 Y152.910 E101.58100
G1 X159.730 Y153.906 E101.68097
G1 X159.951 Y154.882 E101.78082
G1 X160.286 Y155.825 E101.88067
G1 X160.728 Y156.723 E101.98054
G1 X161.273 Y157.561 E102.08028
G1 X161.911 Y158.331 E102.18006
G1 X162.635 Y159.022 E102.27992
G1 X163.435 Y159.623 E102.37977
G1 X164.299 Y160.126 E102.47952
G1 X165.216 Y160.526 E102.57935
G1 X166.174 Y160.814 E102.67916
G1 X167.160 Y160.990 E102.77910
G1 X168.159 Y161.050 E102.87896
G1 X169.157 Y160.992 E102.97871
G1 X170.143 Y160.817 E103.07863
G1 X171.100 Y160.530 E103.17832
G1 X172.019 Y160.132 E103.27825
G1 X172.883 Y159.630 E103.37796
G1 X173.683 Y159.029 E103.47780
G1 X174.408 Y158.339 E103.57766
G1 X175.048 Y157.570 E103.67749
G1 X175.593 Y156.732 E103.77723
G1 X176.037 Y155.834 E103.87719
G1 X176.373 Y154.892 E103.97698
G1 X176.595 Y153.917 E104.07676
G1 X176.701 Y152.938 E104.17502
G1 X176.704 Y152.911 E104.17773
G1 X176.695 Y151.923 E104.27631
G1 X176.568 Y150.930 E104.37620
G1 X176.328 Y149.960 E104.47591
G1 X175.976 Y149.023 E104.57578
G1 X175.515 Y148.135 E104.67562
G1 X174.956 Y147.306 E104.77538
G1 X174.303 Y146.548 E104.87521
G1 X173.565 Y145.871 E104.97514
G1 X172.753 Y145.286 E105.07500
G1 X171.879 Y144.799 E105.17483
G1 X170.676 Y144.305 E105.30459
G1 X168.832 Y149.639 E105.86773
G1 X168.749 Y149.810 E105.88670
G1 X168.638 Y149.940 E105.90375
G1 X168.491 Y150.044 E105.92172
G1 X168.327 Y150.105 E105.93918
G1 X168.164 Y150.126 E105.95558
G1 X167.991 Y150.104 E105.97298
G1 X167.833 Y150.043 E105.98988
G1 X167.688 Y149.939 E106.00768
G1 X167.581 Y149.813 E106.02418
G1 X167.500 Y149.647 E106.04261
G1 X165.765 Y144.610 E106.57418
G1 X165.648 Y144.306 E106.60668
G1 X164.459 Y144.794 E106.73493
G1 X163.583 Y145.280 E106.83488
G1 X162.771 Y145.864 E106.93468
G1 X162.033 Y146.540 E107.03455
G1 X161.380 Y147.297 E107.13430
G1 X160.818 Y148.124 E107.23407
G0 F12000 X160.288 Y148.758
G1 F1800 X154.906 Y146.409 E107.82001
G1 X155.323 Y145.552 E107.91510
G1 X155.965 Y144.478 E108.03996
G1 X156.695 Y143.466 E108.16446
G1 X157.516 Y142.512 E108.29005
G1 X158.415 Y141.634 E108.41544
G1 X159.390 Y140.832 E108.54140
G1 X160.419 Y140.125 E108.66598
G1 X161.509 Y139.506 E108.79105
G1 X162.657 Y138.980 E108.91705
G1 X163.826 Y138.560 E109.04100
G1 X165.039 Y138.240 E109.16617
G1 X166.285 Y138.023 E109.29237
G1 X167.533 Y137.915 E109.41736
G1 X168.785 Y137.913 E109.54228
G1 X170.034 Y138.021 E109.66738
G1 X171.280 Y138.237 E109.79356
G1 X172.489 Y138.555 E109.91829
G1 X173.660 Y138.975 E110.04242
G1 X174.812 Y139.502 E110.16883
G1 X175.900 Y140.118 E110.29358
G1 X176.934 Y140.829 E110.41879
G1 X177.900 Y141.621 E110.54343
G1 X178.808 Y142.508 E110.67009
G1 X179.620 Y143.451 E110.79426
G1 X180.356 Y144.469 E110.91960
G1 X180.998 Y145.543 E111.04445
G1 X181.419 Y146.406 E111.14026
G1 X176.313 Y148.630 E111.69597
G1 X176.035 Y148.749 E111.72615
G1 X176.454 Y149.865 E111.84509
G1 X176.681 Y150.729 E111.93423
G1 X176.815 Y151.600 E112.02216
G1 X176.863 Y152.500 E112.11209
G1 X176.818 Y153.376 E112.19961
G1 X176.681 Y154.269 E112.28976
G1 X176.458 Y155.123 E112.37783
G1 X176.039 Y156.242 E112.49705
G1 X181.421 Y158.591 E113.08299
G1 X181.004 Y159.448 E113.17809
G1 X180.366 Y160.516 E113.30222
G1 X179.629 Y161.537 E113.42787
G1 X178.815 Y162.485 E113.55254
G1 X177.913 Y163.366 E113.67835
G1 X176.937 Y164.169 E113.80446
G1 X175.912 Y164.873 E113.92854
G1 X174.820 Y165.493 E114.05384
G1 X173.670 Y166.020 E114.18006
G1 X172.502 Y166.440 E114.30391
G1 X171.289 Y166.760 E114.42908
G1 X170.043 Y166.977 E114.55528
G1 X168.794 Y167.085 E114.68037
G1 X167.542 Y167.087 E114.80530
G1 X166.294 Y166.979 E114.93029
G1 X165.048 Y166.763 E115.05647
G1 X163.839 Y166.445 E115.18121
G1 X162.667 Y166.025 E115.30543
G1 X161.516 Y165.498 E115.43174
G1 X160.425 Y164.880 E115.55686
G1 X159.393 Y164.171 E115.68179
G1 X158.428 Y163.379 E115.80635
G1 X157.520 Y162.492 E115.93301
G1 X156.707 Y161.548 E116.05732
G1 X155.968 Y160.525 E116.18324
G1 X155.329 Y159.457 E116.30743
G1 X154.909 Y158.594 E116.40319
G1 X160.014 Y156.370 E116.95881
G1 X160.292 Y156.251 E116.98898
G1 X159.873 Y155.135 E117.10793
G1 X159.646 Y154.271 E117.19707
G1 X159.511 Y153.396 E117.28541
G1 X159.465 Y152.499 E117.37503
G1 X159.509 Y151.621 E117.46274
G1 X159.646 Y150.731 E117.55259
G1 X159.870 Y149.875 E117.64088
G1 X160.288 Y148.758 E117.75989
G0 F12000 X160.200 Y147.593
;TYPE:SKIN
G1 F1800 X160.200 Y141.258 E118.39199
G0 F12000 X160.800 Y140.845
G1 F1800 X160.800 Y146.730 E118.97920
G0 F12000 X161.400 Y146.035
G1 F1800 X161.400 Y140.499 E119.53159
G0 F12000 X162.000 Y140.172
G1 F1800 X162.000 Y145.472 E120.06042
G0 F12000 X162.600 Y144.990
G1 F1800 X162.600 Y139.897 E120.56860
G0 F12000 X163.200 Y139.645
G1 F1800 X163.200 Y144.567 E121.05972
G0 F12000 X163.800 Y144.234
G1 F1800 X163.800 Y139.429 E121.53917
G0 F12000 X164.400 Y139.246
G1 F1800 X164.400 Y143.942 E122.00774
G0 F12000 X165.000 Y143.696
G1 F1800 X165.000 Y139.088 E122.46752
G0 F12000 X165.600 Y138.965
G1 F1800 X165.600 Y143.450 E122.91504
G0 F12000 X166.200 Y143.483
G1 F1800 X166.200 Y138.860 E123.37632
G0 F12000 X166.800 Y138.791
G1 F1800 X166.800 Y145.126 E124.00843
G1 F2100 E123.60843
G1 Z0.800
G0 F12000 X167.400 Y146.867
G1 Z0.400
G1 F2100 E124.00843
G1 F1800 X167.400 Y138.739 E124.81945
G0 F12000 X168.000 Y138.724
G1 F1800 X168.000 Y148.608 E125.80568
G0 F12000 X168.600 Y147.830
G1 F1800 X168.600 Y138.723 E126.71438
G0 F12000 X169.200 Y138.763
G1 F1800 X169.200 Y146.095 E127.44597
G1 F2100 E127.04597
G1 Z0.800
G0 F12000 X169.800 Y144.360
G1 Z0.400
G1 F2100 E127.44597
G1 F1800 X169.800 Y138.815 E127.99925
G0 F12000 X170.400 Y138.908
G1 F1800 X170.400 Y143.314 E128.43888
G0 F12000 X171.000 Y143.561
G1 F1800 X171.000 Y139.012 E128.89278
G0 F12000 X171.600 Y139.159
G1 F1800 X171.600 Y143.808 E129.35666
G0 F12000 X172.200 Y144.055
G1 F1800 X172.200 Y139.316 E129.82952
G0 F12000 X172.800 Y139.527
G1 F1800 X172.800 Y144.385 E130.31426
G0 F12000 X173.400 Y144.753
G1 F1800 X173.400 Y139.747 E130.81376
G0 F12000 X174.000 Y140.021
G1 F1800 X174.000 Y145.186 E131.32912
G0 F12000 X174.600 Y145.721
G1 F1800 X174.600 Y140.314 E131.86864
G0 F12000 X175.200 Y140.654
G1 F1800 X175.200 Y146.348 E132.43678
G0 F12000 X175.800 Y147.109
G1 F1800 X175.800 Y141.033 E133.04305
G0 F12000 X176.400 Y141.446
G1 F1800 X176.400 Y147.709 E133.66798
G0 F12000 X177.000 Y147.448
G1 F1800 X177.000 Y141.932 E134.21836
G0 F12000 X177.600 Y142.462
G1 F1800 X177.600 Y147.186 E134.68973
G0 F12000 X178.200 Y146.925
G1 F1800 X178.200 Y143.047 E135.07667
G0 F12000 X178.800 Y143.741
G1 F1800 X178.800 Y146.664 E135.36833
G0 F12000 X179.400 Y146.403
G1 F1800 X179.400 Y144.530 E135.55522
G1 F2100 E135.15522
G1 Z0.800
G0 F12000 X176.400 Y157.285
G1 Z0.400
G1 F2100 E135.55522
G1 F1800 X176.400 Y163.555 E136.18084
G0 F12000 X175.800 Y163.967
G1 F1800 X175.800 Y157.900 E136.78621
G0 F12000 X175.200 Y158.652
G1 F1800 X175.200 Y164.346 E137.35436
G0 F12000 X174.600 Y164.687
G1 F1800 X174.600 Y159.273 E137.89457
G0 F12000 X174.000 Y159.803
G1 F1800 X174.000 Y164.979 E138.41104
G0 F12000 X173.400 Y165.253
G1 F1800 X173.400 Y160.254 E138.90984
G0 F12000 X172.800 Y160.615
G1 F1800 X172.800 Y165.473 E139.39457
G0 F12000 X172.200 Y165.683
G1 F1800 X172.200 Y160.935 E139.86833
G0 F12000 X171.600 Y161.195
G1 F1800 X171.600 Y165.841 E140.33191
G0 F12000 X171.000 Y165.988
G1 F1800 X171.000 Y161.405 E140.78920
G0 F12000 X170.400 Y161.585
G1 F1800 X170.400 Y166.093 E141.23901
G0 F12000 X169.800 Y166.185
G1 F1800 X169.800 Y161.699 E141.68663
G0 F12000 X169.200 Y161.799
G1 F1800 X169.200 Y166.237 E142.12945
G0 F12000 X168.600 Y166.276
G1 F1800 X168.600 Y161.835 E142.57258
G0 F12000 X168.000 Y161.853
G1 F1800 X168.000 Y166.277 E143.01401
G0 F12000 X167.400 Y166.261
G1 F1800 X167.400 Y161.816 E143.45753
G0 F12000 X166.800 Y161.748
G1 F1800 X166.800 Y166.209 E143.90265
G0 F12000 X166.200 Y166.139
G1 F1800 X166.200 Y161.642 E144.35136
G0 F12000 X165.600 Y161.488
G1 F1800 X165.600 Y166.035 E144.80506
G0 F12000 X165.000 Y165.912
G1 F1800 X165.000 Y161.307 E145.26455
G0 F12000 X164.400 Y161.055
G1 F1800 X164.400 Y165.755 E145.73352
G0 F12000 X163.800 Y165.571
G1 F1800 X163.800 Y160.773 E146.21227
G0 F12000 X163.200 Y160.425
G1 F1800 X163.200 Y165.355 E146.70419
G0 F12000 X162.600 Y165.102
G1 F1800 X162.600 Y160.010 E147.21227
G0 F12000 X162.000 Y159.537
G1 F1800 X162.000 Y164.828 E147.74021
G0 F12000 X161.400 Y164.500
G1 F1800 X161.400 Y158.964 E148.29259
G0 F12000 X160.800 Y158.261
G1 F1800 X160.800 Y164.154 E148.88060
G0 F12000 X160.200 Y163.742
G1 F1800 X160.200 Y157.398 E149.51360
G1 F2100 E149.11360
G1 Z0.800
G0 F12000 X177.000 Y157.546
G1 Z0.400
G1 F2100 E149.51360
G1 F1800 X177.000 Y163.069 E150.06469
G0 F12000 X177.600 Y162.541
G1 F1800 X177.600 Y157.808 E150.53695
G0 F12000 X178.200 Y158.070
G1 F1800 X178.200 Y161.954 E150.92450
G0 F12000 X178.800 Y161.259
G1 F1800 X178.800 Y158.332 E151.21655
G0 F12000 X179.400 Y158.593
G1 F1800 X179.400 Y160.470 E151.40384
G0 F12000 X180.000 Y159.549
G1 F1800 X180.000 Y158.855 E151.47309
G1 F2100 E151.07309
G1 Z0.800
G0 F12000 X180.000 Y146.142
G1 Z0.400
G1 F2100 E151.47309
G1 F1800 X180.000 Y145.452 E151.54194
G1 F2100 E151.14194
G1 Z0.800
G0 F12000 X159.600 Y147.574
G1 Z0.400
G1 F2100 E151.54194
G1 F1800 X159.600 Y141.707 E152.12735
G0 F12000 X159.000 Y142.200
G1 F1800 X159.000 Y147.312 E152.63743
G0 F12000 X158.400 Y147.050
G1 F1800 X158.400 Y142.780 E153.06349
G0 F12000 X157.800 Y143.423
G1 F1800 X157.800 Y146.788 E153.39925
G0 F12000 X157.200 Y146.526
G1 F1800 X157.200 Y144.149 E153.63643
G0 F12000 X156.600 Y144.994
G1 F1800 X156.600 Y146.265 E153.76325
G1 F2100 E153.36325
G1 Z0.800
G0 F12000 X159.600 Y157.433
G1 Z0.400
G1 F2100 E153.76325
G1 F1800 X159.600 Y163.292 E154.34786
G0 F12000 X159.000 Y162.800
G1 F1800 X159.000 Y157.695 E154.85724
G0 F12000 X158.400 Y157.956
G1 F1800 X158.400 Y162.220 E155.28271
G0 F12000 X157.800 Y161.575
G1 F1800 X157.800 Y158.217 E155.61777
G0 F12000 X157.200 Y158.479
G1 F1800 X157.200 Y160.847 E155.85405
G0 F12000 X156.600 Y160.004
G1 F1800 X156.600 Y158.740 E155.98017
;LAYER:1
M106 S20
G1 F2100 E155.58017
G1 Z0.800
G0 F12000 X149.159 Y159.144 Z0.800
;TYPE:WALL-INNER
G1 Z0.800
G1 F2100 E155.98017
G1 F1980 X148.543 Y160.174 E156.09992
G1 X147.832 Y161.163 E156.22146
G1 X147.056 Y162.066 E156.34026
G1 X146.192 Y162.912 E156.46092
G1 X145.264 Y163.677 E156.58092
G1 X144.269 Y164.362 E156.70145
G1 X143.231 Y164.952 E156.82059
G1 X142.129 Y165.459 E156.94162
G1 X141.003 Y165.863 E157.06099
G1 X139.840 Y166.172 E157.18106
G1 X138.651 Y166.379 E157.30148
G1 X137.446 Y166.485 E157.42218
G1 X136.236 Y166.487 E157.54292
G1 X135.046 Y166.384 E157.66210
G1 X133.858 Y166.179 E157.78239
G1 X132.709 Y165.876 E157.90096
G1 X131.564 Y165.467 E158.02228
G1 X130.464 Y164.965 E158.14293
G1 X129.426 Y164.377 E158.26196
G1 X128.430 Y163.694 E158.38246
G1 X127.506 Y162.936 E158.50172
G1 X126.642 Y162.093 E158.62216
G1 X125.847 Y161.171 E158.74364
G1 X125.152 Y160.210 E158.86197
G1 X124.531 Y159.172 E158.98267
G1 X124.397 Y158.899 E159.01301
G1 X128.846 Y156.955 E159.49746
G1 X129.455 Y157.909 E159.61040
G1 X130.125 Y158.718 E159.71521
G1 X130.181 Y158.778 E159.72340
G1 X130.913 Y159.474 E159.82418
G1 X131.766 Y160.119 E159.93089
G1 X132.691 Y160.658 E160.03771
G1 X133.674 Y161.086 E160.14469
G1 X134.697 Y161.397 E160.25138
G1 X135.751 Y161.585 E160.35820
G1 X136.778 Y161.648 E160.46087
G1 X136.861 Y161.651 E160.46916
G1 X137.890 Y161.590 E160.57201
G1 X138.944 Y161.404 E160.67881
G1 X139.968 Y161.098 E160.78545
G1 X140.951 Y160.673 E160.89231
G1 X141.878 Y160.137 E160.99915
G1 X142.735 Y159.495 E161.10600
G1 X143.490 Y158.779 E161.20982
G1 X144.198 Y157.935 E161.31974
G1 X144.782 Y157.039 E161.42646
G1 X144.824 Y156.954 E161.43592
G1 X149.281 Y158.892 E161.92086
G1 X149.159 Y159.144 E161.94880
G1 F2100 E161.54880
G1 Z1.200
G0 F12000 X144.711 Y147.839
G1 Z0.800
G1 F2100 E161.94880
G1 F1980 X144.113 Y146.951 E162.05562
G1 X143.435 Y146.162 E162.15942
G1 X142.626 Y145.413 E162.26943
G1 X141.760 Y144.787 E162.37605
G1 X140.853 Y144.280 E162.47973
G1 X139.874 Y143.871 E162.58560
G1 X138.976 Y143.522 E162.68173
G1 X136.953 Y149.401 E163.30210
G1 X136.918 Y149.476 E163.31036
G1 X136.899 Y149.498 E163.31326
G1 X136.859 Y149.518 E163.31772
G1 X136.834 Y149.521 E163.32023
G1 X136.814 Y149.519 E163.32224
G1 X136.790 Y149.510 E163.32479
G1 X136.774 Y149.498 E163.32679
G1 X136.756 Y149.476 E163.32963
G1 X136.726 Y149.416 E163.33632
G1 X135.012 Y144.436 E163.86183
G1 X134.672 Y143.513 E163.95998
G1 X132.878 Y144.249 E164.15347
G1 X131.941 Y144.768 E164.26034
G1 X131.071 Y145.393 E164.36723
G1 X130.296 Y146.101 E164.47197
G1 X130.239 Y146.160 E164.48016
G1 X129.579 Y146.925 E164.58097
G1 X128.978 Y147.810 E164.68771
G1 X128.854 Y148.048 E164.71449
G1 X124.392 Y146.108 E165.19997
G1 X124.515 Y145.856 E165.22795
G1 X125.134 Y144.818 E165.34854
G1 X125.834 Y143.845 E165.46814
G1 X126.618 Y142.933 E165.58815
G1 X127.480 Y142.088 E165.70859
G1 X128.409 Y141.323 E165.82867
G1 X129.403 Y140.638 E165.94912
G1 X130.441 Y140.048 E166.06826
G1 X131.544 Y139.541 E166.18938
G1 X132.670 Y139.137 E166.30875
G1 X133.832 Y138.828 E166.42872
G1 X135.021 Y138.621 E166.54915
G1 X136.227 Y138.515 E166.66995
G1 X137.437 Y138.513 E166.79068
G1 X138.626 Y138.616 E166.90976
G1 X139.814 Y138.821 E167.03005
G1 X140.961 Y139.123 E167.14840
G1 X142.108 Y139.533 E167.26994
G1 X143.208 Y140.035 E167.39059
G1 X144.246 Y140.623 E167.50963
G1 X145.237 Y141.302 E167.62949
G1 X146.171 Y142.069 E167.75008
G1 X147.037 Y142.913 E167.87074
G1 X147.815 Y143.815 E167.98960
G1 X148.525 Y144.799 E168.11067
G1 X149.143 Y145.828 E168.23044
G1 X149.276 Y146.101 E168.26074
G1 X144.819 Y148.049 E168.74609
G1 X144.711 Y147.839 E168.76965
G0 F12000 X144.194 Y148.145
;TYPE:WALL-OUTER
G1 F1980 X143.635 Y147.316 E168.86941
G1 X142.990 Y146.565 E168.96819
G1 X142.246 Y145.879 E169.06917
G1 X141.437 Y145.294 E169.16879
G1 X140.572 Y144.811 E169.26764
G1 X139.651 Y144.428 E169.36717
G1 X139.340 Y144.307 E169.40047
G1 X137.512 Y149.619 E169.96101
G1 X137.422 Y149.809 E169.98198
G1 X137.313 Y149.938 E169.99883
G1 X137.172 Y150.040 E170.01620
G1 X137.009 Y150.104 E170.03367
G1 X136.836 Y150.126 E170.05107
G1 X136.665 Y150.105 E170.06826
G1 X136.503 Y150.042 E170.08561
G1 X136.362 Y149.940 E170.10297
G1 X136.250 Y149.806 E170.12040
G1 X136.172 Y149.648 E170.13798
G1 X134.447 Y144.637 E170.66677
G1 X134.324 Y144.304 E170.70220
G1 X133.138 Y144.791 E170.83012
G1 X132.262 Y145.276 E170.93003
G1 X131.450 Y145.860 E171.02983
G1 X130.716 Y146.530 E171.12900
G1 X130.056 Y147.291 E171.22951
G1 X129.494 Y148.118 E171.32928
G1 X129.033 Y149.005 E171.42902
G1 X128.678 Y149.942 E171.52900
G1 X128.436 Y150.911 E171.62866
G1 X128.308 Y151.904 E171.72856
G1 X128.295 Y152.902 E171.82815
G1 X128.401 Y153.897 E171.92799
G1 X128.621 Y154.873 E172.02782
G1 X128.955 Y155.817 E172.12774
G1 X129.397 Y156.714 E172.22752
G1 X129.940 Y157.554 E172.32732
G1 X130.574 Y158.319 E172.42646
G1 X131.302 Y159.016 E172.52702
G1 X132.099 Y159.618 E172.62668
G1 X132.963 Y160.122 E172.72649
G1 X133.881 Y160.522 E172.82641
G1 X134.838 Y160.812 E172.92618
G1 X135.822 Y160.988 E173.02593
G1 X136.807 Y161.049 E173.12440
G1 X136.854 Y161.050 E173.12909
G1 X137.820 Y160.993 E173.22564
G1 X138.805 Y160.819 E173.32545
G1 X139.763 Y160.533 E173.42521
G1 X140.681 Y160.136 E173.52501
G1 X141.547 Y159.636 E173.62478
G1 X142.348 Y159.036 E173.72464
G1 X143.066 Y158.354 E173.82345
G1 X143.714 Y157.578 E173.92433
G1 X144.260 Y156.741 E174.02405
G1 X144.705 Y155.844 E174.12396
G1 X145.040 Y154.902 E174.22372
G1 X145.265 Y153.928 E174.32346
G1 X145.374 Y152.945 E174.42215
G1 X145.377 Y152.898 E174.42685
G1 X145.368 Y151.934 E174.52304
G1 X145.243 Y150.941 E174.62290
G1 X145.004 Y149.971 E174.72258
G1 X144.653 Y149.034 E174.82242
G1 X144.194 Y148.145 E174.92225
G0 F12000 X144.709 Y148.751
G1 F1980 X145.125 Y149.860 E175.04044
G1 X145.353 Y150.726 E175.12979
G1 X145.488 Y151.597 E175.21774
G1 X145.535 Y152.500 E175.30796
G1 X145.491 Y153.378 E175.39568
G1 X145.491 Y153.391 E175.39698
G1 X145.358 Y154.246 E175.48332
G1 X145.131 Y155.123 E175.57371
G1 X144.817 Y155.964 E175.66328
G1 X144.698 Y156.245 E175.69373
G1 X150.094 Y158.591 E176.28083
G1 X149.688 Y159.427 E176.37356
G1 X149.040 Y160.511 E176.49958
G1 X148.306 Y161.531 E176.62497
G1 X147.490 Y162.480 E176.74985
G1 X146.600 Y163.353 E176.87424
G1 X145.619 Y164.161 E177.00106
G1 X144.593 Y164.867 E177.12533
G1 X143.502 Y165.488 E177.25059
G1 X142.353 Y166.016 E177.37676
G1 X141.184 Y166.436 E177.50070
G1 X139.971 Y166.758 E177.62593
G1 X138.724 Y166.976 E177.75224
G1 X137.477 Y167.085 E177.87714
G1 X136.221 Y167.087 E178.00247
G1 X134.975 Y166.980 E178.12725
G1 X133.729 Y166.765 E178.25342
G1 X132.530 Y166.449 E178.37714
G1 X131.338 Y166.023 E178.50344
G1 X130.196 Y165.502 E178.62869
G1 X129.104 Y164.884 E178.75389
G1 X128.071 Y164.175 E178.87890
G1 X127.106 Y163.384 E179.00341
G1 X126.197 Y162.497 E179.13013
G1 X125.384 Y161.553 E179.25444
G1 X124.644 Y160.530 E179.38043
G1 X124.007 Y159.467 E179.50408
G1 X123.583 Y158.599 E179.60047
G1 X128.964 Y156.249 E180.18636
G1 X128.548 Y155.140 E180.30454
G1 X128.320 Y154.274 E180.39390
G1 X128.185 Y153.402 E180.48194
G1 X128.137 Y152.499 E180.57217
G1 X128.182 Y151.622 E180.65979
G1 X128.182 Y151.607 E180.66129
G1 X128.315 Y150.754 E180.74743
G1 X128.542 Y149.877 E180.83782
G1 X128.856 Y149.036 E180.92739
G1 X128.975 Y148.755 E180.95784
G1 X123.579 Y146.409 E181.54494
G1 X123.985 Y145.573 E181.63768
G1 X124.637 Y144.480 E181.76467
G1 X125.360 Y143.477 E181.88804
G1 X126.183 Y142.519 E182.01406
G1 X127.072 Y141.647 E182.13831
G1 X128.054 Y140.839 E182.26520
G1 X129.079 Y140.133 E182.38939
G1 X130.170 Y139.512 E182.51465
G1 X131.320 Y138.984 E182.64091
G1 X132.488 Y138.564 E182.76476
G1 X133.701 Y138.242 E182.88999
G1 X134.948 Y138.024 E183.01630
G1 X136.196 Y137.915 E183.14130
G1 X137.452 Y137.913 E183.26662
G1 X138.697 Y138.020 E183.39131
G1 X139.943 Y138.235 E183.51747
G1 X141.142 Y138.551 E183.64119
G1 X142.335 Y138.977 E183.76759
G1 X143.476 Y139.498 E183.89275
G1 X144.568 Y140.116 E184.01795
G1 X145.602 Y140.825 E184.14305
G1 X146.566 Y141.616 E184.26747
G1 X147.475 Y142.503 E184.39420
G1 X148.289 Y143.447 E184.51857
G1 X149.028 Y144.470 E184.64450
G1 X149.665 Y145.531 E184.76798
G1 X150.090 Y146.401 E184.86459
G1 X144.709 Y148.751 E185.45048
G0 F12000 X144.802 Y147.600
;TYPE:SKIN
G1 F1980 X145.318 Y147.600 E185.50197
G0 F12000 X144.398 Y147.000
G1 F1980 X146.690 Y147.000 E185.73066
G0 F12000 X148.063 Y146.400
G1 F1980 X143.916 Y146.400 E186.14445
G0 F12000 X143.352 Y145.800
G1 F1980 X148.882 Y145.800 E186.69624
G0 F12000 X148.522 Y145.200
G1 F1980 X142.688 Y145.200 E187.27836
G0 F12000 X141.856 Y144.600
G1 F1980 X148.123 Y144.600 E187.90368
G0 F12000 X147.690 Y144.000
G1 F1980 X140.727 Y144.000 E188.59845
G1 F2100 E188.19845
G1 Z1.200
G0 F12000 X139.242 Y143.400
G1 Z0.800
G1 F2100 E188.59845
G1 F1980 X147.181 Y143.400 E189.39061
G0 F12000 X146.621 Y142.800
G1 F1980 X127.051 Y142.800 E191.34331
G0 F12000 X126.492 Y143.400
G1 F1980 X134.388 Y143.400 E192.13118
G0 F12000 X134.854 Y143.400
G1 F1980 X138.794 Y143.400 E192.52431
G0 F12000 X138.587 Y144.000
G1 F1980 X135.075 Y144.000 E192.87474
G0 F12000 X135.290 Y144.600
G1 F1980 X138.381 Y144.600 E193.18316
G0 F12000 X138.174 Y145.200
G1 F1980 X135.497 Y145.200 E193.45027
G0 F12000 X135.703 Y145.800
G1 F1980 X137.968 Y145.800 E193.67628
G0 F12000 X137.761 Y146.400
G1 F1980 X135.910 Y146.400 E193.86097
G0 F12000 X136.116 Y147.000
G1 F1980 X137.555 Y147.000 E194.00455
G0 F12000 X137.348 Y147.600
G1 F1980 X136.426 Y147.900 E194.10678
G1 X137.038 Y148.500 E194.16793
G1 X136.736 Y148.800 E194.21040
G1 F2100 E193.81040
G1 Z1.200
G0 F12000 X132.927 Y144.000
G1 Z0.800
G1 F2100 E194.21040
G1 F1980 X125.981 Y144.000 E194.90348
G0 F12000 X125.549 Y144.600
G1 F1980 X131.812 Y144.600 E195.52840
G0 F12000 X130.978 Y145.200
G1 F1980 X125.151 Y145.200 E196.10982
G0 F12000 X124.793 Y145.800
G1 F1980 X130.312 Y145.800 E196.66051
G0 F12000 X129.753 Y146.400
G1 F1980 X125.590 Y146.400 E197.07589
G1 F2100 E196.67589
G1 Z1.200
G0 F12000 X126.971 Y147.000
G1 Z0.800
G1 F2100 E197.07589
G1 F1980 X129.272 Y147.000 E197.30549
G0 F12000 X128.865 Y147.600
G1 F1980 X128.352 Y147.600 E197.35668
G1 F2100 E196.95668
G1 Z1.200
G0 F12000 X127.674 Y142.200
G1 Z0.800
G1 F2100 E197.35668
G1 F1980 X146.000 Y142.200 E199.18525
G0 F12000 X145.270 Y141.600
G1 F1980 X128.402 Y141.600 E200.86835
G0 F12000 X129.246 Y141.000
G1 F1980 X144.426 Y141.000 E202.38301
G0 F12000 X143.427 Y140.400
G1 F1980 X130.245 Y140.400 E203.69832
G1 F2100 E203.29832
G1 Z1.200
G0 F12000 X129.135 Y157.800
G1 Z0.800
G1 F2100 E203.69832
G1 F1980 X127.434 Y157.800 E203.86805
G0 F12000 X126.061 Y158.400
G1 F1980 X129.589 Y158.400 E204.22007
G0 F12000 X130.111 Y159.000
G1 F1980 X124.687 Y159.000 E204.76128
G0 F12000 X125.030 Y159.600
G1 F1980 X130.742 Y159.600 E205.33123
G0 F12000 X131.526 Y160.200
G1 F1980 X125.403 Y160.200 E205.94218
G0 F12000 X125.837 Y160.800
G1 F1980 X132.518 Y160.800 E206.60881
G1 F2100 E206.20881
G1 Z1.200
G0 F12000 X133.987 Y161.400
G1 Z0.800
G1 F2100 E206.60881
G1 F1980 X126.321 Y161.400 E207.37373
G0 F12000 X126.847 Y162.000
G1 F1980 X146.822 Y162.000 E209.36685
G0 F12000 X147.348 Y161.400
G1 F1980 X139.686 Y161.400 E210.13136
G1 F2100 E209.73136
G1 Z1.200
G0 F12000 X141.111 Y165.600
G1 Z0.800
G1 F2100 E210.13136
G1 F1980 X132.565 Y165.600 E210.98409
G1 F2100 E210.58409
G1 Z1.200
G0 F12000 X131.048 Y165.000
G1 Z0.800
G1 F2100 E210.98409
G1 F1980 X142.620 Y165.000 E212.13874
G0 F12000 X143.773 Y164.400
G1 F1980 X129.894 Y164.400 E213.52360
G0 F12000 X128.956 Y163.800
G1 F1980 X144.712 Y163.800 E215.09574
G0 F12000 X145.510 Y163.200
G1 F1980 X128.159 Y163.200 E216.82703
G0 F12000 X127.463 Y162.600
G1 F1980 X146.209 Y162.600 E218.69751
G1 F2100 E218.29751
G1 Z1.200
G0 F12000 X147.831 Y160.800
G1 Z0.800
G1 F2100 E218.69751
G1 F1980 X141.148 Y160.800 E219.36434
G0 F12000 X142.143 Y160.200
G1 F1980 X148.263 Y160.200 E219.97500
G0 F12000 X148.640 Y159.600
G1 F1980 X142.928 Y159.600 E220.54494
G0 F12000 X143.561 Y159.000
G1 F1980 X148.998 Y159.000 E221.08745
G0 F12000 X147.625 Y158.400
G1 F1980 X144.081 Y158.400 E221.44107
G0 F12000 X144.536 Y157.800
G1 F1980 X146.244 Y157.800 E221.61150
G1 F2100 E221.21150
G1 Z1.200
G0 F12000 X138.269 Y166.200
G1 Z0.800
G1 F2100 E221.61150
G1 F1980 X135.372 Y166.200 E221.90056
G1 F2100 E221.50056
G1 Z1.200
G0 F12000 X131.482 Y139.800
G1 Z0.800
G1 F2100 E221.90056
G1 F1980 X142.187 Y139.800 E222.96871
G1 F2100 E222.56871
G1 Z1.200
G0 F12000 X140.434 Y139.200
G1 Z0.800
G1 F2100 E222.96871
G1 F1980 X133.245 Y139.200 E223.68603
G1 F2100 E223.28603
G1 Z1.200
G0 F12000 X155.844 Y145.851
;TYPE:WALL-INNER
G1 Z0.800
G1 F2100 E223.68603
G1 F1980 X156.457 Y144.826 E223.80520
G1 X157.168 Y143.837 E223.92674
G1 X157.944 Y142.934 E224.04554
G1 X158.808 Y142.088 E224.16620
G1 X159.736 Y141.323 E224.28620
G1 X160.731 Y140.638 E224.40673
G1 X161.769 Y140.048 E224.52587
G1 X162.871 Y139.541 E224.64690
G1 X163.997 Y139.137 E224.76627
G1 X165.160 Y138.828 E224.88634
G1 X166.349 Y138.621 E225.00676
G1 X167.554 Y138.515 E225.12746
G1 X168.764 Y138.513 E225.24820
G1 X169.954 Y138.616 E225.36738
G1 X171.142 Y138.821 E225.48767
G1 X172.289 Y139.123 E225.60602
G1 X173.436 Y139.533 E225.72756
G1 X174.536 Y140.035 E225.84821
G1 X175.574 Y140.623 E225.96724
G1 X176.570 Y141.306 E226.08775
G1 X177.491 Y142.061 E226.20658
G1 X178.358 Y142.907 E226.32745
G1 X179.153 Y143.829 E226.44892
G1 X179.848 Y144.790 E226.56726
G1 X180.469 Y145.828 E226.68795
G1 X180.603 Y146.101 E226.71830
G1 X176.147 Y148.048 E227.20351
G1 X176.039 Y147.839 E227.22698
G1 X175.441 Y146.951 E227.33380
G1 X174.763 Y146.162 E227.43760
G1 X173.953 Y145.413 E227.54768
G1 X173.087 Y144.787 E227.65431
G1 X172.152 Y144.265 E227.76116
G1 X171.203 Y143.872 E227.86365
G1 X170.304 Y143.522 E227.95991
G1 X168.280 Y149.401 E228.58031
G1 X168.245 Y149.476 E228.58857
G1 X168.227 Y149.497 E228.59133
G1 X168.211 Y149.509 E228.59332
G1 X168.187 Y149.518 E228.59588
G1 X168.160 Y149.521 E228.59859
G1 X168.117 Y149.509 E228.60304
G1 X168.102 Y149.499 E228.60484
G1 X168.083 Y149.477 E228.60774
G1 X168.052 Y149.414 E228.61475
G1 X166.340 Y144.436 E229.14001
G1 X166.000 Y143.513 E229.23816
G1 X164.205 Y144.249 E229.43173
G1 X163.268 Y144.768 E229.53861
G1 X162.399 Y145.393 E229.64542
G1 X161.624 Y146.101 E229.75016
G1 X161.567 Y146.160 E229.75834
G1 X160.907 Y146.925 E229.85916
G1 X160.306 Y147.810 E229.96590
G1 X160.182 Y148.048 E229.99268
G1 X155.720 Y146.108 E230.47816
G1 X155.844 Y145.851 E230.50663
G1 F2100 E230.10663
G1 Z1.200
G0 F12000 X160.173 Y156.955
G1 Z0.800
G1 F2100 E230.50663
G1 F1980 X160.783 Y157.909 E230.61962
G1 X161.451 Y158.718 E230.72430
G1 X162.240 Y159.474 E230.83334
G1 X163.094 Y160.119 E230.94012
G1 X164.019 Y160.658 E231.04694
G1 X165.000 Y161.086 E231.15374
G1 X166.024 Y161.397 E231.26052
G1 X167.078 Y161.585 E231.36735
G1 X168.106 Y161.648 E231.47012
G1 X168.189 Y161.651 E231.47841
G1 X169.217 Y161.590 E231.58116
G1 X170.271 Y161.404 E231.68795
G1 X171.295 Y161.098 E231.79459
G1 X172.279 Y160.673 E231.90154
G1 X173.206 Y160.137 E232.00839
G1 X174.063 Y159.495 E232.11523
G1 X174.817 Y158.779 E232.21898
G1 X174.874 Y158.720 E232.22717
G1 X175.526 Y157.935 E232.32899
G1 X176.109 Y157.039 E232.43565
G1 X176.151 Y156.954 E232.44511
G1 X180.608 Y158.892 E232.93006
G1 X180.485 Y159.144 E232.95804
G1 X179.866 Y160.182 E233.07863
G1 X179.166 Y161.155 E233.19823
G1 X178.382 Y162.067 E233.31823
G1 X177.520 Y162.912 E233.43868
G1 X176.591 Y163.677 E233.55876
G1 X175.597 Y164.362 E233.67921
G1 X174.559 Y164.952 E233.79834
G1 X173.456 Y165.459 E233.91947
G1 X172.330 Y165.863 E234.03883
G1 X171.168 Y166.172 E234.15881
G1 X169.979 Y166.379 E234.27923
G1 X168.773 Y166.485 E234.40003
G1 X167.563 Y166.487 E234.52077
G1 X166.374 Y166.384 E234.63985
G1 X165.186 Y166.179 E234.76014
G1 X164.037 Y165.876 E234.87871
G1 X162.892 Y165.467 E235.00003
G1 X161.792 Y164.965 E235.12067
G1 X160.754 Y164.377 E235.23971
G1 X159.763 Y163.698 E235.35958
G1 X158.829 Y162.931 E235.48017
G1 X157.963 Y162.087 E235.60083
G1 X157.185 Y161.185 E235.71968
G1 X156.475 Y160.201 E235.84076
G1 X155.855 Y159.168 E235.96097
G1 X155.724 Y158.899 E235.99082
G1 X160.173 Y156.955 E236.47528
G0 F12000 X160.724 Y156.714
;TYPE:WALL-OUTER
G1 F1980 X161.268 Y157.554 E236.57513
G1 X161.900 Y158.319 E236.67414
G1 X162.629 Y159.016 E236.77478
G1 X163.427 Y159.618 E236.87452
G1 X164.291 Y160.122 E236.97433
G1 X165.208 Y160.522 E237.07415
G1 X166.165 Y160.812 E237.17393
G1 X167.149 Y160.988 E237.27367
G1 X168.135 Y161.049 E237.37224
G1 X168.182 Y161.050 E237.37694
G1 X169.147 Y160.993 E237.47339
G1 X170.132 Y160.819 E237.57320
G1 X171.090 Y160.533 E237.67296
G1 X172.009 Y160.136 E237.77284
G1 X172.875 Y159.636 E237.87262
G1 X173.675 Y159.036 E237.97240
G1 X174.393 Y158.354 E238.07121
G1 X175.042 Y157.578 E238.17215
G1 X175.587 Y156.741 E238.27181
G1 X176.033 Y155.845 E238.37168
G1 X176.368 Y154.902 E238.47153
G1 X176.593 Y153.928 E238.57128
G1 X176.701 Y152.945 E238.66995
G1 X176.704 Y152.898 E238.67465
G1 X176.695 Y151.934 E238.77084
G1 X176.570 Y150.941 E238.87071
G1 X176.331 Y149.971 E238.97039
G1 X175.980 Y149.034 E239.07023
G1 X175.522 Y148.145 E239.17001
G1 X174.963 Y147.316 E239.26978
G1 X174.318 Y146.565 E239.36856
G1 X173.574 Y145.879 E239.46954
G1 X172.764 Y145.294 E239.56923
G1 X171.890 Y144.806 E239.66911
G1 X170.980 Y144.429 E239.76740
G1 X170.668 Y144.307 E239.80083
G1 X168.839 Y149.619 E240.36140
G1 X168.750 Y149.806 E240.38206
G1 X168.639 Y149.939 E240.39935
G1 X168.498 Y150.041 E240.41671
G1 X168.336 Y150.104 E240.43406
G1 X168.162 Y150.126 E240.45156
G1 X167.992 Y150.105 E240.46865
G1 X167.829 Y150.041 E240.48612
G1 X167.688 Y149.939 E240.50348
G1 X167.577 Y149.808 E240.52062
G1 X167.499 Y149.649 E240.53829
G1 X165.775 Y144.637 E241.06715
G1 X165.652 Y144.304 E241.10257
G1 X164.465 Y144.791 E241.23059
G1 X163.589 Y145.276 E241.33050
G1 X162.778 Y145.860 E241.43022
G1 X162.044 Y146.530 E241.52938
G1 X161.384 Y147.291 E241.62989
G1 X160.822 Y148.118 E241.72966
G1 X160.360 Y149.005 E241.82945
G1 X160.005 Y149.942 E241.92943
G1 X159.763 Y150.911 E242.02909
G1 X159.635 Y151.904 E242.12899
G1 X159.622 Y152.902 E242.22858
G1 X159.729 Y153.897 E242.32843
G1 X159.949 Y154.873 E242.42826
G1 X160.283 Y155.817 E242.52818
G1 X160.724 Y156.714 E242.62791
G0 F12000 X160.291 Y156.249
G1 F1980 X159.875 Y155.140 E242.74610
G1 X159.647 Y154.274 E242.83545
G1 X159.512 Y153.402 E242.92350
G1 X159.465 Y152.499 E243.01372
G1 X159.509 Y151.622 E243.10134
G1 X159.509 Y151.607 E243.10283
G1 X159.642 Y150.754 E243.18898
G1 X159.869 Y149.877 E243.27937
G1 X160.183 Y149.036 E243.36894
G1 X160.302 Y148.755 E243.39939
G1 X154.907 Y146.409 E243.98640
G1 X155.312 Y145.573 E244.07909
G1 X155.960 Y144.489 E244.20510
G1 X156.694 Y143.469 E244.33049
G1 X157.510 Y142.520 E244.45537
G1 X158.400 Y141.647 E244.57977
G1 X159.381 Y140.839 E244.70658
G1 X160.407 Y140.133 E244.83085
G1 X161.498 Y139.512 E244.95611
G1 X162.647 Y138.984 E245.08228
G1 X163.816 Y138.564 E245.20623
G1 X165.029 Y138.242 E245.33145
G1 X166.276 Y138.024 E245.45777
G1 X167.523 Y137.915 E245.58267
G1 X168.779 Y137.913 E245.70799
G1 X170.025 Y138.020 E245.83278
G1 X171.271 Y138.235 E245.95894
G1 X172.470 Y138.551 E246.08266
G1 X173.662 Y138.977 E246.20897
G1 X174.804 Y139.498 E246.33421
G1 X175.896 Y140.116 E246.45941
G1 X176.929 Y140.825 E246.58443
G1 X177.894 Y141.616 E246.70893
G1 X178.803 Y142.503 E246.83566
G1 X179.616 Y143.447 E246.95997
G1 X180.356 Y144.470 E247.08595
G1 X180.992 Y145.531 E247.20938
G1 X181.417 Y146.401 E247.30599
G1 X176.036 Y148.751 E247.89188
G1 X176.452 Y149.860 E248.01007
G1 X176.680 Y150.726 E248.09942
G1 X176.815 Y151.597 E248.18737
G1 X176.863 Y152.500 E248.27760
G1 X176.818 Y153.378 E248.36532
G1 X176.818 Y153.391 E248.36661
G1 X176.685 Y154.246 E248.45295
G1 X176.458 Y155.123 E248.54334
G1 X176.144 Y155.964 E248.63292
G1 X176.025 Y156.245 E248.66337
G1 X181.421 Y158.591 E249.25047
G1 X181.015 Y159.427 E249.34320
G1 X180.364 Y160.519 E249.47005
G1 X179.640 Y161.523 E249.59356
G1 X178.817 Y162.481 E249.71958
G1 X177.928 Y163.353 E249.84384
G1 X176.946 Y164.161 E249.97073
G1 X175.921 Y164.867 E250.09491
G1 X174.830 Y165.488 E250.22017
G1 X173.680 Y166.016 E250.34644
G1 X172.512 Y166.436 E250.47029
G1 X171.299 Y166.758 E250.59551
G1 X170.052 Y166.976 E250.72183
G1 X168.804 Y167.085 E250.84683
G1 X167.548 Y167.087 E250.97215
G1 X166.303 Y166.980 E251.09683
G1 X165.057 Y166.765 E251.22300
G1 X163.858 Y166.449 E251.34672
G1 X162.665 Y166.023 E251.47312
G1 X161.524 Y165.502 E251.59828
G1 X160.432 Y164.884 E251.72348
G1 X159.398 Y164.175 E251.84857
G1 X158.434 Y163.384 E251.97300
G1 X157.525 Y162.497 E252.09973
G1 X156.711 Y161.553 E252.22410
G1 X155.972 Y160.530 E252.35002
G1 X155.332 Y159.463 E252.47417
G1 X154.911 Y158.600 E252.56998
G1 X160.291 Y156.249 E253.15582
G1 F2100 E252.75582
G1 Z1.200
G0 F12000 X160.464 Y157.800
;TYPE:SKIN
G1 Z0.800
G1 F2100 E253.15582
G1 F1980 X158.762 Y157.800 E253.32565
G0 F12000 X157.388 Y158.400
G1 F1980 X160.916 Y158.400 E253.67767
G0 F12000 X161.442 Y159.000
G1 F1980 X156.015 Y159.000 E254.21918
G0 F12000 X156.357 Y159.600
G1 F1980 X162.068 Y159.600 E254.78902
G1 F2100 E254.38902
G1 Z1.200
G0 F12000 X160.193 Y147.600
G1 Z0.800
G1 F2100 E254.78902
G1 F1980 X159.680 Y147.600 E254.84021
G0 F12000 X160.600 Y147.000
G1 F1980 X158.299 Y147.000 E255.06981
G1 F2100 E254.66981
G1 Z1.200
G0 F12000 X156.918 Y146.400
G1 Z0.800
G1 F2100 E255.06981
G1 F1980 X161.081 Y146.400 E255.48519
G0 F12000 X161.640 Y145.800
G1 F1980 X156.118 Y145.800 E256.03618
G0 F12000 X156.477 Y145.200
G1 F1980 X162.306 Y145.200 E256.61780
G0 F12000 X163.139 Y144.600
G1 F1980 X156.878 Y144.600 E257.24252
G0 F12000 X157.309 Y144.000
G1 F1980 X164.254 Y144.000 E257.93550
G1 F2100 E257.53550
G1 Z1.200
G0 F12000 X165.716 Y143.400
G1 Z0.800
G1 F2100 E257.93550
G1 F1980 X157.819 Y143.400 E258.72347
G0 F12000 X158.378 Y142.800
G1 F1980 X177.948 Y142.800 E260.67617
G0 F12000 X178.507 Y143.400
G1 F1980 X170.570 Y143.400 E261.46813
G0 F12000 X170.121 Y143.400
G1 F1980 X166.182 Y143.400 E261.86116
G0 F12000 X166.403 Y144.000
G1 F1980 X169.915 Y144.000 E262.21159
G0 F12000 X169.708 Y144.600
G1 F1980 X166.618 Y144.600 E262.51991
G0 F12000 X166.824 Y145.200
G1 F1980 X169.502 Y145.200 E262.78712
G0 F12000 X169.295 Y145.800
G1 F1980 X167.031 Y145.800 E263.01303
G0 F12000 X167.237 Y146.400
G1 F1980 X169.089 Y146.400 E263.19782
G0 F12000 X168.882 Y147.000
G1 F1980 X167.444 Y147.000 E263.34130
G0 F12000 X167.650 Y147.600
G1 F1980 X168.572 Y147.900 E263.44353
G1 X167.959 Y148.500 E263.50473
G1 X168.262 Y148.800 E263.54727
G1 F2100 E263.14727
G1 Z1.200
G0 F12000 X172.062 Y144.000
G1 Z0.800
G1 F2100 E263.54727
G1 F1980 X179.018 Y144.000 E264.24134
G0 F12000 X179.452 Y144.600
G1 F1980 X173.183 Y144.600 E264.86687
G0 F12000 X174.017 Y145.200
G1 F1980 X179.849 Y145.200 E265.44879
G0 F12000 X180.208 Y145.800
G1 F1980 X174.680 Y145.800 E266.00037
G0 F12000 X175.244 Y146.400
G1 F1980 X179.391 Y146.400 E266.41416
G0 F12000 X178.018 Y147.000
G1 F1980 X175.726 Y147.000 E266.64286
G0 F12000 X176.130 Y147.600
G1 F1980 X176.646 Y147.600 E266.69435
G1 F2100 E266.29435
G1 Z1.200
G0 F12000 X177.330 Y142.200
G1 Z0.800
G1 F2100 E266.69435
G1 F1980 X158.999 Y142.200 E268.52342
G0 F12000 X159.728 Y141.600
G1 F1980 X176.598 Y141.600 E270.20672
G0 F12000 X175.753 Y141.000
G1 F1980 X160.574 Y141.000 E271.72128
G0 F12000 X161.573 Y140.400
G1 F1980 X174.755 Y140.400 E273.03659
G1 F2100 E272.63659
G1 Z1.200
G0 F12000 X175.863 Y157.800
G1 Z0.800
G1 F2100 E273.03659
G1 F1980 X177.572 Y157.800 E273.20711
G1 F2100 E272.80711
G1 Z1.200
G0 F12000 X178.953 Y158.400
G1 Z0.800
G1 F2100 E273.20711
G1 F1980 X175.412 Y158.400 E273.56043
G0 F12000 X174.887 Y159.000
G1 F1980 X180.324 Y159.000 E274.10294
G0 F12000 X179.965 Y159.600
G1 F1980 X174.256 Y159.600 E274.67259
G0 F12000 X173.471 Y160.200
G1 F1980 X179.591 Y160.200 E275.28324
G0 F12000 X179.160 Y160.800
G1 F1980 X172.476 Y160.800 E275.95018
G1 F2100 E275.55018
G1 Z1.200
G0 F12000 X171.013 Y161.400
G1 Z0.800
G1 F2100 E275.95018
G1 F1980 X178.676 Y161.400 E276.71479
G0 F12000 X178.149 Y162.000
G1 F1980 X158.173 Y162.000 E278.70801
G0 F12000 X157.647 Y161.400
G1 F1980 X165.313 Y161.400 E279.47292
G1 F2100 E279.07292
G1 Z1.200
G0 F12000 X163.847 Y160.800
G1 Z0.800
G1 F2100 E279.47292
G1 F1980 X157.165 Y160.800 E280.13966
G0 F12000 X156.732 Y160.200
G1 F1980 X162.853 Y160.200 E280.75041
G1 F2100 E280.35041
G1 Z1.200
G0 F12000 X160.283 Y163.800
G1 Z0.800
G1 F2100 E280.75041
G1 F1980 X176.039 Y163.800 E282.32255
G0 F12000 X176.836 Y163.200
G1 F1980 X159.487 Y163.200 E284.05364
G0 F12000 X158.790 Y162.600
G1 F1980 X177.536 Y162.600 E285.92412
G1 F2100 E285.52412
G1 Z1.200
G0 F12000 X175.101 Y164.400
G1 Z0.800
G1 F2100 E285.92412
G1 F1980 X161.222 Y164.400 E287.30898
G0 F12000 X162.376 Y165.000
G1 F1980 X173.947 Y165.000 E288.46354
G1 F2100 E288.06354
G1 Z1.200
G0 F12000 X172.438 Y165.600
G1 Z0.800
G1 F2100 E288.46354
G1 F1980 X163.893 Y165.600 E289.31616
G1 F2100 E288.91616
G1 Z1.200
G0 F12000 X166.700 Y166.200
G1 Z0.800
G1 F2100 E289.31616
G1 F1980 X169.597 Y166.200 E289.60522
G1 F2100 E289.20522
G1 Z1.200
G0 F12000 X173.515 Y139.800
G1 Z0.800
G1 F2100 E289.60522
G1 F1980 X162.809 Y139.800 E290.67347
G1 F2100 E290.27347
G1 Z1.200
G0 F12000 X164.573 Y139.200
G1 Z0.800
G1 F2100 E290.67347
G1 F1980 X171.762 Y139.200 E291.39079
;LAYER:2
M106 S40
G1 F2100 E290.99079
G1 Z1.200
G0 F12000 X149.140 Y145.823 Z1.200
;TYPE:WALL-INNER
G1 Z1.200
G1 F2100 E291.39079
G1 F2220 X149.279 Y146.109 E291.42252
G1 X144.819 Y148.048 E291.90778
G1 X144.717 Y147.850 E291.93001
G1 X144.121 Y146.962 E292.03672
G1 X143.445 Y146.173 E292.14039
G1 X142.635 Y145.422 E292.25060
G1 X141.771 Y144.795 E292.35712
G1 X140.837 Y144.271 E292.46398
G1 X139.892 Y143.879 E292.56606
G1 X138.979 Y143.513 E292.66421
G1 X136.952 Y149.400 E293.28546
G1 X136.902 Y149.494 E293.29609
G1 X136.860 Y149.518 E293.30091
G1 X136.833 Y149.522 E293.30364
G1 X136.792 Y149.510 E293.30790
G1 X136.774 Y149.497 E293.31012
G1 X136.755 Y149.475 E293.31302
G1 X134.691 Y143.506 E293.94321
G1 X132.884 Y144.246 E294.13804
G1 X131.947 Y144.765 E294.24492
G1 X131.077 Y145.388 E294.35169
G1 X130.286 Y146.110 E294.45855
G1 X129.585 Y146.918 E294.56529
G1 X128.982 Y147.803 E294.67215
G1 X128.854 Y148.049 E294.69981
G1 X124.392 Y146.109 E295.18530
G1 X124.514 Y145.857 E295.21323
G1 X125.122 Y144.835 E295.33189
G1 X125.829 Y143.852 E295.45271
G1 X126.615 Y142.935 E295.57322
G1 X127.466 Y142.100 E295.69218
G1 X128.399 Y141.331 E295.81282
G1 X129.406 Y140.636 E295.93491
G1 X130.434 Y140.052 E296.05288
G1 X131.527 Y139.549 E296.17293
G1 X132.668 Y139.138 E296.29394
G1 X133.832 Y138.828 E296.41414
G1 X135.002 Y138.622 E296.53267
G1 X136.217 Y138.516 E296.65437
G1 X137.413 Y138.513 E296.77371
G1 X138.617 Y138.615 E296.89427
G1 X139.796 Y138.818 E297.01364
G1 X140.963 Y139.124 E297.13402
G1 X142.101 Y139.530 E297.25458
G1 X143.198 Y140.031 E297.37492
G1 X144.236 Y140.617 E297.49386
G1 X145.238 Y141.303 E297.61502
G1 X146.172 Y142.069 E297.73555
G1 X147.021 Y142.897 E297.85388
G1 X147.815 Y143.815 E297.97499
G1 X148.521 Y144.793 E298.09534
G1 X149.140 Y145.823 E298.21525
G1 F2100 E297.81525
G1 Z1.600
G0 F12000 X144.776 Y157.049
G1 Z1.200
G1 F2100 E298.21525
G1 F2220 X144.823 Y156.953 E298.22591
G1 X149.281 Y158.891 E298.71095
G1 X149.164 Y159.132 E298.73768
G1 X148.546 Y160.170 E298.85822
G1 X147.844 Y161.148 E298.97834
G1 X147.057 Y162.065 E299.09892
G1 X146.206 Y162.900 E299.21788
G1 X145.274 Y163.669 E299.33844
G1 X144.266 Y164.364 E299.46061
G1 X143.238 Y164.948 E299.57858
G1 X142.142 Y165.452 E299.69895
G1 X141.008 Y165.861 E299.81924
G1 X139.840 Y166.172 E299.93984
G1 X138.670 Y166.378 E300.05838
G1 X137.456 Y166.484 E300.17997
G1 X136.260 Y166.487 E300.29931
G1 X135.055 Y166.385 E300.41998
G1 X133.876 Y166.182 E300.53935
G1 X132.710 Y165.876 E300.65963
G1 X131.572 Y165.470 E300.78019
G1 X130.474 Y164.969 E300.90062
G1 X129.428 Y164.378 E301.02050
G1 X128.436 Y163.698 E301.14050
G1 X127.504 Y162.935 E301.26069
G1 X126.645 Y162.098 E301.38036
G1 X125.856 Y161.184 E301.50084
G1 X125.156 Y160.216 E301.62003
G1 X124.533 Y159.177 E301.74091
G1 X124.394 Y158.891 E301.77264
G1 X128.846 Y156.955 E302.25705
G1 X128.869 Y157.003 E302.26236
G1 X129.450 Y157.902 E302.36916
G1 X130.132 Y158.727 E302.47597
G1 X130.904 Y159.467 E302.58267
G1 X131.759 Y160.113 E302.68960
G1 X132.682 Y160.653 E302.79630
G1 X133.664 Y161.083 E302.90327
G1 X134.687 Y161.393 E303.00993
G1 X135.740 Y161.584 E303.11671
G1 X136.775 Y161.648 E303.22018
G1 X136.877 Y161.651 E303.23036
G1 X137.880 Y161.591 E303.33062
G1 X138.933 Y161.406 E303.43730
G1 X139.958 Y161.102 E303.54398
G1 X140.941 Y160.678 E303.65079
G1 X141.869 Y160.143 E303.75768
G1 X142.727 Y159.503 E303.86448
G1 X143.504 Y158.766 E303.97134
G1 X144.189 Y157.945 E304.07803
G1 X144.776 Y157.049 E304.18491
G0 F12000 X144.255 Y156.750
;TYPE:WALL-OUTER
G1 F2220 X144.699 Y155.855 E304.28460
G1 X145.034 Y154.922 E304.38351
G1 X145.263 Y153.939 E304.48422
G1 X145.373 Y152.955 E304.58302
G1 X145.377 Y152.889 E304.58962
G1 X145.368 Y151.958 E304.68252
G1 X145.365 Y151.893 E304.68901
G1 X145.245 Y150.953 E304.78356
G1 X145.009 Y149.992 E304.88230
G1 X144.657 Y149.044 E304.98320
G1 X144.200 Y148.155 E305.08294
G1 X143.642 Y147.326 E305.18265
G1 X142.998 Y146.574 E305.28144
G1 X142.255 Y145.887 E305.38241
G1 X141.447 Y145.301 E305.48201
G1 X140.574 Y144.812 E305.58185
G1 X139.665 Y144.434 E305.68008
G1 X139.341 Y144.304 E305.71491
G1 X137.520 Y149.594 E306.27315
G1 X137.426 Y149.803 E306.29602
G1 X137.317 Y149.934 E306.31302
G1 X137.169 Y150.042 E306.33130
G1 X137.012 Y150.104 E306.34815
G1 X136.835 Y150.126 E306.36594
G1 X136.662 Y150.105 E306.38333
G1 X136.503 Y150.042 E306.40040
G1 X136.360 Y149.939 E306.41798
G1 X136.249 Y149.805 E306.43534
G1 X136.172 Y149.648 E306.45279
G1 X134.330 Y144.302 E307.01699
G1 X133.144 Y144.788 E307.14488
G1 X132.268 Y145.273 E307.24479
G1 X131.455 Y145.855 E307.34456
G1 X130.716 Y146.529 E307.44436
G1 X130.061 Y147.285 E307.54417
G1 X129.498 Y148.112 E307.64399
G1 X129.037 Y148.998 E307.74365
G1 X128.681 Y149.934 E307.84357
G1 X128.438 Y150.903 E307.94325
G1 X128.308 Y151.895 E308.04308
G1 X128.295 Y152.894 E308.14277
G1 X128.399 Y153.889 E308.24259
G1 X128.619 Y154.865 E308.34242
G1 X128.952 Y155.808 E308.44221
G1 X129.392 Y156.707 E308.54208
G1 X129.935 Y157.547 E308.64188
G1 X130.572 Y158.318 E308.74167
G1 X131.294 Y159.010 E308.84146
G1 X132.092 Y159.613 E308.94126
G1 X132.955 Y160.118 E309.04103
G1 X133.872 Y160.519 E309.14090
G1 X134.828 Y160.809 E309.24058
G1 X135.813 Y160.987 E309.34045
G1 X136.800 Y161.049 E309.43913
G1 X136.866 Y161.050 E309.44572
G1 X137.810 Y160.994 E309.54008
G1 X138.795 Y160.821 E309.63986
G1 X139.753 Y160.537 E309.73957
G1 X140.672 Y160.141 E309.83941
G1 X141.538 Y159.641 E309.93919
G1 X142.340 Y159.043 E310.03901
G1 X143.066 Y158.355 E310.13881
G1 X143.706 Y157.587 E310.23857
G1 X144.255 Y156.750 E310.33845
G0 F12000 X144.699 Y156.245
G1 F2220 X150.094 Y158.591 E310.92545
G1 X149.694 Y159.415 E311.01685
G1 X149.047 Y160.500 E311.14290
G1 X148.315 Y161.521 E311.26825
G1 X147.497 Y162.472 E311.39342
G1 X146.602 Y163.351 E311.51859
G1 X145.636 Y164.149 E311.64361
G1 X144.596 Y164.865 E311.76959
G1 X143.512 Y165.482 E311.89405
G1 X142.366 Y166.010 E312.01995
G1 X141.190 Y166.434 E312.14469
G1 X139.970 Y166.758 E312.27064
G1 X138.745 Y166.974 E312.39476
G1 X137.487 Y167.084 E312.52076
G1 X136.234 Y167.087 E312.64578
G1 X134.986 Y166.981 E312.77076
G1 X133.738 Y166.767 E312.89710
G1 X132.538 Y166.452 E313.02089
G1 X131.346 Y166.026 E313.14720
G1 X130.198 Y165.503 E313.27308
G1 X129.115 Y164.891 E313.39720
G1 X128.077 Y164.180 E313.52274
G1 X127.105 Y163.383 E313.64816
G1 X126.207 Y162.508 E313.77326
G1 X125.387 Y161.559 E313.89841
G1 X124.648 Y160.536 E314.02433
G1 X124.010 Y159.472 E314.14812
G1 X123.579 Y158.591 E314.24598
G1 X128.635 Y156.393 E314.79608
G1 X128.963 Y156.248 E314.83187
G1 X128.550 Y155.147 E314.94920
G1 X128.320 Y154.275 E315.03918
G1 X128.185 Y153.404 E315.12713
G1 X128.137 Y152.499 E315.21756
G1 X128.181 Y151.641 E315.30328
G1 X128.182 Y151.607 E315.30668
G1 X128.310 Y150.780 E315.39018
G1 X128.538 Y149.893 E315.48156
G1 X128.847 Y149.059 E315.57031
G1 X128.974 Y148.755 E315.60318
G1 X123.579 Y146.409 E316.19019
G1 X123.982 Y145.579 E316.28225
G1 X124.621 Y144.505 E316.40695
G1 X125.358 Y143.479 E316.53300
G1 X126.175 Y142.527 E316.65817
G1 X127.070 Y141.649 E316.78327
G1 X128.037 Y140.851 E316.90837
G1 X129.076 Y140.135 E317.03428
G1 X130.160 Y139.518 E317.15873
G1 X131.307 Y138.990 E317.28473
G1 X132.482 Y138.566 E317.40937
G1 X133.702 Y138.242 E317.53532
G1 X134.927 Y138.026 E317.65944
G1 X136.186 Y137.916 E317.78554
G1 X137.439 Y137.913 E317.91056
G1 X138.686 Y138.019 E318.03544
G1 X139.934 Y138.233 E318.16178
G1 X141.135 Y138.548 E318.28567
G1 X142.327 Y138.974 E318.41198
G1 X143.474 Y139.497 E318.53776
G1 X144.549 Y140.104 E318.66094
G1 X145.606 Y140.828 E318.78878
G1 X146.567 Y141.617 E318.91285
G1 X147.465 Y142.492 E319.03795
G1 X148.286 Y143.441 E319.16316
G1 X149.024 Y144.465 E319.28911
G1 X149.662 Y145.526 E319.41264
G1 X150.094 Y146.409 E319.51073
G1 X145.038 Y148.607 E320.06083
G1 X144.710 Y148.752 E320.09661
G1 X145.123 Y149.853 E320.21394
G1 X145.353 Y150.725 E320.30393
G1 X145.488 Y151.593 E320.39158
G1 X145.535 Y152.500 E320.48220
G1 X145.492 Y153.359 E320.56802
G1 X145.491 Y153.393 E320.57141
G1 X145.363 Y154.220 E320.65491
G1 X145.135 Y155.107 E320.74629
G1 X144.826 Y155.941 E320.83504
G1 X144.699 Y156.245 E320.86791
G0 F12000 X145.200 Y157.346
;TYPE:SKIN
G1 F2220 X145.200 Y163.459 E321.47787
G0 F12000 X144.600 Y163.879
G1 F2220 X144.600 Y157.700 E322.09441
G0 F12000 X144.000 Y158.498
G1 F2220 X144.000 Y164.273 E322.67065
G0 F12000 X143.400 Y164.615
G1 F2220 X143.400 Y159.154 E323.21555
G0 F12000 X142.800 Y159.710
G1 F2220 X142.800 Y164.919 E323.73530
G0 F12000 X142.200 Y165.194
G1 F2220 X142.200 Y160.157 E324.23790
G0 F12000 X141.600 Y160.540
G1 F2220 X141.600 Y165.425 E324.72532
G0 F12000 X141.000 Y165.641
G1 F2220 X141.000 Y160.881 E325.20028
G0 F12000 X140.400 Y161.139
G1 F2220 X140.400 Y165.806 E325.66595
G1 F2100 E325.26595
G1 Z1.600
G0 F12000 X145.800 Y162.963
G1 Z1.200
G1 F2100 E325.66595
G1 F2220 X145.800 Y157.607 E326.20038
G0 F12000 X146.400 Y157.867
G1 F2220 X146.400 Y162.416 E326.65428
G0 F12000 X147.000 Y161.810
G1 F2220 X147.000 Y158.128 E327.02167
G0 F12000 X147.600 Y158.389
G1 F2220 X147.600 Y161.111 E327.29327
G0 F12000 X148.200 Y160.292
G1 F2220 X148.200 Y158.650 E327.45711
G0 F12000 X148.800 Y158.911
G1 F2220 X148.800 Y159.333 E327.49922
G1 F2100 E327.09922
G1 Z1.600
G0 F12000 X145.200 Y147.654
G1 Z1.200
G1 F2100 E327.49922
G1 F2220 X145.200 Y141.544 E328.10888
G0 F12000 X144.600 Y141.121
G1 F2220 X144.600 Y147.298 E328.72522
G0 F12000 X144.000 Y146.497
G1 F2220 X144.000 Y140.725 E329.30115
G0 F12000 X143.400 Y140.386
G1 F2220 X143.400 Y145.844 E329.84576
G0 F12000 X142.800 Y145.288
G1 F2220 X142.800 Y140.081 E330.36531
G0 F12000 X142.200 Y139.808
G1 F2220 X142.200 Y144.846 E330.86801
G0 F12000 X141.600 Y144.458
G1 F2220 X141.600 Y139.576 E331.35513
G0 F12000 X141.000 Y139.361
G1 F2220 X141.000 Y144.122 E331.83019
G0 F12000 X140.400 Y143.862
G1 F2220 X140.400 Y139.194 E332.29596
G0 F12000 X139.800 Y139.037
G1 F2220 X139.800 Y143.615 E332.75276
G0 F12000 X139.200 Y143.375
G1 F2220 X139.200 Y138.930 E333.19628
G0 F12000 X138.600 Y138.827
G1 F2220 X138.600 Y143.968 E333.70925
G1 F2100 E333.30925
G1 Z1.600
G0 F12000 X138.000 Y145.710
G1 Z1.200
G1 F2100 E333.70925
G1 F2220 X138.000 Y138.774 E334.40133
G0 F12000 X137.400 Y138.723
G1 F2220 X137.400 Y147.452 E335.27231
G0 F12000 X136.200 Y147.226
G1 F2220 X136.200 Y138.728 E336.12025
G0 F12000 X136.800 Y138.724
G1 F2220 X136.800 Y148.892 E337.13481
G1 F2100 E336.73481
G1 Z1.600
G0 F12000 X135.600 Y145.491
G1 Z1.200
G1 F2100 E337.13481
G1 F2220 X135.600 Y138.780 E337.80444
G0 F12000 X135.000 Y138.835
G1 F2220 X135.000 Y143.756 E338.29546
G0 F12000 X134.400 Y143.398
G1 F2220 X134.400 Y138.940 E338.74028
G0 F12000 X133.800 Y139.054
G1 F2220 X133.800 Y143.644 E339.19827
G0 F12000 X133.200 Y143.890
G1 F2220 X133.200 Y139.213 E339.66495
G0 F12000 X132.600 Y139.385
G1 F2220 X132.600 Y144.164 E340.14180
G0 F12000 X132.000 Y144.496
G1 F2220 X132.000 Y139.601 E340.63022
G0 F12000 X131.400 Y139.839
G1 F2220 X131.400 Y144.898 E341.13501
G0 F12000 X130.800 Y145.357
G1 F2220 X130.800 Y140.114 E341.65816
G0 F12000 X130.200 Y140.426
G1 F2220 X130.200 Y145.904 E342.20476
G0 F12000 X129.600 Y146.581
G1 F2220 X129.600 Y140.767 E342.78488
G0 F12000 X129.000 Y141.171
G1 F2220 X129.000 Y147.404 E343.40681
G0 F12000 X128.400 Y147.622
G1 F2220 X128.400 Y141.602 E344.00749
G0 F12000 X127.800 Y142.097
G1 F2220 X127.800 Y147.361 E344.53273
G0 F12000 X127.200 Y147.101
G1 F2220 X127.200 Y142.654 E344.97646
G0 F12000 X126.600 Y143.274
G1 F2220 X126.600 Y146.840 E345.33227
G0 F12000 X126.000 Y146.579
G1 F2220 X126.000 Y143.974 E345.59220
G0 F12000 X125.400 Y144.809
G1 F2220 X125.400 Y146.318 E345.74277
G0 F12000 X124.800 Y146.057
G1 F2220 X124.800 Y145.787 E345.76971
G1 F2100 E345.36971
G1 Z1.600
G0 F12000 X128.400 Y157.377
G1 Z1.200
G1 F2100 E345.76971
G1 F2220 X128.400 Y163.397 E346.37039
G0 F12000 X129.000 Y163.830
G1 F2220 X129.000 Y157.592 E346.99282
G0 F12000 X129.600 Y158.414
G1 F2220 X129.600 Y164.233 E347.57344
G0 F12000 X130.200 Y164.572
G1 F2220 X130.200 Y159.084 E348.12104
G0 F12000 X130.800 Y159.652
G1 F2220 X130.800 Y164.886 E348.64329
G0 F12000 X131.400 Y165.159
G1 F2220 X131.400 Y160.106 E349.14748
G0 F12000 X132.000 Y160.498
G1 F2220 X132.000 Y165.398 E349.63640
G0 F12000 X132.600 Y165.613
G1 F2220 X132.600 Y160.847 E350.11195
G0 F12000 X133.200 Y161.110
G1 F2220 X133.200 Y165.787 E350.57863
G0 F12000 X133.800 Y165.945
G1 F2220 X133.800 Y161.344 E351.03772
G0 F12000 X134.400 Y161.526
G1 F2220 X134.400 Y166.058 E351.48992
G0 F12000 X135.000 Y166.161
G1 F2220 X135.000 Y161.663 E351.93873
G0 F12000 X135.600 Y161.771
G1 F2220 X135.600 Y166.219 E352.38256
G0 F12000 X136.200 Y166.271
G1 F2220 X136.200 Y161.823 E352.82638
G0 F12000 X136.800 Y161.859
G1 F2220 X136.800 Y166.276 E353.26711
G0 F12000 X137.400 Y166.275
G1 F2220 X137.400 Y161.829 E353.71073
G0 F12000 X138.000 Y161.782
G1 F2220 X138.000 Y166.226 E354.15416
G0 F12000 X138.600 Y166.174
G1 F2220 X138.600 Y161.677 E354.60287
G0 F12000 X139.200 Y161.546
G1 F2220 X139.200 Y166.072 E355.05448
G0 F12000 X139.800 Y165.966
G1 F2220 X139.800 Y161.368 E355.51327
G1 F2100 E355.11327
G1 Z1.600
G0 F12000 X127.800 Y162.905
G1 Z1.200
G1 F2100 E355.51327
G1 F2220 X127.800 Y157.638 E356.03881
G0 F12000 X127.200 Y157.899
G1 F2220 X127.200 Y162.346 E356.48253
G0 F12000 X126.600 Y161.725
G1 F2220 X126.600 Y158.160 E356.83825
G0 F12000 X126.000 Y158.421
G1 F2220 X126.000 Y161.025 E357.09808
G0 F12000 X125.400 Y160.195
G1 F2220 X125.400 Y158.682 E357.24905
G0 F12000 X124.800 Y158.942
G1 F2220 X124.800 Y159.214 E357.27619
G1 F2100 E356.87619
G1 Z1.600
G0 F12000 X145.800 Y147.393
G1 Z1.200
G1 F2100 E357.27619
G1 F2220 X145.800 Y142.036 E357.81071
G0 F12000 X146.400 Y142.585
G1 F2220 X146.400 Y147.132 E358.26441
G0 F12000 X147.000 Y146.872
G1 F2220 X147.000 Y143.193 E358.63150
G0 F12000 X147.600 Y143.887
G1 F2220 X147.600 Y146.611 E358.90331
G0 F12000 X148.200 Y146.350
G1 F2220 X148.200 Y144.707 E359.06725
G0 F12000 X148.800 Y145.665
G1 F2220 X148.800 Y146.089 E359.10955
G1 F2100 E358.70955
G1 Z1.600
G0 F12000 X155.839 Y145.863
;TYPE:WALL-INNER
G1 Z1.200
G1 F2100 E359.10955
G1 F2220 X156.454 Y144.830 E359.22951
G1 X157.156 Y143.852 E359.34963
G1 X157.943 Y142.935 E359.47021
G1 X158.794 Y142.100 E359.58917
G1 X159.726 Y141.331 E359.70973
G1 X160.734 Y140.636 E359.83190
G1 X161.762 Y140.052 E359.94987
G1 X162.858 Y139.548 E360.07024
G1 X163.992 Y139.139 E360.19053
G1 X165.160 Y138.828 E360.31113
G1 X166.330 Y138.622 E360.42967
G1 X167.544 Y138.516 E360.55126
G1 X168.740 Y138.513 E360.67060
G1 X169.945 Y138.615 E360.79127
G1 X171.124 Y138.818 E360.91064
G1 X172.290 Y139.124 E361.03092
G1 X173.428 Y139.530 E361.15148
G1 X174.526 Y140.031 E361.27191
G1 X175.572 Y140.622 E361.39178
G1 X176.564 Y141.302 E361.51179
G1 X177.496 Y142.065 E361.63197
G1 X178.355 Y142.902 E361.75165
G1 X179.144 Y143.816 E361.87213
G1 X179.844 Y144.784 E361.99132
G1 X180.467 Y145.823 E362.11220
G1 X180.606 Y146.109 E362.14393
G1 X176.147 Y148.048 E362.62910
G1 X176.046 Y147.850 E362.65128
G1 X175.449 Y146.962 E362.75804
G1 X174.773 Y146.173 E362.86171
G1 X173.963 Y145.421 E362.97200
G1 X173.098 Y144.795 E363.07854
G1 X172.164 Y144.271 E363.18540
G1 X171.220 Y143.879 E363.28739
G1 X170.307 Y143.513 E363.38554
G1 X168.279 Y149.400 E364.00682
G1 X168.245 Y149.475 E364.01504
G1 X168.209 Y149.509 E364.01998
G1 X168.161 Y149.522 E364.02494
G1 X168.121 Y149.511 E364.02908
G1 X168.099 Y149.495 E364.03179
G1 X168.082 Y149.475 E364.03441
G1 X166.019 Y143.506 E364.66457
G1 X164.211 Y144.246 E364.85950
G1 X163.274 Y144.765 E364.96638
G1 X162.405 Y145.388 E365.07307
G1 X161.614 Y146.110 E365.17993
G1 X160.913 Y146.918 E365.28667
G1 X160.310 Y147.803 E365.39352
G1 X160.182 Y148.049 E365.42119
G1 X155.719 Y146.109 E365.90676
G1 X155.839 Y145.863 E365.93407
G1 F2100 E365.53407
G1 Z1.600
G0 F12000 X160.196 Y157.003
G1 Z1.200
G1 F2100 E365.93407
G1 F2220 X160.778 Y157.902 E366.04093
G1 X161.458 Y158.726 E366.14753
G1 X162.231 Y159.467 E366.25438
G1 X163.086 Y160.113 E366.36130
G1 X164.010 Y160.653 E366.46809
G1 X164.991 Y161.083 E366.57497
G1 X166.014 Y161.393 E366.68163
G1 X167.068 Y161.584 E366.78851
G1 X168.102 Y161.648 E366.89188
G1 X168.204 Y161.651 E366.90206
G1 X169.207 Y161.591 E367.00232
G1 X170.260 Y161.406 E367.10900
G1 X171.285 Y161.102 E367.21567
G1 X172.269 Y160.678 E367.32258
G1 X173.196 Y160.143 E367.42938
G1 X174.054 Y159.503 E367.53619
G1 X174.831 Y158.766 E367.64304
G1 X175.517 Y157.945 E367.74980
G1 X176.103 Y157.049 E367.85662
G1 X176.151 Y156.954 E367.86724
G1 X180.608 Y158.891 E368.35215
G1 X180.489 Y159.138 E368.37950
G1 X179.878 Y160.165 E368.49874
G1 X179.171 Y161.148 E368.61956
G1 X178.385 Y162.065 E368.74007
G1 X177.534 Y162.900 E368.85903
G1 X176.601 Y163.669 E368.97968
G1 X175.594 Y164.364 E369.10176
G1 X174.566 Y164.948 E369.21973
G1 X173.473 Y165.451 E369.33979
G1 X172.332 Y165.862 E369.46080
G1 X171.168 Y166.172 E369.58099
G1 X169.998 Y166.378 E369.69953
G1 X168.783 Y166.484 E369.82122
G1 X167.587 Y166.487 E369.94056
G1 X166.383 Y166.385 E370.06113
G1 X165.204 Y166.182 E370.18050
G1 X164.037 Y165.876 E370.30088
G1 X162.899 Y165.470 E370.42144
G1 X161.802 Y164.969 E370.54177
G1 X160.764 Y164.383 E370.66071
G1 X159.762 Y163.697 E370.78188
G1 X158.827 Y162.930 E370.90255
G1 X157.979 Y162.103 E371.02073
G1 X157.185 Y161.185 E371.14184
G1 X156.479 Y160.207 E371.26220
G1 X155.858 Y159.173 E371.38255
G1 X155.721 Y158.891 E371.41383
G1 X160.173 Y156.955 E371.89824
G1 X160.196 Y157.003 E371.90355
G0 F12000 X160.719 Y156.707
;TYPE:WALL-OUTER
G1 F2220 X161.263 Y157.547 E372.00340
G1 X161.899 Y158.317 E372.10306
G1 X162.621 Y159.010 E372.20291
G1 X163.419 Y159.613 E372.30271
G1 X164.283 Y160.118 E372.40257
G1 X165.199 Y160.519 E372.50234
G1 X166.155 Y160.809 E372.60203
G1 X167.140 Y160.987 E372.70190
G1 X168.127 Y161.049 E372.80058
G1 X168.193 Y161.050 E372.80716
G1 X169.137 Y160.994 E372.90152
G1 X170.122 Y160.821 E373.00131
G1 X171.080 Y160.537 E373.10101
G1 X172.000 Y160.141 E373.20095
G1 X172.865 Y159.641 E373.30064
G1 X173.667 Y159.043 E373.40047
G1 X174.393 Y158.355 E373.50027
G1 X175.034 Y157.587 E373.60008
G1 X175.582 Y156.750 E373.69991
G1 X176.027 Y155.855 E373.79964
G1 X176.362 Y154.922 E373.89855
G1 X176.591 Y153.939 E373.99926
G1 X176.700 Y152.955 E374.09805
G1 X176.704 Y152.889 E374.10465
G1 X176.695 Y151.958 E374.19755
G1 X176.692 Y151.893 E374.20404
G1 X176.572 Y150.953 E374.29859
G1 X176.336 Y149.992 E374.39733
G1 X175.984 Y149.044 E374.49823
G1 X175.528 Y148.155 E374.59793
G1 X174.970 Y147.326 E374.69764
G1 X174.326 Y146.574 E374.79643
G1 X173.583 Y145.887 E374.89740
G1 X172.774 Y145.301 E374.99707
G1 X171.901 Y144.812 E375.09692
G1 X170.993 Y144.434 E375.19505
G1 X170.669 Y144.304 E375.22989
G1 X168.847 Y149.594 E375.78816
G1 X168.753 Y149.803 E375.81102
G1 X168.641 Y149.938 E375.82853
G1 X168.498 Y150.041 E375.84611
G1 X168.339 Y150.104 E375.86318
G1 X168.163 Y150.126 E375.88087
G1 X167.989 Y150.105 E375.89836
G1 X167.832 Y150.043 E375.91520
G1 X167.686 Y149.936 E375.93327
G1 X167.576 Y149.805 E375.95033
G1 X167.500 Y149.650 E375.96756
G1 X165.658 Y144.302 E376.53195
G1 X164.471 Y144.788 E376.65993
G1 X163.595 Y145.273 E376.75984
G1 X162.783 Y145.855 E376.85953
G1 X162.044 Y146.529 E376.95933
G1 X161.389 Y147.285 E377.05913
G1 X160.826 Y148.112 E377.15896
G1 X160.364 Y148.998 E377.25866
G1 X160.008 Y149.934 E377.35858
G1 X159.765 Y150.903 E377.45827
G1 X159.635 Y151.895 E377.55809
G1 X159.622 Y152.894 E377.65778
G1 X159.728 Y153.889 E377.75763
G1 X159.947 Y154.865 E377.85743
G1 X160.280 Y155.808 E377.95722
G1 X160.719 Y156.707 E378.05705
G0 F12000 X160.290 Y156.248
G1 F2220 X159.877 Y155.147 E378.17438
G1 X159.647 Y154.275 E378.26436
G1 X159.512 Y153.404 E378.35231
G1 X159.465 Y152.499 E378.44273
G1 X159.508 Y151.641 E378.52845
G1 X159.509 Y151.607 E378.53185
G1 X159.637 Y150.780 E378.61535
G1 X159.865 Y149.893 E378.70673
G1 X160.174 Y149.059 E378.79548
G1 X160.301 Y148.755 E378.82835
G1 X154.906 Y146.409 E379.41536
G1 X155.307 Y145.584 E379.50689
G1 X155.953 Y144.500 E379.63280
G1 X156.685 Y143.479 E379.75815
G1 X157.503 Y142.528 E379.88332
G1 X158.398 Y141.649 E380.00849
G1 X159.364 Y140.851 E380.13351
G1 X160.404 Y140.135 E380.25950
G1 X161.488 Y139.518 E380.38395
G1 X162.634 Y138.990 E380.50985
G1 X163.810 Y138.566 E380.63459
G1 X165.030 Y138.242 E380.76054
G1 X166.255 Y138.026 E380.88466
G1 X167.513 Y137.916 E381.01066
G1 X168.766 Y137.913 E381.13568
G1 X170.014 Y138.019 E381.26066
G1 X171.262 Y138.233 E381.38700
G1 X172.462 Y138.548 E381.51079
G1 X173.654 Y138.974 E381.63710
G1 X174.802 Y139.497 E381.76298
G1 X175.884 Y140.108 E381.88696
G1 X176.923 Y140.820 E382.01264
G1 X177.895 Y141.617 E382.13806
G1 X178.793 Y142.492 E382.26317
G1 X179.613 Y143.441 E382.38831
G1 X180.352 Y144.464 E382.51423
G1 X180.989 Y145.526 E382.63780
G1 X181.421 Y146.409 E382.73589
G1 X176.365 Y148.607 E383.28599
G1 X176.037 Y148.752 E383.32177
G1 X176.450 Y149.853 E383.43910
G1 X176.680 Y150.725 E383.52909
G1 X176.815 Y151.593 E383.61674
G1 X176.863 Y152.500 E383.70737
G1 X176.819 Y153.359 E383.79319
G1 X176.818 Y153.393 E383.79658
G1 X176.690 Y154.220 E383.88008
G1 X176.462 Y155.107 E383.97147
G1 X176.153 Y155.941 E384.06021
G1 X176.026 Y156.245 E384.09309
G1 X181.421 Y158.591 E384.68009
G1 X181.018 Y159.421 E384.77216
G1 X180.379 Y160.495 E384.89686
G1 X179.642 Y161.521 E385.02290
G1 X178.825 Y162.473 E385.14808
G1 X177.930 Y163.351 E385.27318
G1 X176.963 Y164.149 E385.39828
G1 X175.924 Y164.865 E385.52418
G1 X174.840 Y165.482 E385.64864
G1 X173.693 Y166.010 E385.77463
G1 X172.518 Y166.434 E385.89927
G1 X171.298 Y166.758 E386.02523
G1 X170.073 Y166.974 E386.14934
G1 X168.814 Y167.084 E386.27544
G1 X167.561 Y167.087 E386.40047
G1 X166.314 Y166.981 E386.52534
G1 X165.066 Y166.767 E386.65169
G1 X163.865 Y166.452 E386.77558
G1 X162.673 Y166.026 E386.90188
G1 X161.526 Y165.503 E387.02767
G1 X160.451 Y164.896 E387.15085
G1 X159.394 Y164.172 E387.27869
G1 X158.433 Y163.383 E387.40275
G1 X157.535 Y162.508 E387.52786
G1 X156.714 Y161.559 E387.65307
G1 X155.976 Y160.535 E387.77901
G1 X155.334 Y159.468 E387.90327
G1 X154.907 Y158.591 E388.00059
G1 X159.962 Y156.393 E388.55060
G1 X160.290 Y156.248 E388.58639
G0 F12000 X160.200 Y157.396
;TYPE:SKIN
G1 F2220 X160.200 Y163.742 E389.21959
G0 F12000 X160.800 Y164.153
G1 F2220 X160.800 Y158.259 E389.80770
G0 F12000 X161.400 Y158.962
G1 F2220 X161.400 Y164.501 E390.36038
G0 F12000 X162.000 Y164.828
G1 F2220 X162.000 Y159.538 E390.88822
G1 F2100 E390.48822
G1 Z1.600
G0 F12000 X174.000 Y159.805
G1 Z1.200
G1 F2100 E390.88822
G1 F2220 X174.000 Y164.978 E391.40438
G0 F12000 X173.400 Y165.253
G1 F2220 X173.400 Y160.252 E391.90339
G0 F12000 X172.800 Y160.614
G1 F2220 X172.800 Y165.471 E392.38802
G0 F12000 X172.200 Y165.680
G1 F2220 X172.200 Y160.936 E392.86138
G0 F12000 X171.600 Y161.194
G1 F2220 X171.600 Y165.840 E393.32496
G0 F12000 X171.000 Y165.989
G1 F2220 X171.000 Y161.406 E393.78225
G0 F12000 X170.400 Y161.583
G1 F2220 X170.400 Y166.095 E394.23246
G0 F12000 X169.800 Y166.185
G1 F2220 X169.800 Y161.699 E394.68007
G0 F12000 X169.200 Y161.800
G1 F2220 X169.200 Y166.237 E395.12280
G0 F12000 X168.600 Y166.275
G1 F2220 X168.600 Y161.837 E395.56563
G0 F12000 X168.000 Y161.853
G1 F2220 X168.000 Y166.276 E396.00695
G0 F12000 X167.400 Y166.260
G1 F2220 X167.400 Y161.815 E396.45048
G0 F12000 X166.800 Y161.748
G1 F2220 X166.800 Y166.208 E396.89550
G0 F12000 X166.200 Y166.139
G1 F2220 X166.200 Y161.640 E397.34441
G0 F12000 X165.600 Y161.488
G1 F2220 X165.600 Y166.036 E397.79821
G0 F12000 X165.000 Y165.911
G1 F2220 X165.000 Y161.306 E398.25770
G0 F12000 X164.400 Y161.054
G1 F2220 X164.400 Y165.754 E398.72667
G0 F12000 X163.800 Y165.567
G1 F2220 X163.800 Y160.774 E399.20492
G0 F12000 X163.200 Y160.423
G1 F2220 X163.200 Y165.353 E399.69683
G0 F12000 X162.600 Y165.101
G1 F2220 X162.600 Y160.010 E400.20482
G1 F2100 E399.80482
G1 Z1.600
G0 F12000 X174.600 Y159.274
G1 Z1.200
G1 F2100 E400.20482
G1 F2220 X174.600 Y164.688 E400.74503
G0 F12000 X175.200 Y164.347
G1 F2220 X175.200 Y158.651 E401.31338
G0 F12000 X175.800 Y157.895
G1 F2220 X175.800 Y163.967 E401.91924
G0 F12000 X176.400 Y163.553
G1 F2220 X176.400 Y157.292 E402.54397
G0 F12000 X177.000 Y157.553
G1 F2220 X177.000 Y163.068 E403.09426
G0 F12000 X177.600 Y162.542
G1 F2220 X177.600 Y157.813 E403.56612
G0 F12000 X178.200 Y158.074
G1 F2220 X178.200 Y161.954 E403.95327
G0 F12000 X178.800 Y161.259
G1 F2220 X178.800 Y158.335 E404.24502
G0 F12000 X179.400 Y158.595
G1 F2220 X179.400 Y160.470 E404.43211
G0 F12000 X180.000 Y159.549
G1 F2220 X180.000 Y158.856 E404.50126
G1 F2100 E404.10126
G1 Z1.600
G0 F12000 X180.000 Y146.144
G1 Z1.200
G1 F2100 E404.50126
G1 F2220 X180.000 Y145.452 E404.57031
G0 F12000 X179.400 Y144.528
G1 F2220 X179.400 Y146.405 E404.75760
G0 F12000 X178.800 Y146.666
G1 F2220 X178.800 Y143.738 E405.04975
G0 F12000 X178.200 Y143.044
G1 F2220 X178.200 Y146.926 E405.43710
G0 F12000 X177.600 Y147.187
G1 F2220 X177.600 Y142.460 E405.90876
G0 F12000 X177.000 Y141.931
G1 F2220 X177.000 Y147.448 E406.45925
G0 F12000 X176.400 Y147.708
G1 F2220 X176.400 Y141.444 E407.08428
G0 F12000 X175.800 Y141.033
G1 F2220 X175.800 Y147.107 E407.69034
G0 F12000 X175.200 Y146.348
G1 F2220 X175.200 Y140.654 E408.25849
G0 F12000 X174.600 Y140.315
G1 F2220 X174.600 Y145.725 E408.79830
G0 F12000 X174.000 Y145.188
G1 F2220 X174.000 Y140.023 E409.31367
G0 F12000 X173.400 Y139.750
G1 F2220 X173.400 Y144.754 E409.81297
G0 F12000 X172.800 Y144.387
G1 F2220 X172.800 Y139.531 E410.29750
G0 F12000 X172.200 Y139.318
G1 F2220 X172.200 Y144.058 E410.77046
G0 F12000 X171.600 Y143.809
G1 F2220 X171.600 Y139.160 E411.23434
G0 F12000 X171.000 Y139.011
G1 F2220 X171.000 Y143.564 E411.68864
G0 F12000 X170.400 Y143.324
G1 F2220 X170.400 Y138.908 E412.12927
G0 F12000 X169.800 Y138.815
G1 F2220 X169.800 Y144.339 E412.68046
G1 F2100 E412.28046
G1 Z1.600
G0 F12000 X169.200 Y146.080
G1 Z1.200
G1 F2100 E412.68046
G1 F2220 X169.200 Y138.764 E413.41045
G0 F12000 X168.600 Y138.723
G1 F2220 X168.600 Y147.822 E414.31836
G0 F12000 X168.000 Y148.593
G1 F2220 X168.000 Y138.724 E415.30309
G0 F12000 X167.400 Y138.739
G1 F2220 X167.400 Y146.858 E416.11321
G1 F2100 E415.71321
G1 Z1.600
G0 F12000 X166.800 Y145.122
G1 Z1.200
G1 F2100 E416.11321
G1 F2220 X166.800 Y138.791 E416.74491
G0 F12000 X166.200 Y138.857
G1 F2220 X166.200 Y143.386 E417.19682
G0 F12000 X165.600 Y143.451
G1 F2220 X165.600 Y138.963 E417.64463
G0 F12000 X165.000 Y139.088
G1 F2220 X165.000 Y143.696 E418.10442
G0 F12000 X164.400 Y143.942
G1 F2220 X164.400 Y139.247 E418.57289
G0 F12000 X163.800 Y139.431
G1 F2220 X163.800 Y144.234 E419.05214
G0 F12000 X163.200 Y144.567
G1 F2220 X163.200 Y139.647 E419.54306
G0 F12000 X162.600 Y139.898
G1 F2220 X162.600 Y144.990 E420.05114
G0 F12000 X162.000 Y145.473
G1 F2220 X162.000 Y140.173 E420.57997
G0 F12000 X161.400 Y140.499
G1 F2220 X161.400 Y146.036 E421.13246
G0 F12000 X160.800 Y146.729
G1 F2220 X160.800 Y140.846 E421.71947
G0 F12000 X160.200 Y141.259
G1 F2220 X160.200 Y147.591 E422.35128
G0 F12000 X159.600 Y147.567
G1 F2220 X159.600 Y141.706 E422.93609
G0 F12000 X159.000 Y142.202
G1 F2220 X159.000 Y147.306 E423.44537
G0 F12000 X158.400 Y147.045
G1 F2220 X158.400 Y142.780 E423.87093
G0 F12000 X157.800 Y143.423
G1 F2220 X157.800 Y146.785 E424.20639
G0 F12000 X157.200 Y146.524
G1 F2220 X157.200 Y144.150 E424.44327
G0 F12000 X156.600 Y144.995
G1 F2220 X156.600 Y146.263 E424.56979
G1 F2100 E424.16979
G1 Z1.600
G0 F12000 X159.600 Y157.432
G1 Z1.200
G1 F2100 E424.56979
G1 F2220 X159.600 Y163.292 E425.15451
G0 F12000 X159.000 Y162.800
G1 F2220 X159.000 Y157.693 E425.66409
G0 F12000 X158.400 Y157.954
G1 F2220 X158.400 Y162.220 E426.08975
G0 F12000 X157.800 Y161.576
G1 F2220 X157.800 Y158.215 E426.42511
G0 F12000 X157.200 Y158.476
G1 F2220 X157.200 Y160.847 E426.66169
G0 F12000 X156.600 Y160.000
G1 F2220 X156.600 Y158.737 E426.78771
;LAYER:3
M106 S63
G1 F2100 E426.38771
G1 Z1.600
G0 F12000 X149.142 Y159.175 Z1.600
;TYPE:WALL-INNER
G1 Z1.600
G1 F2100 E426.78771
G1 F2400 X148.552 Y160.161 E426.90236
G1 X147.856 Y161.132 E427.02157
G1 X147.070 Y162.051 E427.14223
G1 X146.213 Y162.892 E427.26204
G1 X145.277 Y163.667 E427.38329
G1 X144.292 Y164.346 E427.50267
G1 X143.218 Y164.959 E427.62606
G1 X142.158 Y165.446 E427.74245
G1 X141.010 Y165.860 E427.86422
G1 X139.858 Y166.168 E427.98321
G1 X138.668 Y166.378 E428.10378
G1 X137.477 Y166.483 E428.22308
G1 X136.268 Y166.487 E428.34372
G1 X135.064 Y166.386 E428.46427
G1 X133.885 Y166.184 E428.58363
G1 X132.714 Y165.877 E428.70442
G1 X131.578 Y165.473 E428.82473
G1 X130.485 Y164.975 E428.94457
G1 X129.443 Y164.387 E429.06395
G1 X128.434 Y163.696 E429.18598
G1 X127.516 Y162.945 E429.30432
G1 X126.650 Y162.101 E429.42498
G1 X125.860 Y161.187 E429.54553
G1 X125.155 Y160.214 E429.66542
G1 X124.527 Y159.166 E429.78733
G1 X124.392 Y158.892 E429.81781
G1 X128.846 Y156.955 E430.30244
G1 X129.444 Y157.894 E430.41352
G1 X130.125 Y158.720 E430.52033
G1 X130.897 Y159.461 E430.62711
G1 X131.751 Y160.107 E430.73395
G1 X132.672 Y160.648 E430.84053
G1 X133.654 Y161.079 E430.94754
G1 X134.678 Y161.391 E431.05435
G1 X135.731 Y161.583 E431.16115
G1 X136.767 Y161.649 E431.26473
G1 X136.889 Y161.650 E431.27691
G1 X137.870 Y161.592 E431.37496
G1 X138.923 Y161.409 E431.48161
G1 X139.948 Y161.105 E431.58829
G1 X140.907 Y160.693 E431.69243
G1 X141.016 Y160.638 E431.70461
G1 X141.860 Y160.147 E431.80204
G1 X142.718 Y159.510 E431.90867
G1 X143.496 Y158.774 E432.01553
G1 X144.183 Y157.954 E432.12227
G1 X144.770 Y157.059 E432.22907
G1 X144.823 Y156.953 E432.24089
G1 X149.282 Y158.891 E432.72602
G1 X149.142 Y159.175 E432.75762
G1 F2100 E432.35762
G1 Z2.000
G0 F12000 X144.824 Y148.046
G1 Z1.600
G1 F2100 E432.75762
G1 F2400 X144.141 Y146.991 E432.88302
G1 X143.432 Y146.158 E432.99217
G1 X142.646 Y145.431 E433.09900
G1 X141.808 Y144.821 E433.20242
G1 X141.706 Y144.754 E433.21460
G1 X140.874 Y144.292 E433.30955
G1 X139.898 Y143.881 E433.41522
G1 X138.976 Y143.521 E433.51398
G1 X136.963 Y149.370 E434.13120
G1 X136.919 Y149.473 E434.14237
G1 X136.881 Y149.510 E434.14766
G1 X136.834 Y149.522 E434.15250
G1 X136.791 Y149.510 E434.15696
G1 X136.756 Y149.476 E434.16183
G1 X136.724 Y149.408 E434.16933
G1 X135.031 Y144.494 E434.68793
G1 X134.687 Y143.507 E434.79223
G1 X132.891 Y144.244 E434.98593
G1 X131.954 Y144.760 E435.09267
G1 X131.083 Y145.383 E435.19952
G1 X130.291 Y146.104 E435.30639
G1 X129.608 Y146.892 E435.41044
G1 X129.534 Y146.988 E435.42253
G1 X128.986 Y147.797 E435.52003
G1 X128.855 Y148.049 E435.54837
G1 X124.391 Y146.109 E436.03403
G1 X124.531 Y145.825 E436.06563
G1 X125.121 Y144.839 E436.18028
G1 X125.817 Y143.867 E436.29957
G1 X126.603 Y142.949 E436.42015
G1 X127.464 Y142.103 E436.54060
G1 X128.390 Y141.337 E436.66051
G1 X129.380 Y140.654 E436.78052
G1 X130.454 Y140.041 E436.90391
G1 X130.484 Y140.025 E436.90730
G1 X131.507 Y139.557 E437.01955
G1 X132.666 Y139.139 E437.14249
G1 X133.814 Y138.832 E437.26106
G1 X135.004 Y138.622 E437.38163
G1 X136.196 Y138.517 E437.50103
G1 X137.405 Y138.513 E437.62167
G1 X138.608 Y138.614 E437.74213
G1 X139.788 Y138.816 E437.86158
G1 X140.958 Y139.123 E437.98227
G1 X142.094 Y139.527 E438.10258
G1 X143.187 Y140.025 E438.22243
G1 X144.235 Y140.616 E438.34248
G1 X145.234 Y141.300 E438.46328
G1 X146.156 Y142.055 E438.58219
G1 X147.029 Y142.905 E438.70377
G1 X147.813 Y143.811 E438.82332
G1 X148.513 Y144.780 E438.94259
G1 X149.146 Y145.834 E439.06527
G1 X149.281 Y146.108 E439.09575
G1 X144.824 Y148.046 E439.58069
G0 F12000 X144.709 Y148.752
;TYPE:WALL-OUTER
G1 F2400 X145.123 Y149.853 E439.69806
G1 X145.352 Y150.720 E439.78754
G1 X145.488 Y151.590 E439.87540
G1 X145.535 Y152.500 E439.96632
G1 X145.493 Y153.339 E440.05014
G1 X145.489 Y153.405 E440.05674
G1 X145.363 Y154.223 E440.13932
G1 X145.351 Y154.286 E440.14572
G1 X145.141 Y155.086 E440.22825
G1 X144.827 Y155.936 E440.31867
G1 X144.706 Y156.248 E440.35206
G1 X150.095 Y158.591 E440.93840
G1 X149.697 Y159.409 E441.02917
G1 X149.665 Y159.469 E441.03595
G1 X149.063 Y160.477 E441.15310
G1 X148.322 Y161.511 E441.28003
G1 X147.506 Y162.464 E441.40522
G1 X146.611 Y163.343 E441.53039
G1 X145.645 Y164.142 E441.65548
G1 X144.617 Y164.851 E441.78008
G1 X143.508 Y165.484 E441.90749
G1 X142.376 Y166.006 E442.03188
G1 X141.200 Y166.430 E442.15661
G1 X139.980 Y166.756 E442.28261
G1 X138.755 Y166.972 E442.40673
G1 X137.497 Y167.083 E442.53274
G1 X136.243 Y167.087 E442.65787
G1 X134.995 Y166.982 E442.78283
G1 X133.747 Y166.769 E442.90916
G1 X132.546 Y166.454 E443.03305
G1 X131.349 Y166.028 E443.15983
G1 X130.209 Y165.509 E443.28481
G1 X129.130 Y164.900 E443.40844
G1 X128.073 Y164.176 E443.53627
G1 X127.111 Y163.388 E443.66035
G1 X126.212 Y162.513 E443.78553
G1 X125.391 Y161.564 E443.91074
G1 X124.650 Y160.540 E444.03686
G1 X124.008 Y159.469 E444.16146
G1 X123.579 Y158.591 E444.25896
G1 X128.608 Y156.405 E444.80611
G1 X128.964 Y156.248 E444.84494
G1 X128.550 Y155.147 E444.96230
G1 X128.320 Y154.274 E445.05238
G1 X128.185 Y153.405 E445.14013
G1 X128.137 Y152.499 E445.23066
G1 X128.180 Y151.661 E445.31439
G1 X128.184 Y151.590 E445.32148
G1 X128.310 Y150.777 E445.40357
G1 X128.322 Y150.714 E445.40997
G1 X128.532 Y149.914 E445.49250
G1 X128.846 Y149.064 E445.58292
G1 X128.967 Y148.752 E445.61631
G1 X123.578 Y146.409 E446.20265
G1 X123.976 Y145.591 E446.29342
G1 X124.008 Y145.531 E446.30020
G1 X124.610 Y144.523 E446.41735
G1 X125.351 Y143.489 E446.54428
G1 X126.166 Y142.536 E446.66940
G1 X127.061 Y141.657 E446.79457
G1 X128.028 Y140.858 E446.91974
G1 X129.055 Y140.149 E447.04426
G1 X130.164 Y139.516 E447.17167
G1 X131.297 Y138.994 E447.29615
G1 X132.472 Y138.570 E447.42079
G1 X133.692 Y138.244 E447.54679
G1 X134.917 Y138.028 E447.67091
G1 X136.176 Y137.917 E447.79702
G1 X137.430 Y137.913 E447.92214
G1 X138.677 Y138.018 E448.04701
G1 X139.926 Y138.231 E448.17343
G1 X141.126 Y138.546 E448.29723
G1 X142.324 Y138.972 E448.42410
G1 X143.463 Y139.491 E448.54899
G1 X144.548 Y140.103 E448.67329
G1 X145.592 Y140.818 E448.79954
G1 X146.561 Y141.612 E448.92455
G1 X147.460 Y142.487 E449.04972
G1 X148.282 Y143.436 E449.17500
G1 X149.021 Y144.460 E449.30100
G1 X149.664 Y145.530 E449.42556
G1 X150.094 Y146.409 E449.52320
G1 X145.065 Y148.595 E450.07035
G1 X144.709 Y148.752 E450.10917
G0 F12000 X144.662 Y149.056
G1 F2400 X144.205 Y148.167 E450.20891
G1 X143.654 Y147.342 E450.30790
G1 X142.999 Y146.575 E450.40854
G1 X142.265 Y145.896 E450.50831
G1 X141.466 Y145.314 E450.60695
G1 X141.395 Y145.267 E450.61544
G1 X140.594 Y144.823 E450.70682
G1 X139.675 Y144.438 E450.80624
G1 X139.340 Y144.307 E450.84214
G1 X137.529 Y149.568 E451.39731
G1 X137.503 Y149.644 E451.40533
G1 X137.427 Y149.801 E451.42273
G1 X137.314 Y149.937 E451.44037
G1 X137.173 Y150.040 E451.45780
G1 X137.013 Y150.104 E451.47499
G1 X136.835 Y150.126 E451.49289
G1 X136.661 Y150.105 E451.51038
G1 X136.500 Y150.041 E451.52766
G1 X136.362 Y149.940 E451.54473
G1 X136.247 Y149.800 E451.56280
G1 X136.170 Y149.643 E451.58025
G1 X134.464 Y144.691 E452.10286
G1 X134.329 Y144.302 E452.14395
G1 X133.150 Y144.786 E452.27112
G1 X132.275 Y145.269 E452.37084
G1 X131.461 Y145.850 E452.47063
G1 X130.721 Y146.524 E452.57051
G1 X130.072 Y147.273 E452.66940
G1 X129.502 Y148.105 E452.77003
G1 X129.040 Y148.992 E452.86982
G1 X128.683 Y149.927 E452.96968
G1 X128.441 Y150.888 E453.06856
G1 X128.309 Y151.888 E453.16921
G1 X128.295 Y152.885 E453.26870
G1 X128.398 Y153.880 E453.36851
G1 X128.617 Y154.857 E453.46842
G1 X128.949 Y155.800 E453.56817
G1 X129.388 Y156.699 E453.66800
G1 X129.929 Y157.539 E453.76769
G1 X130.566 Y158.311 E453.86756
G1 X131.287 Y159.004 E453.96735
G1 X132.085 Y159.607 E454.06715
G1 X132.946 Y160.113 E454.16679
G1 X133.863 Y160.516 E454.26674
G1 X134.819 Y160.807 E454.36645
G1 X135.804 Y160.986 E454.46634
G1 X136.790 Y161.049 E454.56493
G1 X136.876 Y161.050 E454.57351
G1 X137.801 Y160.995 E454.66597
G1 X138.786 Y160.824 E454.76572
G1 X139.743 Y160.540 E454.86533
G1 X140.654 Y160.148 E454.96429
G1 X141.529 Y159.646 E455.06494
G1 X142.331 Y159.049 E455.16470
G1 X143.059 Y158.362 E455.26458
G1 X143.700 Y157.596 E455.36424
G1 X144.249 Y156.760 E455.46404
G1 X144.695 Y155.865 E455.56382
G1 X145.034 Y154.924 E455.66362
G1 X145.259 Y153.960 E455.76239
G1 X145.372 Y152.965 E455.86231
G1 X145.377 Y152.881 E455.87071
G1 X145.369 Y151.967 E455.96191
G1 X145.364 Y151.882 E455.97041
G1 X145.249 Y150.973 E456.06183
G1 X145.010 Y149.993 E456.16248
G1 X144.662 Y149.056 E456.26221
G1 F2100 E455.86221
G1 Z2.000
G0 F12000 X155.858 Y145.825
;TYPE:WALL-INNER
G1 Z1.600
G1 F2100 E456.26221
G1 F2400 X156.448 Y144.839 E456.37687
G1 X157.144 Y143.868 E456.49607
G1 X157.930 Y142.949 E456.61673
G1 X158.787 Y142.108 E456.73654
G1 X159.723 Y141.333 E456.85780
G1 X160.708 Y140.654 E456.97717
G1 X161.782 Y140.041 E457.10056
G1 X162.842 Y139.554 E457.21696
G1 X163.990 Y139.140 E457.33873
G1 X165.142 Y138.832 E457.45771
G1 X166.332 Y138.622 E457.57828
G1 X167.523 Y138.517 E457.69758
G1 X168.732 Y138.513 E457.81822
G1 X169.936 Y138.614 E457.93877
G1 X171.115 Y138.816 E458.05813
G1 X172.286 Y139.123 E458.17892
G1 X173.422 Y139.527 E458.29923
G1 X174.515 Y140.025 E458.41907
G1 X175.557 Y140.613 E458.53846
G1 X176.566 Y141.304 E458.66048
G1 X177.484 Y142.055 E458.77883
G1 X178.350 Y142.899 E458.89949
G1 X179.140 Y143.813 E459.02003
G1 X179.845 Y144.786 E459.13992
G1 X180.473 Y145.834 E459.26183
G1 X180.608 Y146.108 E459.29231
G1 X176.151 Y148.046 E459.77725
G1 X176.051 Y147.862 E459.79815
G1 X175.469 Y146.991 E459.90267
G1 X174.760 Y146.158 E460.01182
G1 X173.974 Y145.431 E460.11865
G1 X173.135 Y144.821 E460.22216
G1 X173.033 Y144.754 E460.23433
G1 X172.201 Y144.292 E460.32929
G1 X171.226 Y143.881 E460.43487
G1 X170.304 Y143.521 E460.53363
G1 X168.291 Y149.368 E461.15065
G1 X168.245 Y149.475 E461.16227
G1 X168.210 Y149.509 E461.16714
G1 X168.160 Y149.522 E461.17230
G1 X168.120 Y149.511 E461.17644
G1 X168.083 Y149.475 E461.18159
G1 X168.053 Y149.415 E461.18828
G1 X166.359 Y144.495 E461.70748
G1 X166.016 Y143.507 E461.81184
G1 X164.218 Y144.244 E462.00573
G1 X163.281 Y144.760 E462.11247
G1 X162.411 Y145.383 E462.21924
G1 X161.619 Y146.104 E462.32610
G1 X160.936 Y146.892 E462.43015
G1 X160.862 Y146.988 E462.44225
G1 X160.314 Y147.797 E462.53975
G1 X160.182 Y148.049 E462.56813
G1 X155.719 Y146.109 E463.05371
G1 X155.858 Y145.825 E463.08526
G1 F2100 E462.68526
G1 Z2.000
G0 F12000 X160.173 Y156.955
G1 Z1.600
G1 F2100 E463.08526
G1 F2400 X160.772 Y157.894 E463.19639
G1 X161.452 Y158.720 E463.30314
G1 X162.224 Y159.461 E463.40992
G1 X163.078 Y160.107 E463.51676
G1 X164.001 Y160.648 E463.62351
G1 X164.980 Y161.079 E463.73025
G1 X166.005 Y161.391 E463.83715
G1 X167.058 Y161.583 E463.94396
G1 X168.095 Y161.649 E464.04764
G1 X168.217 Y161.650 E464.05981
G1 X169.197 Y161.592 E464.15777
G1 X170.250 Y161.409 E464.26441
G1 X171.274 Y161.105 E464.37099
G1 X172.235 Y160.693 E464.47532
G1 X172.344 Y160.638 E464.48751
G1 X173.188 Y160.147 E464.58493
G1 X174.045 Y159.510 E464.69148
G1 X174.823 Y158.774 E464.79834
G1 X175.511 Y157.954 E464.90515
G1 X176.097 Y157.059 E465.01189
G1 X176.150 Y156.953 E465.02371
G1 X180.609 Y158.891 E465.50884
G1 X180.469 Y159.175 E465.54044
G1 X179.879 Y160.161 E465.65509
G1 X179.183 Y161.133 E465.77437
G1 X178.397 Y162.051 E465.89496
G1 X177.536 Y162.897 E466.01540
G1 X176.610 Y163.663 E466.13532
G1 X175.620 Y164.346 E466.25533
G1 X174.546 Y164.959 E466.37872
G1 X174.516 Y164.975 E466.38211
G1 X173.493 Y165.443 E466.49436
G1 X172.334 Y165.861 E466.61730
G1 X171.186 Y166.168 E466.73587
G1 X169.996 Y166.378 E466.85644
G1 X168.804 Y166.483 E466.97584
G1 X167.595 Y166.487 E467.09648
G1 X166.392 Y166.386 E467.21693
G1 X165.212 Y166.184 E467.33639
G1 X164.042 Y165.877 E467.45708
G1 X162.906 Y165.473 E467.57739
G1 X161.813 Y164.975 E467.69723
G1 X160.762 Y164.382 E467.81765
G1 X159.766 Y163.700 E467.93809
G1 X158.844 Y162.945 E468.05700
G1 X157.971 Y162.095 E468.17858
G1 X157.187 Y161.189 E468.29813
G1 X156.487 Y160.220 E468.41740
G1 X155.863 Y159.182 E468.53825
G1 X155.721 Y158.891 E468.57056
G1 X160.173 Y156.955 E469.05496
G0 F12000 X160.291 Y156.248
;TYPE:WALL-OUTER
G1 F2400 X159.877 Y155.147 E469.17233
G1 X159.647 Y154.274 E469.26241
G1 X159.512 Y153.405 E469.35016
G1 X159.465 Y152.500 E469.44058
G1 X159.507 Y151.661 E469.52441
G1 X159.511 Y151.590 E469.53150
G1 X159.637 Y150.777 E469.61359
G1 X159.649 Y150.714 E469.61999
G1 X159.859 Y149.914 E469.70252
G1 X160.173 Y149.064 E469.79293
G1 X160.294 Y148.752 E469.82633
G1 X154.906 Y146.409 E470.41257
G1 X155.303 Y145.591 E470.50330
G1 X155.335 Y145.531 E470.51008
G1 X155.937 Y144.523 E470.62723
G1 X156.678 Y143.489 E470.75416
G1 X157.494 Y142.536 E470.87935
G1 X158.389 Y141.657 E471.00452
G1 X159.355 Y140.858 E471.12961
G1 X160.383 Y140.149 E471.25421
G1 X161.492 Y139.516 E471.38163
G1 X162.624 Y138.994 E471.50601
G1 X163.800 Y138.570 E471.63074
G1 X165.020 Y138.244 E471.75675
G1 X166.245 Y138.028 E471.88086
G1 X167.503 Y137.917 E472.00687
G1 X168.757 Y137.913 E472.13200
G1 X170.005 Y138.018 E472.25697
G1 X171.253 Y138.231 E472.38329
G1 X172.454 Y138.546 E472.50718
G1 X173.651 Y138.972 E472.63396
G1 X174.791 Y139.491 E472.75894
G1 X175.870 Y140.100 E472.88257
G1 X176.927 Y140.824 E473.01041
G1 X177.889 Y141.612 E473.13449
G1 X178.788 Y142.487 E473.25966
G1 X179.609 Y143.436 E473.38487
G1 X180.349 Y144.459 E473.51085
G1 X180.991 Y145.530 E473.63545
G1 X181.421 Y146.409 E473.73309
G1 X176.392 Y148.595 E474.28024
G1 X176.036 Y148.752 E474.31906
G1 X176.450 Y149.853 E474.43643
G1 X176.679 Y150.720 E474.52591
G1 X176.815 Y151.590 E474.61377
G1 X176.863 Y152.500 E474.70470
G1 X176.820 Y153.339 E474.78852
G1 X176.816 Y153.405 E474.79512
G1 X176.690 Y154.223 E474.87770
G1 X176.678 Y154.286 E474.88410
G1 X176.468 Y155.086 E474.96663
G1 X176.154 Y155.936 E475.05704
G1 X176.033 Y156.248 E475.09044
G1 X181.422 Y158.591 E475.67678
G1 X181.024 Y159.409 E475.76754
G1 X180.992 Y159.469 E475.77433
G1 X180.390 Y160.477 E475.89148
G1 X179.649 Y161.511 E476.01841
G1 X178.834 Y162.464 E476.14353
G1 X177.939 Y163.343 E476.26870
G1 X176.972 Y164.142 E476.39387
G1 X175.945 Y164.851 E476.51839
G1 X174.836 Y165.484 E476.64580
G1 X173.703 Y166.006 E476.77027
G1 X172.528 Y166.430 E476.89492
G1 X171.308 Y166.756 E477.02092
G1 X170.083 Y166.972 E477.14504
G1 X168.824 Y167.083 E477.27115
G1 X167.570 Y167.087 E477.39627
G1 X166.323 Y166.982 E477.52114
G1 X165.074 Y166.769 E477.64756
G1 X163.874 Y166.454 E477.77136
G1 X162.676 Y166.028 E477.89823
G1 X161.537 Y165.509 E478.02312
G1 X160.452 Y164.897 E478.14741
G1 X159.408 Y164.182 E478.27367
G1 X158.439 Y163.388 E478.39867
G1 X157.540 Y162.513 E478.52385
G1 X156.718 Y161.564 E478.64913
G1 X155.979 Y160.540 E478.77513
G1 X155.340 Y159.477 E478.89888
G1 X154.907 Y158.591 E478.99728
G1 X159.935 Y156.405 E479.54434
G1 X160.291 Y156.248 E479.58317
G0 F12000 X160.277 Y155.800
G1 F2400 X160.715 Y156.699 E479.68295
G1 X161.257 Y157.539 E479.78270
G1 X161.893 Y158.311 E479.88250
G1 X162.614 Y159.004 E479.98229
G1 X163.412 Y159.607 E480.08209
G1 X164.274 Y160.113 E480.18182
G1 X165.189 Y160.516 E480.28158
G1 X166.146 Y160.807 E480.38139
G1 X167.131 Y160.986 E480.48128
