;-- START GCODE --
;Sliced for Type A Machines Series 1
;Sliced at: Fri 02-12-2016 17:01:13
;Basic settings:
; Layer height: 0.2
; Walls: 1
; Fill: 8
; Print Speed: 45
; Support: 0
; Retraction Speed: 35
; Retraction Distance: 0.4
;Print time: 3 hours 47 minutes
;Filament used: 16.887m 50.0g
;Settings based on: Type A Machines Everyday PLA
G21        ;metric values
G90        ;absolute positioning
G28     ;move to endstops
G1 Z15.0 F12000 ;move the platform down 15mm
G1 X150 Y5 F12000 ;center
M140 S50 ;Prep Heat Bed
M109 S215 ;Heat To temp
M190 S50 ;Heat Bed to temp
G1 X150 Y5 Z0.3 ;move the platform to purge extrusion
G92 E0 ;zero the extruded length
G1 F200 X250 E30 ;extrude 30mm of feed stock
G92 E0 ;zero the extruded length again
G1 X150 Y150  Z25 F12000 ;recenter and begin
G1 F12000

;Layer count: 125
;LAYER:0
M107
G0 F12000 X90.615 Y134.133 Z0.200
;TYPE:SKIRT
G1 F1800 X117.762 Y118.459 E1.30326
G1 X119.544 Y117.431 E1.38879
G1 X121.457 Y117.431 E1.46832
G1 X148.612 Y133.108 E2.77193
G1 X150.385 Y134.134 E2.85709
G1 X151.350 Y135.786 E2.93663
G1 X151.350 Y169.214 E4.32641
G1 X150.385 Y170.867 E4.40599
G1 X123.238 Y186.541 E5.70924
G1 X121.456 Y187.569 E5.79477
G1 X119.543 Y187.569 E5.87431
G1 X92.388 Y171.892 E7.17791
G1 X90.615 Y170.866 E7.26308
G1 X89.650 Y169.214 E7.34262
G1 X89.650 Y135.786 E8.73240
G1 X90.615 Y134.133 E8.81197
G0 F12000 X153.650 Y135.786
G1 F1800 X154.615 Y134.133 E8.89155
G1 X181.762 Y118.459 E10.19481
G1 X183.544 Y117.431 E10.28034
G1 X185.457 Y117.431 E10.35987
G1 X212.612 Y133.108 E11.66348
G1 X214.385 Y134.134 E11.74864
G1 X215.350 Y135.786 E11.82818
G1 X215.350 Y169.214 E13.21796
G1 X214.385 Y170.867 E13.29754
G1 X187.238 Y186.541 E14.60079
G1 X185.456 Y187.569 E14.68632
G1 X183.543 Y187.569 E14.76586
G1 X156.388 Y171.892 E16.06946
G1 X154.615 Y170.866 E16.15463
G1 X153.650 Y169.214 E16.23417
G1 X153.650 Y135.786 E17.62395
G1 F2100 E17.22395
G0 F12000 X147.350 Y137.000
;TYPE:WALL-INNER
G1 F2100 E17.62395
G1 F1800 X147.350 Y168.000 E18.91278
G1 X120.500 Y183.502 E20.20176
G1 X93.650 Y168.000 E21.49075
G1 X93.650 Y137.000 E22.77958
G1 X120.500 Y121.498 E24.06857
G1 X147.350 Y137.000 E25.35756
G0 F12000 X147.850 Y136.733
;TYPE:WALL-OUTER
G1 F1800 X147.850 Y168.267 E26.66859
G1 X147.831 Y168.300 E26.67017
G1 X120.518 Y184.069 E27.98138
G1 X120.482 Y184.069 E27.98288
G1 X93.169 Y168.300 E29.29408
G1 X93.150 Y168.267 E29.29567
G1 X93.150 Y136.733 E30.60670
G1 X93.169 Y136.700 E30.60828
G1 X120.482 Y120.931 E31.91949
G1 X120.518 Y120.931 E31.92099
G1 X147.831 Y136.700 E33.23219
G1 X147.850 Y136.733 E33.23378
G0 F12000 X147.000 Y137.001
;TYPE:SKIN
G1 F1800 X147.000 Y168.000 E34.52257
G0 F12000 X146.500 Y168.288
G1 F1800 X146.500 Y136.713 E35.83530
G0 F12000 X146.000 Y136.424
G1 F1800 X146.000 Y168.577 E37.17207
G0 F12000 X145.500 Y168.866
G1 F1800 X145.500 Y136.135 E38.53287
G0 F12000 X145.000 Y135.847
G1 F1800 X145.000 Y169.154 E39.91761
G0 F12000 X144.500 Y169.443
G1 F1800 X144.500 Y135.558 E41.32638
G0 F12000 X144.000 Y135.269
G1 F1800 X144.000 Y169.732 E42.75919
G0 F12000 X143.500 Y170.020
G1 F1800 X143.500 Y134.981 E44.21594
G0 F12000 X143.000 Y134.692
G1 F1800 X143.000 Y170.309 E45.69672
G0 F12000 X142.500 Y170.598
G1 F1800 X142.500 Y134.403 E47.20154
G0 F12000 X142.000 Y134.114
G1 F1800 X142.000 Y170.887 E48.73038
G0 F12000 X141.500 Y171.175
G1 F1800 X141.500 Y133.826 E50.28317
G0 F12000 X141.000 Y133.537
G1 F1800 X141.000 Y171.464 E51.85999
G0 F12000 X140.500 Y171.753
G1 F1800 X140.500 Y133.248 E53.46085
G0 F12000 X140.000 Y132.960
G1 F1800 X140.000 Y172.041 E55.08564
G0 F12000 X139.500 Y172.330
G1 F1800 X139.500 Y132.671 E56.73447
G0 F12000 X139.000 Y132.382
G1 F1800 X139.000 Y172.619 E58.40733
G0 F12000 X138.500 Y172.907
G1 F1800 X138.500 Y132.094 E60.10414
G0 F12000 X138.000 Y131.805
G1 F1800 X138.000 Y173.196 E61.82498
G0 F12000 X137.500 Y173.485
G1 F1800 X137.500 Y131.516 E63.56985
G0 F12000 X137.000 Y131.228
G1 F1800 X137.000 Y173.773 E65.33866
G0 F12000 X136.500 Y174.062
G1 F1800 X136.500 Y130.939 E67.13151
G0 F12000 X136.000 Y130.650
G1 F1800 X136.000 Y174.351 E68.94839
G0 F12000 X135.500 Y174.640
G1 F1800 X135.500 Y130.361 E70.78929
G0 F12000 X135.000 Y130.073
G1 F1800 X135.000 Y174.928 E72.65415
G0 F12000 X134.500 Y175.217
G1 F1800 X134.500 Y129.784 E74.54303
G0 F12000 X134.000 Y129.495
G1 F1800 X134.000 Y175.506 E76.45595
G0 F12000 X133.500 Y175.794
G1 F1800 X133.500 Y129.207 E78.39281
G0 F12000 X133.000 Y128.918
G1 F1800 X133.000 Y176.083 E80.35370
G0 F12000 X132.500 Y176.372
G1 F1800 X132.500 Y128.629 E82.33863
G0 F12000 X132.000 Y128.341
G1 F1800 X132.000 Y176.660 E84.34750
G0 F12000 X131.500 Y176.949
G1 F1800 X131.500 Y128.052 E86.38040
G0 F12000 X131.000 Y127.763
G1 F1800 X131.000 Y177.238 E88.43733
G0 F12000 X130.500 Y177.527
G1 F1800 X130.500 Y127.474 E90.51829
G0 F12000 X130.000 Y127.186
G1 F1800 X130.000 Y177.815 E92.62320
G0 F12000 X129.500 Y178.104
G1 F1800 X129.500 Y126.897 E94.75214
G0 F12000 X129.000 Y126.608
G1 F1800 X129.000 Y178.393 E96.90511
G0 F12000 X128.500 Y178.681
G1 F1800 X128.500 Y126.320 E99.08203
G0 F12000 X128.000 Y126.031
G1 F1800 X128.000 Y178.970 E101.28297
G0 F12000 X127.500 Y179.259
G1 F1800 X127.500 Y125.742 E103.50795
G0 F12000 X127.000 Y125.454
G1 F1800 X127.000 Y179.547 E105.75688
G0 F12000 X126.500 Y179.836
G1 F1800 X126.500 Y125.165 E108.02983
G0 F12000 X126.000 Y124.876
G1 F1800 X126.000 Y180.125 E110.32682
G0 F12000 X125.500 Y180.414
G1 F1800 X125.500 Y124.587 E112.64784
G0 F12000 X125.000 Y124.299
G1 F1800 X125.000 Y180.702 E114.99280
G0 F12000 X124.500 Y180.991
G1 F1800 X124.500 Y124.010 E117.36180
G0 F12000 X124.000 Y123.721
G1 F1800 X124.000 Y181.280 E119.75482
G0 F12000 X123.500 Y181.568
G1 F1800 X123.500 Y123.433 E122.17179
G0 F12000 X123.000 Y123.144
G1 F1800 X123.000 Y181.857 E124.61280
G0 F12000 X122.500 Y182.146
G1 F1800 X122.500 Y122.855 E127.07783
G0 F12000 X122.000 Y122.567
G1 F1800 X122.000 Y182.434 E129.56681
G0 F12000 X121.500 Y182.723
G1 F1800 X121.500 Y122.278 E132.07982
G0 F12000 X121.000 Y121.989
G1 F1800 X121.000 Y183.012 E134.61686
G0 F12000 X120.500 Y183.300
G1 F1800 X120.500 Y121.700 E137.17789
G0 F12000 X120.000 Y121.988
G1 F1800 X120.000 Y183.011 E139.71494
G0 F12000 X119.500 Y182.722
G1 F1800 X119.500 Y122.277 E142.22795
G0 F12000 X119.000 Y122.566
G1 F1800 X119.000 Y182.433 E144.71693
G0 F12000 X118.500 Y182.145
G1 F1800 X118.500 Y122.854 E147.18196
G0 F12000 X118.000 Y123.143
G1 F1800 X118.000 Y181.856 E149.62296
G0 F12000 X117.500 Y181.567
G1 F1800 X117.500 Y123.432 E152.03994
G0 F12000 X117.000 Y123.720
G1 F1800 X117.000 Y181.279 E154.43296
G0 F12000 X116.500 Y180.990
G1 F1800 X116.500 Y124.009 E156.80196
G0 F12000 X116.000 Y124.298
G1 F1800 X116.000 Y180.701 E159.14692
G0 F12000 X115.500 Y180.413
G1 F1800 X115.500 Y124.586 E161.46794
G0 F12000 X115.000 Y124.875
G1 F1800 X115.000 Y180.124 E163.76492
G0 F12000 X114.500 Y179.835
G1 F1800 X114.500 Y125.164 E166.03788
G0 F12000 X114.000 Y125.453
G1 F1800 X114.000 Y179.546 E168.28681
G0 F12000 X113.500 Y179.258
G1 F1800 X113.500 Y125.741 E170.51178
G0 F12000 X113.000 Y126.030
G1 F1800 X113.000 Y178.969 E172.71273
G0 F12000 X112.500 Y178.680
G1 F1800 X112.500 Y126.319 E174.88965
G0 F12000 X112.000 Y126.607
G1 F1800 X112.000 Y178.392 E177.04262
G0 F12000 X111.500 Y178.103
G1 F1800 X111.500 Y126.896 E179.17156
G0 F12000 X111.000 Y127.185
G1 F1800 X111.000 Y177.814 E181.27647
G0 F12000 X110.500 Y177.526
G1 F1800 X110.500 Y127.473 E183.35743
G0 F12000 X110.000 Y127.762
G1 F1800 X110.000 Y177.237 E185.41436
G0 F12000 X109.500 Y176.948
G1 F1800 X109.500 Y128.051 E187.44726
G0 F12000 X109.000 Y128.340
G1 F1800 X109.000 Y176.659 E189.45613
G0 F12000 X108.500 Y176.371
G1 F1800 X108.500 Y128.628 E191.44106
G0 F12000 X108.000 Y128.917
G1 F1800 X108.000 Y176.082 E193.40195
G0 F12000 X107.500 Y175.793
G1 F1800 X107.500 Y129.206 E195.33881
G0 F12000 X107.000 Y129.494
G1 F1800 X107.000 Y175.505 E197.25173
G0 F12000 X106.500 Y175.216
G1 F1800 X106.500 Y129.783 E199.14061
G0 F12000 X106.000 Y130.072
G1 F1800 X106.000 Y174.927 E201.00547
G0 F12000 X105.500 Y174.639
G1 F1800 X105.500 Y130.360 E202.84637
G0 F12000 X105.000 Y130.649
G1 F1800 X105.000 Y174.350 E204.66325
G0 F12000 X104.500 Y174.061
G1 F1800 X104.500 Y130.938 E206.45609
G0 F12000 X104.000 Y131.227
G1 F1800 X104.000 Y173.772 E208.22491
G0 F12000 X103.500 Y173.484
G1 F1800 X103.500 Y131.515 E209.96978
G0 F12000 X103.000 Y131.804
G1 F1800 X103.000 Y173.195 E211.69062
G0 F12000 X102.500 Y172.906
G1 F1800 X102.500 Y132.093 E213.38742
G0 F12000 X102.000 Y132.381
G1 F1800 X102.000 Y172.618 E215.06028
G0 F12000 X101.500 Y172.329
G1 F1800 X101.500 Y132.670 E216.70911
G0 F12000 X101.000 Y132.959
G1 F1800 X101.000 Y172.040 E218.33391
G0 F12000 X100.500 Y171.752
G1 F1800 X100.500 Y133.247 E219.93476
G0 F12000 X100.000 Y133.536
G1 F1800 X100.000 Y171.463 E221.51159
G0 F12000 X99.500 Y171.174
G1 F1800 X99.500 Y133.825 E223.06438
G0 F12000 X99.000 Y134.113
G1 F1800 X99.000 Y170.886 E224.59322
G0 F12000 X98.500 Y170.597
G1 F1800 X98.500 Y134.402 E226.09803
G0 F12000 X98.000 Y134.691
G1 F1800 X98.000 Y170.308 E227.57882
G0 F12000 X97.500 Y170.019
G1 F1800 X97.500 Y134.980 E229.03557
G0 F12000 X97.000 Y135.268
G1 F1800 X97.000 Y169.731 E230.46837
G0 F12000 X96.500 Y169.442
G1 F1800 X96.500 Y135.557 E231.87715
G0 F12000 X96.000 Y135.846
G1 F1800 X96.000 Y169.153 E233.26189
G0 F12000 X95.500 Y168.865
G1 F1800 X95.500 Y136.134 E234.62269
G0 F12000 X95.000 Y136.423
G1 F1800 X95.000 Y168.576 E235.95946
G0 F12000 X94.500 Y168.287
G1 F1800 X94.500 Y136.712 E237.27219
G0 F12000 X94.000 Y137.000
G1 F1800 X94.000 Y167.999 E238.56098
G1 F2100 E238.16098
G0 F12000 X157.650 Y168.000
;TYPE:WALL-INNER
G1 F2100 E238.56098
G1 F1800 X157.650 Y137.000 E239.84981
G1 X184.500 Y121.498 E241.13880
G1 X211.350 Y137.000 E242.42779
G1 X211.350 Y168.000 E243.71662
G1 X184.500 Y183.502 E245.00560
G1 X157.650 Y168.000 E246.29459
G0 F12000 X157.150 Y168.267
;TYPE:WALL-OUTER
G1 F1800 X157.150 Y136.733 E247.60562
G1 X157.169 Y136.700 E247.60721
G1 X184.482 Y120.931 E248.91841
G1 X184.518 Y120.931 E248.91991
G1 X211.831 Y136.700 E250.23112
G1 X211.850 Y136.733 E250.23270
G1 X211.850 Y168.267 E251.54373
G1 X211.831 Y168.300 E251.54532
G1 X184.518 Y184.069 E252.85652
G1 X184.482 Y184.069 E252.85802
G1 X157.169 Y168.300 E254.16923
G1 X157.150 Y168.267 E254.17081
G0 F12000 X158.000 Y167.999
;TYPE:SKIN
G1 F1800 X158.000 Y137.000 E255.45960
G0 F12000 X158.500 Y136.712
G1 F1800 X158.500 Y168.287 E256.77234
G0 F12000 X159.000 Y168.576
G1 F1800 X159.000 Y136.423 E258.10910
G0 F12000 X159.500 Y136.134
G1 F1800 X159.500 Y168.865 E259.46990
G0 F12000 X160.000 Y169.153
G1 F1800 X160.000 Y135.846 E260.85464
G0 F12000 X160.500 Y135.557
G1 F1800 X160.500 Y169.442 E262.26342
G0 F12000 X161.000 Y169.731
G1 F1800 X161.000 Y135.268 E263.69622
G0 F12000 X161.500 Y134.980
G1 F1800 X161.500 Y170.019 E265.15298
G0 F12000 X162.000 Y170.308
G1 F1800 X162.000 Y134.691 E266.63376
G0 F12000 X162.500 Y134.402
G1 F1800 X162.500 Y170.597 E268.13857
G0 F12000 X163.000 Y170.886
G1 F1800 X163.000 Y134.113 E269.66742
G0 F12000 X163.500 Y133.825
G1 F1800 X163.500 Y171.174 E271.22021
G0 F12000 X164.000 Y171.463
G1 F1800 X164.000 Y133.536 E272.79703
G0 F12000 X164.500 Y133.247
G1 F1800 X164.500 Y171.752 E274.39788
G0 F12000 X165.000 Y172.040
G1 F1800 X165.000 Y132.959 E276.02268
G0 F12000 X165.500 Y132.670
G1 F1800 X165.500 Y172.329 E277.67151
G0 F12000 X166.000 Y172.618
G1 F1800 X166.000 Y132.381 E279.34437
G0 F12000 X166.500 Y132.093
G1 F1800 X166.500 Y172.906 E281.04118
G0 F12000 X167.000 Y173.195
G1 F1800 X167.000 Y131.804 E282.76201
G0 F12000 X167.500 Y131.515
G1 F1800 X167.500 Y173.484 E284.50688
G0 F12000 X168.000 Y173.772
G1 F1800 X168.000 Y131.227 E286.27570
G0 F12000 X168.500 Y130.938
G1 F1800 X168.500 Y174.061 E288.06854
G0 F12000 X169.000 Y174.350
G1 F1800 X169.000 Y130.649 E289.88542
G0 F12000 X169.500 Y130.360
G1 F1800 X169.500 Y174.639 E291.72633
G0 F12000 X170.000 Y174.927
G1 F1800 X170.000 Y130.072 E293.59118
G0 F12000 X170.500 Y129.783
G1 F1800 X170.500 Y175.216 E295.48007
G0 F12000 X171.000 Y175.505
G1 F1800 X171.000 Y129.494 E297.39298
G0 F12000 X171.500 Y129.206
G1 F1800 X171.500 Y175.793 E299.32984
G0 F12000 X172.000 Y176.082
G1 F1800 X172.000 Y128.917 E301.29074
G0 F12000 X172.500 Y128.628
G1 F1800 X172.500 Y176.371 E303.27566
G0 F12000 X173.000 Y176.659
G1 F1800 X173.000 Y128.340 E305.28453
G0 F12000 X173.500 Y128.051
G1 F1800 X173.500 Y176.948 E307.31743
G0 F12000 X174.000 Y177.237
G1 F1800 X174.000 Y127.762 E309.37436
G0 F12000 X174.500 Y127.473
G1 F1800 X174.500 Y177.526 E311.45532
G0 F12000 X175.000 Y177.814
G1 F1800 X175.000 Y127.185 E313.56023
G0 F12000 X175.500 Y126.896
G1 F1800 X175.500 Y178.103 E315.68917
G0 F12000 X176.000 Y178.392
G1 F1800 X176.000 Y126.607 E317.84214
G0 F12000 X176.500 Y126.319
G1 F1800 X176.500 Y178.680 E320.01906
G0 F12000 X177.000 Y178.969
G1 F1800 X177.000 Y126.030 E322.22001
G0 F12000 X177.500 Y125.741
G1 F1800 X177.500 Y179.258 E324.44499
G0 F12000 X178.000 Y179.546
G1 F1800 X178.000 Y125.453 E326.69391
G0 F12000 X178.500 Y125.164
G1 F1800 X178.500 Y179.835 E328.96687
G0 F12000 X179.000 Y180.124
G1 F1800 X179.000 Y124.875 E331.26386
G0 F12000 X179.500 Y124.586
G1 F1800 X179.500 Y180.413 E333.58487
G0 F12000 X180.000 Y180.701
G1 F1800 X180.000 Y124.298 E335.92984
G0 F12000 X180.500 Y124.009
G1 F1800 X180.500 Y180.990 E338.29883
G0 F12000 X181.000 Y181.279
G1 F1800 X181.000 Y123.720 E340.69186
G0 F12000 X181.500 Y123.432
G1 F1800 X181.500 Y181.567 E343.10883
G0 F12000 X182.000 Y181.856
G1 F1800 X182.000 Y123.143 E345.54983
G0 F12000 X182.500 Y122.854
G1 F1800 X182.500 Y182.145 E348.01487
G0 F12000 X183.000 Y182.433
G1 F1800 X183.000 Y122.566 E350.50385
G0 F12000 X183.500 Y122.277
G1 F1800 X183.500 Y182.722 E353.01686
G0 F12000 X184.000 Y183.011
G1 F1800 X184.000 Y121.988 E355.55390
G0 F12000 X184.500 Y121.700
G1 F1800 X184.500 Y183.300 E358.11493
G0 F12000 X185.000 Y183.012
G1 F1800 X185.000 Y121.989 E360.65197
G0 F12000 X185.500 Y122.278
G1 F1800 X185.500 Y182.723 E363.16498
G0 F12000 X186.000 Y182.434
G1 F1800 X186.000 Y122.567 E365.65396
G0 F12000 X186.500 Y122.855
G1 F1800 X186.500 Y182.146 E368.11900
G0 F12000 X187.000 Y181.857
G1 F1800 X187.000 Y123.144 E370.56000
G0 F12000 X187.500 Y123.433
G1 F1800 X187.500 Y181.568 E372.97697
G0 F12000 X188.000 Y181.280
G1 F1800 X188.000 Y123.721 E375.37000
G0 F12000 X188.500 Y124.010
G1 F1800 X188.500 Y180.991 E377.73899
G0 F12000 X189.000 Y180.702
G1 F1800 X189.000 Y124.299 E380.08395
G0 F12000 X189.500 Y124.587
G1 F1800 X189.500 Y180.414 E382.40497
G0 F12000 X190.000 Y180.125
G1 F1800 X190.000 Y124.876 E384.70196
G0 F12000 X190.500 Y125.165
G1 F1800 X190.500 Y179.836 E386.97491
G0 F12000 X191.000 Y179.547
G1 F1800 X191.000 Y125.454 E389.22384
G0 F12000 X191.500 Y125.742
G1 F1800 X191.500 Y179.259 E391.44882
G0 F12000 X192.000 Y178.970
G1 F1800 X192.000 Y126.031 E393.64977
G0 F12000 X192.500 Y126.320
G1 F1800 X192.500 Y178.681 E395.82668
G0 F12000 X193.000 Y178.393
G1 F1800 X193.000 Y126.608 E397.97965
G0 F12000 X193.500 Y126.897
G1 F1800 X193.500 Y178.104 E400.10859
G0 F12000 X194.000 Y177.815
G1 F1800 X194.000 Y127.186 E402.21350
G0 F12000 X194.500 Y127.474
G1 F1800 X194.500 Y177.527 E404.29446
G0 F12000 X195.000 Y177.238
G1 F1800 X195.000 Y127.763 E406.35140
G0 F12000 X195.500 Y128.052
G1 F1800 X195.500 Y176.949 E408.38430
G0 F12000 X196.000 Y176.660
G1 F1800 X196.000 Y128.341 E410.39317
G0 F12000 X196.500 Y128.629
G1 F1800 X196.500 Y176.372 E412.37809
G0 F12000 X197.000 Y176.083
G1 F1800 X197.000 Y128.918 E414.33898
G0 F12000 X197.500 Y129.207
G1 F1800 X197.500 Y175.794 E416.27585
G0 F12000 X198.000 Y175.506
G1 F1800 X198.000 Y129.495 E418.18876
G0 F12000 X198.500 Y129.784
G1 F1800 X198.500 Y175.217 E420.07765
G0 F12000 X199.000 Y174.928
G1 F1800 X199.000 Y130.073 E421.94250
G0 F12000 X199.500 Y130.361
G1 F1800 X199.500 Y174.640 E423.78341
G0 F12000 X200.000 Y174.351
G1 F1800 X200.000 Y130.650 E425.60028
G0 F12000 X200.500 Y130.939
G1 F1800 X200.500 Y174.062 E427.39313
G0 F12000 X201.000 Y173.773
G1 F1800 X201.000 Y131.228 E429.16194
G0 F12000 X201.500 Y131.516
G1 F1800 X201.500 Y173.485 E430.90681
G0 F12000 X202.000 Y173.196
G1 F1800 X202.000 Y131.805 E432.62765
G0 F12000 X202.500 Y132.094
G1 F1800 X202.500 Y172.907 E434.32446
G0 F12000 X203.000 Y172.619
G1 F1800 X203.000 Y132.382 E435.99732
G0 F12000 X203.500 Y132.671
G1 F1800 X203.500 Y172.330 E437.64615
G0 F12000 X204.000 Y172.041
G1 F1800 X204.000 Y132.960 E439.27095
G0 F12000 X204.500 Y133.248
G1 F1800 X204.500 Y171.753 E440.87180
G0 F12000 X205.000 Y171.464
G1 F1800 X205.000 Y133.537 E442.44862
G0 F12000 X205.500 Y133.826
G1 F1800 X205.500 Y171.175 E444.00141
G0 F12000 X206.000 Y170.887
G1 F1800 X206.000 Y134.114 E445.53026
G0 F12000 X206.500 Y134.403
G1 F1800 X206.500 Y170.598 E447.03507
G0 F12000 X207.000 Y170.309
G1 F1800 X207.000 Y134.692 E448.51585
G0 F12000 X207.500 Y134.981
G1 F1800 X207.500 Y170.020 E449.97260
G0 F12000 X208.000 Y169.732
G1 F1800 X208.000 Y135.269 E451.40541
G0 F12000 X208.500 Y135.558
G1 F1800 X208.500 Y169.443 E452.81418
G0 F12000 X209.000 Y169.154
G1 F1800 X209.000 Y135.847 E454.19893
G0 F12000 X209.500 Y136.135
G1 F1800 X209.500 Y168.866 E455.55972
G0 F12000 X210.000 Y168.577
G1 F1800 X210.000 Y136.424 E456.89649
G0 F12000 X210.500 Y136.713
G1 F1800 X210.500 Y168.288 E458.20923
G0 F12000 X211.000 Y168.000
G1 F1800 X211.000 Y137.001 E459.49802
;LAYER:1
M106 S10
G1 F2100 E459.09802
G0 F12000 X147.550 Y136.950 Z0.400
;TYPE:WALL-INNER
G1 F2100 E459.49802
G1 F1980 X147.550 Y168.049 E460.79096
G1 X147.492 Y168.150 E460.79580
G1 X120.557 Y183.700 E462.08885
G1 X120.443 Y183.700 E462.09359
G1 X93.508 Y168.150 E463.38663
G1 X93.450 Y168.049 E463.39148
G1 X93.450 Y136.950 E464.68442
G1 X93.508 Y136.850 E464.68923
G1 X120.443 Y121.300 E465.98227
G1 X120.557 Y121.300 E465.98701
G1 X147.492 Y136.850 E467.28006
G1 X147.550 Y136.950 E467.28487
G0 F12000 X148.050 Y136.815
;TYPE:WALL-OUTER
G1 F1980 X148.050 Y168.185 E468.58908
G1 X147.858 Y168.516 E468.60499
G1 X120.691 Y184.200 E469.90917
G1 X120.309 Y184.200 E469.92505
G1 X93.142 Y168.516 E471.22924
G1 X92.950 Y168.185 E471.24515
G1 X92.950 Y136.815 E472.54936
G1 X93.142 Y136.484 E472.56527
G1 X120.309 Y120.800 E473.86945
G1 X120.691 Y120.800 E473.88534
G1 X147.858 Y136.484 E475.18952
G1 X148.050 Y136.815 E475.20543
G0 F12000 X147.374 Y137.000
;TYPE:SKIN
G1 F1980 X93.624 Y137.000 E477.44009
G0 F12000 X93.624 Y137.500
G1 F1980 X147.374 Y137.500 E479.67476
G0 F12000 X147.374 Y138.000
G1 F1980 X93.624 Y138.000 E481.90943
G0 F12000 X93.624 Y138.500
G1 F1980 X147.374 Y138.500 E484.14409
G0 F12000 X147.374 Y139.000
G1 F1980 X93.624 Y139.000 E486.37876
G0 F12000 X93.624 Y139.500
G1 F1980 X147.374 Y139.500 E488.61342
G1 F2100 E488.21342
G0 F12000 X146.536 Y136.500
G1 F2100 E488.61342
G1 F1980 X94.463 Y136.500 E490.77837
G0 F12000 X95.329 Y136.000
G1 F1980 X145.670 Y136.000 E492.87130
G0 F12000 X144.804 Y135.500
G1 F1980 X96.195 Y135.500 E494.89223
G0 F12000 X97.061 Y135.000
G1 F1980 X143.938 Y135.000 E496.84115
G0 F12000 X143.072 Y134.500
G1 F1980 X97.927 Y134.500 E498.71806
G0 F12000 X98.793 Y134.000
G1 F1980 X142.206 Y134.000 E500.52296
G0 F12000 X141.340 Y133.500
G1 F1980 X99.659 Y133.500 E502.25586
G0 F12000 X100.525 Y133.000
G1 F1980 X140.474 Y133.000 E503.91674
G0 F12000 X139.608 Y132.500
G1 F1980 X101.391 Y132.500 E505.50562
G0 F12000 X102.257 Y132.000
G1 F1980 X138.742 Y132.000 E507.02249
G0 F12000 X137.876 Y131.500
G1 F1980 X103.123 Y131.500 E508.46735
G0 F12000 X103.989 Y131.000
G1 F1980 X137.010 Y131.000 E509.84021
G0 F12000 X136.144 Y130.500
G1 F1980 X104.855 Y130.500 E511.14105
G0 F12000 X105.721 Y130.000
G1 F1980 X135.278 Y130.000 E512.36989
G0 F12000 X134.412 Y129.500
G1 F1980 X106.587 Y129.500 E513.52672
G0 F12000 X107.453 Y129.000
G1 F1980 X133.546 Y129.000 E514.61154
G0 F12000 X132.680 Y128.500
G1 F1980 X108.319 Y128.500 E515.62435
G0 F12000 X109.186 Y128.000
G1 F1980 X131.813 Y128.000 E516.56507
G0 F12000 X130.947 Y127.500
G1 F1980 X110.052 Y127.500 E517.43379
G0 F12000 X110.918 Y127.000
G1 F1980 X130.081 Y127.000 E518.23049
G0 F12000 X129.215 Y126.500
G1 F1980 X111.784 Y126.500 E518.95519
G0 F12000 X112.650 Y126.000
G1 F1980 X128.349 Y126.000 E519.60788
G0 F12000 X127.483 Y125.500
G1 F1980 X113.516 Y125.500 E520.18856
G0 F12000 X114.382 Y125.000
G1 F1980 X126.617 Y125.000 E520.69723
G0 F12000 X125.751 Y124.500
G1 F1980 X115.248 Y124.500 E521.13389
G0 F12000 X116.114 Y124.000
G1 F1980 X124.885 Y124.000 E521.49855
G0 F12000 X124.019 Y123.500
G1 F1980 X116.980 Y123.500 E521.79120
G0 F12000 X117.846 Y123.000
G1 F1980 X123.153 Y123.000 E522.01184
G0 F12000 X122.287 Y122.500
G1 F1980 X118.712 Y122.500 E522.16047
G0 F12000 X119.578 Y122.000
G1 F1980 X121.421 Y122.000 E522.23709
G0 F12000 X120.555 Y121.500
G1 F1980 X120.444 Y121.500 E522.24170
G1 F2100 E521.84170
G0 F12000 X93.624 Y140.000
G1 F2100 E522.24170
G1 F1980 X147.374 Y140.000 E524.47637
G0 F12000 X147.374 Y140.500
G1 F1980 X93.624 Y140.500 E526.71104
G0 F12000 X93.624 Y141.000
G1 F1980 X147.374 Y141.000 E528.94570
G0 F12000 X147.374 Y141.500
G1 F1980 X93.624 Y141.500 E531.18037
G0 F12000 X93.624 Y142.000
G1 F1980 X147.374 Y142.000 E533.41503
G0 F12000 X147.374 Y142.500
G1 F1980 X93.624 Y142.500 E535.64970
G0 F12000 X93.624 Y143.000
G1 F1980 X147.374 Y143.000 E537.88436
G0 F12000 X147.374 Y143.500
G1 F1980 X93.624 Y143.500 E540.11903
G0 F12000 X93.624 Y144.000
G1 F1980 X147.374 Y144.000 E542.35369
G0 F12000 X147.374 Y144.500
G1 F1980 X93.624 Y144.500 E544.58836
G0 F12000 X93.624 Y145.000
G1 F1980 X147.374 Y145.000 E546.82302
G0 F12000 X147.374 Y145.500
G1 F1980 X93.624 Y145.500 E549.05769
G0 F12000 X93.624 Y146.000
G1 F1980 X147.374 Y146.000 E551.29235
G0 F12000 X147.374 Y146.500
G1 F1980 X93.624 Y146.500 E553.52702
G0 F12000 X93.624 Y147.000
G1 F1980 X147.374 Y147.000 E555.76168
G0 F12000 X147.374 Y147.500
G1 F1980 X93.624 Y147.500 E557.99635
G0 F12000 X93.624 Y148.000
G1 F1980 X147.374 Y148.000 E560.23102
G0 F12000 X147.374 Y148.500
G1 F1980 X93.624 Y148.500 E562.46568
G0 F12000 X93.624 Y149.000
G1 F1980 X147.374 Y149.000 E564.70035
G0 F12000 X147.374 Y149.500
G1 F1980 X93.624 Y149.500 E566.93501
G0 F12000 X93.624 Y150.000
G1 F1980 X147.374 Y150.000 E569.16968
G0 F12000 X147.374 Y150.500
G1 F1980 X93.624 Y150.500 E571.40434
G0 F12000 X93.624 Y151.000
G1 F1980 X147.374 Y151.000 E573.63901
G0 F12000 X147.374 Y151.500
G1 F1980 X93.624 Y151.500 E575.87367
G0 F12000 X93.624 Y152.000
G1 F1980 X147.374 Y152.000 E578.10834
G0 F12000 X147.374 Y152.500
G1 F1980 X93.624 Y152.500 E580.34300
G0 F12000 X93.624 Y153.000
G1 F1980 X147.374 Y153.000 E582.57767
G0 F12000 X147.374 Y153.500
G1 F1980 X93.624 Y153.500 E584.81233
G0 F12000 X93.624 Y154.000
G1 F1980 X147.374 Y154.000 E587.04700
G0 F12000 X147.374 Y154.500
G1 F1980 X93.624 Y154.500 E589.28166
G0 F12000 X93.624 Y155.000
G1 F1980 X147.374 Y155.000 E591.51633
G0 F12000 X147.374 Y155.500
G1 F1980 X93.624 Y155.500 E593.75099
G0 F12000 X93.624 Y156.000
G1 F1980 X147.374 Y156.000 E595.98566
G0 F12000 X147.374 Y156.500
G1 F1980 X93.624 Y156.500 E598.22033
G0 F12000 X93.624 Y157.000
G1 F1980 X147.374 Y157.000 E600.45499
G0 F12000 X147.374 Y157.500
G1 F1980 X93.624 Y157.500 E602.68966
G0 F12000 X93.624 Y158.000
G1 F1980 X147.374 Y158.000 E604.92432
G0 F12000 X147.374 Y158.500
G1 F1980 X93.624 Y158.500 E607.15899
G0 F12000 X93.624 Y159.000
G1 F1980 X147.374 Y159.000 E609.39365
G0 F12000 X147.374 Y159.500
G1 F1980 X93.624 Y159.500 E611.62832
G0 F12000 X93.624 Y160.000
G1 F1980 X147.374 Y160.000 E613.86298
G0 F12000 X147.374 Y160.500
G1 F1980 X93.624 Y160.500 E616.09765
G0 F12000 X93.624 Y161.000
G1 F1980 X147.374 Y161.000 E618.33231
G0 F12000 X147.374 Y161.500
G1 F1980 X93.624 Y161.500 E620.56698
G0 F12000 X93.624 Y162.000
G1 F1980 X147.374 Y162.000 E622.80164
G0 F12000 X147.374 Y162.500
G1 F1980 X93.624 Y162.500 E625.03631
G0 F12000 X93.624 Y163.000
G1 F1980 X147.374 Y163.000 E627.27097
G0 F12000 X147.374 Y163.500
G1 F1980 X93.624 Y163.500 E629.50564
G0 F12000 X93.624 Y164.000
G1 F1980 X147.374 Y164.000 E631.74031
G0 F12000 X147.374 Y164.500
G1 F1980 X93.624 Y164.500 E633.97497
G0 F12000 X93.624 Y165.000
G1 F1980 X147.374 Y165.000 E636.20964
G0 F12000 X147.374 Y165.500
G1 F1980 X93.624 Y165.500 E638.44430
G0 F12000 X93.624 Y166.000
G1 F1980 X147.374 Y166.000 E640.67897
G0 F12000 X147.374 Y166.500
G1 F1980 X93.624 Y166.500 E642.91363
G0 F12000 X93.624 Y167.000
G1 F1980 X147.374 Y167.000 E645.14830
G0 F12000 X147.374 Y167.500
G1 F1980 X93.624 Y167.500 E647.38296
G0 F12000 X93.624 Y168.000
G1 F1980 X147.374 Y168.000 E649.61763
G0 F12000 X146.532 Y168.500
G1 F1980 X94.465 Y168.500 E651.78232
G0 F12000 X95.331 Y169.000
G1 F1980 X145.666 Y169.000 E653.87501
G0 F12000 X144.800 Y169.500
G1 F1980 X96.197 Y169.500 E655.89569
G0 F12000 X97.063 Y170.000
G1 F1980 X143.934 Y170.000 E657.84436
G0 F12000 X143.068 Y170.500
G1 F1980 X97.929 Y170.500 E659.72102
G0 F12000 X98.795 Y171.000
G1 F1980 X142.202 Y171.000 E661.52567
G0 F12000 X141.335 Y171.500
G1 F1980 X99.662 Y171.500 E663.25823
G0 F12000 X100.528 Y172.000
G1 F1980 X140.469 Y172.000 E664.91879
G0 F12000 X139.603 Y172.500
G1 F1980 X101.394 Y172.500 E666.50733
G0 F12000 X102.260 Y173.000
G1 F1980 X138.737 Y173.000 E668.02387
G0 F12000 X137.871 Y173.500
G1 F1980 X103.126 Y173.500 E669.46840
G0 F12000 X103.992 Y174.000
G1 F1980 X137.005 Y174.000 E670.84092
G0 F12000 X136.139 Y174.500
G1 F1980 X104.858 Y174.500 E672.14143
G0 F12000 X105.724 Y175.000
G1 F1980 X135.273 Y175.000 E673.36994
G0 F12000 X134.407 Y175.500
G1 F1980 X106.590 Y175.500 E674.52643
G0 F12000 X107.456 Y176.000
G1 F1980 X133.541 Y176.000 E675.61092
G0 F12000 X132.675 Y176.500
G1 F1980 X108.322 Y176.500 E676.62340
G0 F12000 X109.188 Y177.000
G1 F1980 X131.809 Y177.000 E677.56387
G0 F12000 X130.943 Y177.500
G1 F1980 X110.054 Y177.500 E678.43234
G0 F12000 X110.920 Y178.000
G1 F1980 X130.077 Y178.000 E679.22879
G0 F12000 X129.211 Y178.500
G1 F1980 X111.786 Y178.500 E679.95324
G0 F12000 X112.652 Y179.000
G1 F1980 X128.345 Y179.000 E680.60568
G0 F12000 X127.479 Y179.500
G1 F1980 X113.518 Y179.500 E681.18611
G0 F12000 X114.384 Y180.000
G1 F1980 X126.613 Y180.000 E681.69453
G0 F12000 X125.747 Y180.500
G1 F1980 X115.250 Y180.500 E682.13095
G0 F12000 X116.116 Y181.000
G1 F1980 X124.881 Y181.000 E682.49535
G0 F12000 X124.015 Y181.500
G1 F1980 X116.982 Y181.500 E682.78775
G0 F12000 X117.848 Y182.000
G1 F1980 X123.149 Y182.000 E683.00814
G0 F12000 X122.283 Y182.500
G1 F1980 X118.714 Y182.500 E683.15652
G0 F12000 X119.580 Y183.000
G1 F1980 X121.417 Y183.000 E683.23290
G0 F12000 X120.550 Y183.500
G1 F1980 X120.447 Y183.500 E683.23718
G1 F2100 E682.83718
G0 F12000 X157.450 Y168.049
;TYPE:WALL-INNER
G1 F2100 E683.23718
G1 F1980 X157.450 Y136.950 E684.53013
G1 X157.508 Y136.850 E684.53493
G1 X184.443 Y121.300 E685.82798
G1 X184.557 Y121.300 E685.83272
G1 X211.492 Y136.850 E687.12576
G1 X211.550 Y136.950 E687.13057
G1 X211.550 Y168.049 E688.42352
G1 X211.492 Y168.150 E688.42836
G1 X184.557 Y183.700 E689.72140
G1 X184.443 Y183.700 E689.72614
G1 X157.508 Y168.150 E691.01919
G1 X157.450 Y168.049 E691.02403
G0 F12000 X156.950 Y168.185
;TYPE:WALL-OUTER
G1 F1980 X156.950 Y136.815 E692.32824
G1 X157.142 Y136.484 E692.34415
G1 X184.309 Y120.800 E693.64834
G1 X184.691 Y120.800 E693.66422
G1 X211.858 Y136.484 E694.96840
G1 X212.050 Y136.815 E694.98431
G1 X212.050 Y168.185 E696.28853
G1 X211.858 Y168.516 E696.30444
G1 X184.691 Y184.200 E697.60862
G1 X184.309 Y184.200 E697.62450
G1 X157.142 Y168.516 E698.92869
G1 X156.950 Y168.185 E698.94459
G0 F12000 X157.624 Y168.000
;TYPE:SKIN
G1 F1980 X211.374 Y168.000 E701.17926
G0 F12000 X211.374 Y167.500
G1 F1980 X157.624 Y167.500 E703.41393
G0 F12000 X157.624 Y167.000
G1 F1980 X211.374 Y167.000 E705.64859
G0 F12000 X211.374 Y166.500
G1 F1980 X157.624 Y166.500 E707.88326
G0 F12000 X157.624 Y166.000
G1 F1980 X211.374 Y166.000 E710.11792
G0 F12000 X211.374 Y165.500
G1 F1980 X157.624 Y165.500 E712.35259
G0 F12000 X157.624 Y165.000
G1 F1980 X211.374 Y165.000 E714.58725
G0 F12000 X211.374 Y164.500
G1 F1980 X157.624 Y164.500 E716.82192
G0 F12000 X157.624 Y164.000
G1 F1980 X211.374 Y164.000 E719.05658
G0 F12000 X211.374 Y163.500
G1 F1980 X157.624 Y163.500 E721.29125
G0 F12000 X157.624 Y163.000
G1 F1980 X211.374 Y163.000 E723.52591
G0 F12000 X211.374 Y162.500
G1 F1980 X157.624 Y162.500 E725.76058
G0 F12000 X157.624 Y162.000
G1 F1980 X211.374 Y162.000 E727.99524
G0 F12000 X211.374 Y161.500
G1 F1980 X157.624 Y161.500 E730.22991
G0 F12000 X157.624 Y161.000
G1 F1980 X211.374 Y161.000 E732.46457
G0 F12000 X211.374 Y160.500
G1 F1980 X157.624 Y160.500 E734.69924
G0 F12000 X157.624 Y160.000
G1 F1980 X211.374 Y160.000 E736.93391
G1 F2100 E736.53391
G0 F12000 X210.532 Y168.500
G1 F2100 E736.93391
G1 F1980 X158.465 Y168.500 E739.09860
G0 F12000 X159.331 Y169.000
G1 F1980 X209.666 Y169.000 E741.19129
G0 F12000 X208.800 Y169.500
G1 F1980 X160.197 Y169.500 E743.21196
G0 F12000 X161.063 Y170.000
G1 F1980 X207.934 Y170.000 E745.16063
G0 F12000 X207.068 Y170.500
G1 F1980 X161.929 Y170.500 E747.03729
G0 F12000 X162.795 Y171.000
G1 F1980 X206.202 Y171.000 E748.84195
G0 F12000 X205.335 Y171.500
G1 F1980 X163.662 Y171.500 E750.57451
G0 F12000 X164.528 Y172.000
G1 F1980 X204.469 Y172.000 E752.23506
G0 F12000 X203.603 Y172.500
G1 F1980 X165.394 Y172.500 E753.82361
G0 F12000 X166.260 Y173.000
G1 F1980 X202.737 Y173.000 E755.34015
G0 F12000 X201.871 Y173.500
G1 F1980 X167.126 Y173.500 E756.78468
G0 F12000 X167.992 Y174.000
G1 F1980 X201.005 Y174.000 E758.15720
G0 F12000 X200.139 Y174.500
G1 F1980 X168.858 Y174.500 E759.45771
G0 F12000 X169.724 Y175.000
G1 F1980 X199.273 Y175.000 E760.68621
G0 F12000 X198.407 Y175.500
G1 F1980 X170.590 Y175.500 E761.84271
G0 F12000 X171.456 Y176.000
G1 F1980 X197.541 Y176.000 E762.92720
G0 F12000 X196.675 Y176.500
G1 F1980 X172.322 Y176.500 E763.93968
G0 F12000 X173.188 Y177.000
G1 F1980 X195.809 Y177.000 E764.88015
G0 F12000 X194.943 Y177.500
G1 F1980 X174.054 Y177.500 E765.74862
G0 F12000 X174.920 Y178.000
G1 F1980 X194.077 Y178.000 E766.54507
G0 F12000 X193.211 Y178.500
G1 F1980 X175.786 Y178.500 E767.26952
G0 F12000 X176.652 Y179.000
G1 F1980 X192.345 Y179.000 E767.92196
G0 F12000 X191.479 Y179.500
G1 F1980 X177.518 Y179.500 E768.50239
G0 F12000 X178.384 Y180.000
G1 F1980 X190.613 Y180.000 E769.01081
G0 F12000 X189.747 Y180.500
G1 F1980 X179.250 Y180.500 E769.44723
G0 F12000 X180.116 Y181.000
G1 F1980 X188.881 Y181.000 E769.81163
G0 F12000 X188.015 Y181.500
G1 F1980 X180.982 Y181.500 E770.10403
G0 F12000 X181.848 Y182.000
G1 F1980 X187.149 Y182.000 E770.32442
G0 F12000 X186.283 Y182.500
G1 F1980 X182.714 Y182.500 E770.47280
G0 F12000 X183.580 Y183.000
G1 F1980 X185.417 Y183.000 E770.54918
G0 F12000 X184.550 Y183.500
G1 F1980 X184.447 Y183.500 E770.55346
G1 F2100 E770.15346
G0 F12000 X157.624 Y159.500
G1 F2100 E770.55346
G1 F1980 X211.374 Y159.500 E772.78812
G0 F12000 X211.374 Y159.000
G1 F1980 X157.624 Y159.000 E775.02279
G0 F12000 X157.624 Y158.500
G1 F1980 X211.374 Y158.500 E777.25745
G0 F12000 X211.374 Y158.000
G1 F1980 X157.624 Y158.000 E779.49212
G0 F12000 X157.624 Y157.500
G1 F1980 X211.374 Y157.500 E781.72678
G0 F12000 X211.374 Y157.000
G1 F1980 X157.624 Y157.000 E783.96145
G0 F12000 X157.624 Y156.500
G1 F1980 X211.374 Y156.500 E786.19611
G0 F12000 X211.374 Y156.000
G1 F1980 X157.624 Y156.000 E788.43078
G0 F12000 X157.624 Y155.500
G1 F1980 X211.374 Y155.500 E790.66545
G0 F12000 X211.374 Y155.000
G1 F1980 X157.624 Y155.000 E792.90011
G0 F12000 X157.624 Y154.500
G1 F1980 X211.374 Y154.500 E795.13478
G0 F12000 X211.374 Y154.000
G1 F1980 X157.624 Y154.000 E797.36944
G0 F12000 X157.624 Y153.500
G1 F1980 X211.374 Y153.500 E799.60411
G0 F12000 X211.374 Y153.000
G1 F1980 X157.624 Y153.000 E801.83877
G0 F12000 X157.624 Y152.500
G1 F1980 X211.374 Y152.500 E804.07344
G0 F12000 X211.374 Y152.000
G1 F1980 X157.624 Y152.000 E806.30810
G0 F12000 X157.624 Y151.500
G1 F1980 X211.374 Y151.500 E808.54277
G0 F12000 X211.374 Y151.000
G1 F1980 X157.624 Y151.000 E810.77743
G0 F12000 X157.624 Y150.500
G1 F1980 X211.374 Y150.500 E813.01210
G0 F12000 X211.374 Y150.000
G1 F1980 X157.624 Y150.000 E815.24676
G0 F12000 X157.624 Y149.500
G1 F1980 X211.374 Y149.500 E817.48143
G0 F12000 X211.374 Y149.000
G1 F1980 X157.624 Y149.000 E819.71609
G0 F12000 X157.624 Y148.500
G1 F1980 X211.374 Y148.500 E821.95076
G0 F12000 X211.374 Y148.000
G1 F1980 X157.624 Y148.000 E824.18543
G0 F12000 X157.624 Y147.500
G1 F1980 X211.374 Y147.500 E826.42009
G0 F12000 X211.374 Y147.000
G1 F1980 X157.624 Y147.000 E828.65476
G0 F12000 X157.624 Y146.500
G1 F1980 X211.374 Y146.500 E830.88942
G0 F12000 X211.374 Y146.000
G1 F1980 X157.624 Y146.000 E833.12409
G0 F12000 X157.624 Y145.500
G1 F1980 X211.374 Y145.500 E835.35875
G0 F12000 X211.374 Y145.000
G1 F1980 X157.624 Y145.000 E837.59342
G0 F12000 X157.624 Y144.500
G1 F1980 X211.374 Y144.500 E839.82808
G0 F12000 X211.374 Y144.000
G1 F1980 X157.624 Y144.000 E842.06275
G0 F12000 X157.624 Y143.500
G1 F1980 X211.374 Y143.500 E844.29741
G0 F12000 X211.374 Y143.000
G1 F1980 X157.624 Y143.000 E846.53208
G0 F12000 X157.624 Y142.500
G1 F1980 X211.374 Y142.500 E848.76674
G0 F12000 X211.374 Y142.000
G1 F1980 X157.624 Y142.000 E851.00141
G0 F12000 X157.624 Y141.500
G1 F1980 X211.374 Y141.500 E853.23607
G0 F12000 X211.374 Y141.000
G1 F1980 X157.624 Y141.000 E855.47074
G0 F12000 X157.624 Y140.500
G1 F1980 X211.374 Y140.500 E857.70541
G0 F12000 X211.374 Y140.000
G1 F1980 X157.624 Y140.000 E859.94007
G0 F12000 X157.624 Y139.500
G1 F1980 X211.374 Y139.500 E862.17474
G0 F12000 X211.374 Y139.000
G1 F1980 X157.624 Y139.000 E864.40940
G0 F12000 X157.624 Y138.500
G1 F1980 X211.374 Y138.500 E866.64407
G0 F12000 X211.374 Y138.000
G1 F1980 X157.624 Y138.000 E868.87873
G0 F12000 X157.624 Y137.500
G1 F1980 X211.374 Y137.500 E871.11340
G0 F12000 X211.374 Y137.000
G1 F1980 X157.624 Y137.000 E873.34806
G0 F12000 X158.463 Y136.500
G1 F1980 X210.536 Y136.500 E875.51301
G0 F12000 X209.670 Y136.000
G1 F1980 X159.329 Y136.000 E877.60594
G0 F12000 X160.195 Y135.500
G1 F1980 X208.804 Y135.500 E879.62687
G0 F12000 X207.938 Y135.000
G1 F1980 X161.061 Y135.000 E881.57579
G0 F12000 X161.927 Y134.500
G1 F1980 X207.072 Y134.500 E883.45270
G0 F12000 X206.206 Y134.000
G1 F1980 X162.793 Y134.000 E885.25760
G0 F12000 X163.659 Y133.500
G1 F1980 X205.340 Y133.500 E886.99050
G0 F12000 X204.474 Y133.000
G1 F1980 X164.525 Y133.000 E888.65138
G0 F12000 X165.391 Y132.500
G1 F1980 X203.608 Y132.500 E890.24026
G0 F12000 X202.742 Y132.000
G1 F1980 X166.257 Y132.000 E891.75713
G0 F12000 X167.123 Y131.500
G1 F1980 X201.876 Y131.500 E893.20199
G0 F12000 X201.010 Y131.000
G1 F1980 X167.989 Y131.000 E894.57485
G0 F12000 X168.855 Y130.500
G1 F1980 X200.144 Y130.500 E895.87569
G0 F12000 X199.278 Y130.000
G1 F1980 X169.721 Y130.000 E897.10453
G0 F12000 X170.587 Y129.500
G1 F1980 X198.412 Y129.500 E898.26136
G0 F12000 X197.546 Y129.000
G1 F1980 X171.453 Y129.000 E899.34618
G0 F12000 X172.319 Y128.500
G1 F1980 X196.680 Y128.500 E900.35899
G0 F12000 X195.813 Y128.000
G1 F1980 X173.186 Y128.000 E901.29971
G0 F12000 X174.052 Y127.500
G1 F1980 X194.947 Y127.500 E902.16843
G0 F12000 X194.081 Y127.000
G1 F1980 X174.918 Y127.000 E902.96513
G0 F12000 X175.784 Y126.500
G1 F1980 X193.215 Y126.500 E903.68983
G0 F12000 X192.349 Y126.000
G1 F1980 X176.650 Y126.000 E904.34252
G0 F12000 X177.516 Y125.500
G1 F1980 X191.483 Y125.500 E904.92320
G0 F12000 X190.617 Y125.000
G1 F1980 X178.382 Y125.000 E905.43187
G0 F12000 X179.248 Y124.500
G1 F1980 X189.751 Y124.500 E905.86853
G0 F12000 X188.885 Y124.000
G1 F1980 X180.114 Y124.000 E906.23319
G0 F12000 X180.980 Y123.500
G1 F1980 X188.019 Y123.500 E906.52584
G0 F12000 X187.153 Y123.000
G1 F1980 X181.846 Y123.000 E906.74648
G0 F12000 X182.712 Y122.500
G1 F1980 X186.287 Y122.500 E906.89511
G0 F12000 X185.421 Y122.000
G1 F1980 X183.578 Y122.000 E906.97173
G0 F12000 X184.444 Y121.500
G1 F1980 X184.555 Y121.500 E906.97635
;LAYER:2
M106 S20
G1 F2100 E906.57635
G0 F12000 X147.750 Y137.034 Z0.600
;TYPE:WALL-INNER
G1 F2100 E906.97635
G1 F2220 X147.750 Y167.966 E908.26235
G1 X147.519 Y168.365 E908.28152
G1 X120.731 Y183.831 E909.56752
G1 X120.269 Y183.831 E909.58673
G1 X93.482 Y168.365 E910.87270
G1 X93.250 Y167.964 E910.89196
G1 X93.250 Y137.036 E912.17780
G1 X93.482 Y136.635 E912.19706
G1 X120.269 Y121.169 E913.48303
G1 X120.731 Y121.169 E913.50224
G1 X147.519 Y136.635 E914.78825
G1 X147.750 Y137.034 E914.80741
G0 F12000 X148.250 Y136.900
;TYPE:WALL-OUTER
G1 F2220 X148.250 Y168.100 E916.10456
G1 X147.885 Y168.731 E916.13487
G1 X120.865 Y184.331 E917.43201
G1 X120.135 Y184.331 E917.46236
G1 X93.116 Y168.731 E918.75947
G1 X92.750 Y168.100 E918.78980
G1 X92.750 Y136.900 E920.08694
G1 X93.116 Y136.269 E920.11727
G1 X120.135 Y120.669 E921.41438
G1 X120.865 Y120.669 E921.44473
G1 X147.885 Y136.269 E922.74188
G1 X148.250 Y136.900 E922.77218
G0 F12000 X147.500 Y136.951
;TYPE:SKIN
G1 F2220 X147.500 Y168.050 E924.06513
G0 F12000 X147.000 Y168.463
G1 F2220 X147.000 Y136.538 E925.39242
G0 F12000 X146.500 Y136.250
G1 F2220 X146.500 Y168.751 E926.74365
G0 F12000 X146.000 Y169.040
G1 F2220 X146.000 Y135.961 E928.11892
G0 F12000 X145.500 Y135.672
G1 F2220 X145.500 Y169.329 E929.51821
G0 F12000 X145.000 Y169.617
G1 F2220 X145.000 Y135.384 E930.94145
G0 F12000 X144.500 Y135.095
G1 F2220 X144.500 Y169.906 E932.38873
G0 F12000 X144.000 Y170.195
G1 F2220 X144.000 Y134.806 E933.86003
G0 F12000 X143.500 Y134.518
G1 F2220 X143.500 Y170.483 E935.35528
G0 F12000 X143.000 Y170.772
G1 F2220 X143.000 Y134.229 E936.87456
G0 F12000 X142.500 Y133.940
G1 F2220 X142.500 Y171.061 E938.41788
G0 F12000 X142.000 Y171.349
G1 F2220 X142.000 Y133.652 E939.98513
G0 F12000 X141.500 Y133.363
G1 F2220 X141.500 Y171.638 E941.57642
G0 F12000 X141.000 Y171.927
G1 F2220 X141.000 Y133.074 E943.19174
G0 F12000 X140.500 Y132.786
G1 F2220 X140.500 Y172.215 E944.83101
G0 F12000 X140.000 Y172.504
G1 F2220 X140.000 Y132.497 E946.49431
G0 F12000 X139.500 Y132.208
G1 F2220 X139.500 Y172.793 E948.18164
G0 F12000 X139.000 Y173.081
G1 F2220 X139.000 Y131.920 E949.89291
G0 F12000 X138.500 Y131.631
G1 F2220 X138.500 Y173.370 E951.62822
G0 F12000 X138.000 Y173.659
G1 F2220 X138.000 Y131.342 E953.38756
G0 F12000 X137.500 Y131.054
G1 F2220 X137.500 Y173.947 E955.17084
G0 F12000 X137.000 Y174.236
G1 F2220 X137.000 Y130.765 E956.97815
G0 F12000 X136.500 Y130.476
G1 F2220 X136.500 Y174.525 E958.80950
G0 F12000 X136.000 Y174.813
G1 F2220 X136.000 Y130.188 E960.66479
G0 F12000 X135.500 Y129.899
G1 F2220 X135.500 Y175.102 E962.54411
G0 F12000 X135.000 Y175.391
G1 F2220 X135.000 Y129.610 E964.44746
G0 F12000 X134.500 Y129.322
G1 F2220 X134.500 Y175.679 E966.37476
G0 F12000 X134.000 Y175.968
G1 F2220 X134.000 Y129.033 E968.32610
G0 F12000 X133.500 Y128.744
G1 F2220 X133.500 Y176.257 E970.30146
G0 F12000 X133.000 Y176.545
G1 F2220 X133.000 Y128.456 E972.30076
G0 F12000 X132.500 Y128.167
G1 F2220 X132.500 Y176.834 E974.32410
G0 F12000 X132.000 Y177.123
G1 F2220 X132.000 Y127.878 E976.37147
G0 F12000 X131.500 Y127.590
G1 F2220 X131.500 Y177.411 E978.44279
G0 F12000 X131.000 Y177.700
G1 F2220 X131.000 Y127.301 E980.53814
G0 F12000 X130.500 Y127.012
G1 F2220 X130.500 Y177.989 E982.65751
G0 F12000 X130.000 Y178.277
G1 F2220 X130.000 Y126.724 E984.80084
G0 F12000 X129.500 Y126.435
G1 F2220 X129.500 Y178.566 E986.96819
G0 F12000 X129.000 Y178.855
G1 F2220 X129.000 Y126.146 E989.15958
G0 F12000 X128.500 Y125.858
G1 F2220 X128.500 Y179.143 E991.37491
G0 F12000 X128.000 Y179.432
G1 F2220 X128.000 Y125.569 E993.61427
G0 F12000 X127.500 Y125.280
G1 F2220 X127.500 Y179.721 E995.87767
G0 F12000 X127.000 Y180.009
G1 F2220 X127.000 Y124.992 E998.16501
G0 F12000 X126.500 Y124.703
G1 F2220 X126.500 Y180.298 E1000.47638
G0 F12000 X126.000 Y180.587
G1 F2220 X126.000 Y124.414 E1002.81178
G0 F12000 X125.500 Y124.126
G1 F2220 X125.500 Y180.875 E1005.17113
G0 F12000 X125.000 Y181.164
G1 F2220 X125.000 Y123.837 E1007.55451
G0 F12000 X124.500 Y123.548
G1 F2220 X124.500 Y181.453 E1009.96192
G0 F12000 X124.000 Y181.741
G1 F2220 X124.000 Y123.260 E1012.39328
G0 F12000 X123.500 Y122.971
G1 F2220 X123.500 Y182.030 E1014.84867
G0 F12000 X123.000 Y182.319
G1 F2220 X123.000 Y122.682 E1017.32809
G0 F12000 X122.500 Y122.394
G1 F2220 X122.500 Y182.607 E1019.83145
G0 F12000 X122.000 Y182.896
G1 F2220 X122.000 Y122.105 E1022.35885
G0 F12000 X121.500 Y121.816
G1 F2220 X121.500 Y183.185 E1024.91027
G0 F12000 X121.000 Y183.473
G1 F2220 X121.000 Y121.528 E1027.48565
G0 F12000 X120.500 Y121.344
G1 F2220 X120.500 Y183.656 E1030.07628
G0 F12000 X120.000 Y183.472
G1 F2220 X120.000 Y121.527 E1032.65165
G0 F12000 X119.500 Y121.815
G1 F2220 X119.500 Y183.184 E1035.20308
G0 F12000 X119.000 Y182.895
G1 F2220 X119.000 Y122.104 E1037.73048
G0 F12000 X118.500 Y122.393
G1 F2220 X118.500 Y182.606 E1040.23384
G0 F12000 X118.000 Y182.318
G1 F2220 X118.000 Y122.681 E1042.71326
G0 F12000 X117.500 Y122.970
G1 F2220 X117.500 Y182.029 E1045.16865
G0 F12000 X117.000 Y181.740
G1 F2220 X117.000 Y123.259 E1047.60001
G0 F12000 X116.500 Y123.547
G1 F2220 X116.500 Y181.452 E1050.00742
G0 F12000 X116.000 Y181.163
G1 F2220 X116.000 Y123.836 E1052.39080
G0 F12000 X115.500 Y124.125
G1 F2220 X115.500 Y180.874 E1054.75014
G0 F12000 X115.000 Y180.586
G1 F2220 X115.000 Y124.413 E1057.08555
G0 F12000 X114.500 Y124.702
G1 F2220 X114.500 Y180.297 E1059.39692
G0 F12000 X114.000 Y180.008
G1 F2220 X114.000 Y124.991 E1061.68426
G0 F12000 X113.500 Y125.279
G1 F2220 X113.500 Y179.720 E1063.94765
G0 F12000 X113.000 Y179.431
G1 F2220 X113.000 Y125.568 E1066.18702
G0 F12000 X112.500 Y125.857
G1 F2220 X112.500 Y179.142 E1068.40235
G0 F12000 X112.000 Y178.854
G1 F2220 X112.000 Y126.145 E1070.59373
G0 F12000 X111.500 Y126.434
G1 F2220 X111.500 Y178.565 E1072.76109
G0 F12000 X111.000 Y178.276
G1 F2220 X111.000 Y126.723 E1074.90441
G0 F12000 X110.500 Y127.011
G1 F2220 X110.500 Y177.988 E1077.02379
G0 F12000 X110.000 Y177.699
G1 F2220 X110.000 Y127.300 E1079.11914
G0 F12000 X109.500 Y127.589
G1 F2220 X109.500 Y177.410 E1081.19046
G0 F12000 X109.000 Y177.122
G1 F2220 X109.000 Y127.877 E1083.23782
G0 F12000 X108.500 Y128.166
G1 F2220 X108.500 Y176.833 E1085.26116
G0 F12000 X108.000 Y176.544
G1 F2220 X108.000 Y128.455 E1087.26047
G0 F12000 X107.500 Y128.743
G1 F2220 X107.500 Y176.256 E1089.23583
G0 F12000 X107.000 Y175.967
G1 F2220 X107.000 Y129.032 E1091.18716
G0 F12000 X106.500 Y129.321
G1 F2220 X106.500 Y175.678 E1093.11446
G0 F12000 X106.000 Y175.390
G1 F2220 X106.000 Y129.609 E1095.01782
G0 F12000 X105.500 Y129.898
G1 F2220 X105.500 Y175.101 E1096.89714
G0 F12000 X105.000 Y174.812
G1 F2220 X105.000 Y130.187 E1098.75243
G0 F12000 X104.500 Y130.476
G1 F2220 X104.500 Y174.523 E1100.58369
G0 F12000 X104.000 Y174.235
G1 F2220 X104.000 Y130.764 E1102.39101
G0 F12000 X103.500 Y131.053
G1 F2220 X103.500 Y173.946 E1104.17429
G0 F12000 X103.000 Y173.657
G1 F2220 X103.000 Y131.342 E1105.93354
G0 F12000 X102.500 Y131.630
G1 F2220 X102.500 Y173.369 E1107.66885
G0 F12000 X102.000 Y173.080
G1 F2220 X102.000 Y131.919 E1109.38012
G0 F12000 X101.500 Y132.208
G1 F2220 X101.500 Y172.791 E1111.06737
G0 F12000 X101.000 Y172.503
G1 F2220 X101.000 Y132.496 E1112.73067
G0 F12000 X100.500 Y132.785
G1 F2220 X100.500 Y172.214 E1114.36993
G0 F12000 X100.000 Y171.925
G1 F2220 X100.000 Y133.074 E1115.98517
G0 F12000 X99.500 Y133.362
G1 F2220 X99.500 Y171.637 E1117.57646
G0 F12000 X99.000 Y171.348
G1 F2220 X99.000 Y133.651 E1119.14372
G0 F12000 X98.500 Y133.940
G1 F2220 X98.500 Y171.059 E1120.68695
G0 F12000 X98.000 Y170.771
G1 F2220 X98.000 Y134.228 E1122.20623
G0 F12000 X97.500 Y134.517
G1 F2220 X97.500 Y170.482 E1123.70148
G0 F12000 X97.000 Y170.193
G1 F2220 X97.000 Y134.806 E1125.17270
G0 F12000 X96.500 Y135.094
G1 F2220 X96.500 Y169.905 E1126.61998
G0 F12000 X96.000 Y169.616
G1 F2220 X96.000 Y135.383 E1128.04322
G0 F12000 X95.500 Y135.672
G1 F2220 X95.500 Y169.327 E1129.44243
G0 F12000 X95.000 Y169.039
G1 F2220 X95.000 Y135.960 E1130.81770
G0 F12000 X94.500 Y136.249
G1 F2220 X94.500 Y168.750 E1132.16893
G0 F12000 X94.000 Y168.461
G1 F2220 X94.000 Y136.538 E1133.49613
G0 F12000 X93.500 Y136.952
G1 F2220 X93.500 Y168.047 E1134.78891
G1 F2100 E1134.38891
G0 F12000 X157.250 Y167.966
;TYPE:WALL-INNER
G1 F2100 E1134.78891
G1 F2220 X157.250 Y137.034 E1136.07492
G1 X157.481 Y136.635 E1136.09408
G1 X184.269 Y121.169 E1137.38009
G1 X184.731 Y121.169 E1137.39930
G1 X211.518 Y136.635 E1138.68527
G1 X211.750 Y137.036 E1138.70453
G1 X211.750 Y167.964 E1139.99037
G1 X211.518 Y168.365 E1140.00963
G1 X184.731 Y183.831 E1141.29560
G1 X184.269 Y183.831 E1141.31481
G1 X157.481 Y168.365 E1142.60081
G1 X157.250 Y167.966 E1142.61998
G0 F12000 X156.750 Y168.100
;TYPE:WALL-OUTER
G1 F2220 X156.750 Y136.900 E1143.91713
G1 X157.115 Y136.269 E1143.94743
G1 X184.135 Y120.669 E1145.24458
G1 X184.865 Y120.669 E1145.27493
G1 X211.884 Y136.269 E1146.57204
G1 X212.250 Y136.900 E1146.60237
G1 X212.250 Y168.100 E1147.89951
G1 X211.884 Y168.731 E1147.92984
G1 X184.865 Y184.331 E1149.22695
G1 X184.135 Y184.331 E1149.25730
G1 X157.115 Y168.731 E1150.55444
G1 X156.750 Y168.100 E1150.58475
G0 F12000 X157.500 Y168.049
;TYPE:SKIN
G1 F2220 X157.500 Y136.950 E1151.87770
G0 F12000 X158.000 Y136.537
G1 F2220 X158.000 Y168.462 E1153.20498
G0 F12000 X158.500 Y168.750
G1 F2220 X158.500 Y136.249 E1154.55622
G0 F12000 X159.000 Y135.960
G1 F2220 X159.000 Y169.039 E1155.93148
G0 F12000 X159.500 Y169.328
G1 F2220 X159.500 Y135.671 E1157.33078
G0 F12000 X160.000 Y135.383
G1 F2220 X160.000 Y169.616 E1158.75402
G0 F12000 X160.500 Y169.905
G1 F2220 X160.500 Y135.094 E1160.20130
G0 F12000 X161.000 Y134.805
G1 F2220 X161.000 Y170.194 E1161.67260
G0 F12000 X161.500 Y170.482
G1 F2220 X161.500 Y134.517 E1163.16785
G0 F12000 X162.000 Y134.228
G1 F2220 X162.000 Y170.771 E1164.68713
G0 F12000 X162.500 Y171.060
G1 F2220 X162.500 Y133.939 E1166.23044
G0 F12000 X163.000 Y133.651
G1 F2220 X163.000 Y171.348 E1167.79770
G0 F12000 X163.500 Y171.637
G1 F2220 X163.500 Y133.362 E1169.38899
G0 F12000 X164.000 Y133.073
G1 F2220 X164.000 Y171.926 E1171.00431
G0 F12000 X164.500 Y172.214
G1 F2220 X164.500 Y132.785 E1172.64358
G0 F12000 X165.000 Y132.496
G1 F2220 X165.000 Y172.503 E1174.30688
G0 F12000 X165.500 Y172.792
G1 F2220 X165.500 Y132.207 E1175.99421
G0 F12000 X166.000 Y131.919
G1 F2220 X166.000 Y173.080 E1177.70548
G0 F12000 X166.500 Y173.369
G1 F2220 X166.500 Y131.630 E1179.44079
G0 F12000 X167.000 Y131.341
G1 F2220 X167.000 Y173.658 E1181.20012
G0 F12000 X167.500 Y173.946
G1 F2220 X167.500 Y131.053 E1182.98341
G0 F12000 X168.000 Y130.764
G1 F2220 X168.000 Y174.235 E1184.79072
G0 F12000 X168.500 Y174.524
G1 F2220 X168.500 Y130.475 E1186.62207
G0 F12000 X169.000 Y130.187
G1 F2220 X169.000 Y174.812 E1188.47736
G0 F12000 X169.500 Y175.101
G1 F2220 X169.500 Y129.898 E1190.35668
G0 F12000 X170.000 Y129.609
G1 F2220 X170.000 Y175.390 E1192.26003
G0 F12000 X170.500 Y175.678
G1 F2220 X170.500 Y129.321 E1194.18733
G0 F12000 X171.000 Y129.032
G1 F2220 X171.000 Y175.967 E1196.13866
G0 F12000 X171.500 Y176.256
G1 F2220 X171.500 Y128.743 E1198.11402
G0 F12000 X172.000 Y128.455
G1 F2220 X172.000 Y176.544 E1200.11333
G0 F12000 X172.500 Y176.833
G1 F2220 X172.500 Y128.166 E1202.13667
G0 F12000 X173.000 Y127.877
G1 F2220 X173.000 Y177.122 E1204.18404
G0 F12000 X173.500 Y177.410
G1 F2220 X173.500 Y127.589 E1206.25536
G0 F12000 X174.000 Y127.300
G1 F2220 X174.000 Y177.699 E1208.35070
G0 F12000 X174.500 Y177.988
G1 F2220 X174.500 Y127.011 E1210.47008
G0 F12000 X175.000 Y126.723
G1 F2220 X175.000 Y178.276 E1212.61341
G0 F12000 X175.500 Y178.565
G1 F2220 X175.500 Y126.434 E1214.78076
G0 F12000 X176.000 Y126.145
G1 F2220 X176.000 Y178.854 E1216.97215
G0 F12000 X176.500 Y179.142
G1 F2220 X176.500 Y125.857 E1219.18748
G0 F12000 X177.000 Y125.568
G1 F2220 X177.000 Y179.431 E1221.42684
G0 F12000 X177.500 Y179.720
G1 F2220 X177.500 Y125.279 E1223.69024
G0 F12000 X178.000 Y124.991
G1 F2220 X178.000 Y180.008 E1225.97758
G0 F12000 X178.500 Y180.297
G1 F2220 X178.500 Y124.702 E1228.28895
G0 F12000 X179.000 Y124.413
G1 F2220 X179.000 Y180.586 E1230.62435
G0 F12000 X179.500 Y180.874
G1 F2220 X179.500 Y124.125 E1232.98370
G0 F12000 X180.000 Y123.836
G1 F2220 X180.000 Y181.163 E1235.36708
G0 F12000 X180.500 Y181.452
G1 F2220 X180.500 Y123.547 E1237.77449
G0 F12000 X181.000 Y123.259
G1 F2220 X181.000 Y181.740 E1240.20585
G0 F12000 X181.500 Y182.029
G1 F2220 X181.500 Y122.970 E1242.66124
G0 F12000 X182.000 Y122.681
G1 F2220 X182.000 Y182.318 E1245.14065
G0 F12000 X182.500 Y182.606
G1 F2220 X182.500 Y122.393 E1247.64402
G0 F12000 X183.000 Y122.104
G1 F2220 X183.000 Y182.895 E1250.17142
G0 F12000 X183.500 Y183.184
G1 F2220 X183.500 Y121.815 E1252.72284
G0 F12000 X184.000 Y121.527
G1 F2220 X184.000 Y183.472 E1255.29822
G0 F12000 X184.500 Y183.656
G1 F2220 X184.500 Y121.344 E1257.88885
G0 F12000 X185.000 Y121.528
G1 F2220 X185.000 Y183.473 E1260.46422
G0 F12000 X185.500 Y183.185
G1 F2220 X185.500 Y121.816 E1263.01565
G0 F12000 X186.000 Y122.105
G1 F2220 X186.000 Y182.896 E1265.54304
G0 F12000 X186.500 Y182.607
G1 F2220 X186.500 Y122.394 E1268.04641
G0 F12000 X187.000 Y122.682
G1 F2220 X187.000 Y182.319 E1270.52583
G0 F12000 X187.500 Y182.030
G1 F2220 X187.500 Y122.971 E1272.98122
G0 F12000 X188.000 Y123.260
G1 F2220 X188.000 Y181.741 E1275.41257
G0 F12000 X188.500 Y181.453
G1 F2220 X188.500 Y123.548 E1277.81998
G0 F12000 X189.000 Y123.837
G1 F2220 X189.000 Y181.164 E1280.20336
G0 F12000 X189.500 Y180.875
G1 F2220 X189.500 Y124.126 E1282.56271
G0 F12000 X190.000 Y124.414
G1 F2220 X190.000 Y180.587 E1284.89811
G0 F12000 X190.500 Y180.298
G1 F2220 X190.500 Y124.703 E1287.20949
G0 F12000 X191.000 Y124.992
G1 F2220 X191.000 Y180.009 E1289.49683
G0 F12000 X191.500 Y179.721
G1 F2220 X191.500 Y125.280 E1291.76022
G0 F12000 X192.000 Y125.569
G1 F2220 X192.000 Y179.432 E1293.99958
G0 F12000 X192.500 Y179.143
G1 F2220 X192.500 Y125.858 E1296.21492
G0 F12000 X193.000 Y126.146
G1 F2220 X193.000 Y178.855 E1298.40630
G0 F12000 X193.500 Y178.566
G1 F2220 X193.500 Y126.435 E1300.57366
G0 F12000 X194.000 Y126.724
G1 F2220 X194.000 Y178.277 E1302.71698
G0 F12000 X194.500 Y177.989
G1 F2220 X194.500 Y127.012 E1304.83636
G0 F12000 X195.000 Y127.301
G1 F2220 X195.000 Y177.700 E1306.93171
G0 F12000 X195.500 Y177.411
G1 F2220 X195.500 Y127.590 E1309.00302
G0 F12000 X196.000 Y127.878
G1 F2220 X196.000 Y177.123 E1311.05039
G0 F12000 X196.500 Y176.834
G1 F2220 X196.500 Y128.167 E1313.07373
G0 F12000 X197.000 Y128.456
G1 F2220 X197.000 Y176.545 E1315.07304
G0 F12000 X197.500 Y176.257
G1 F2220 X197.500 Y128.744 E1317.04840
G0 F12000 X198.000 Y129.033
G1 F2220 X198.000 Y175.968 E1318.99973
G0 F12000 X198.500 Y175.679
G1 F2220 X198.500 Y129.322 E1320.92703
G0 F12000 X199.000 Y129.610
G1 F2220 X199.000 Y175.391 E1322.83038
G0 F12000 X199.500 Y175.102
G1 F2220 X199.500 Y129.899 E1324.70971
G0 F12000 X200.000 Y130.188
G1 F2220 X200.000 Y174.813 E1326.56500
G0 F12000 X200.500 Y174.524
G1 F2220 X200.500 Y130.477 E1328.39626
G0 F12000 X201.000 Y130.765
G1 F2220 X201.000 Y174.236 E1330.20357
G0 F12000 X201.500 Y173.947
G1 F2220 X201.500 Y131.054 E1331.98686
G0 F12000 X202.000 Y131.343
G1 F2220 X202.000 Y173.658 E1333.74611
G0 F12000 X202.500 Y173.370
G1 F2220 X202.500 Y131.631 E1335.48142
G0 F12000 X203.000 Y131.920
G1 F2220 X203.000 Y173.081 E1337.19269
G0 F12000 X203.500 Y172.792
G1 F2220 X203.500 Y132.209 E1338.87994
G0 F12000 X204.000 Y132.497
G1 F2220 X204.000 Y172.504 E1340.54324
G0 F12000 X204.500 Y172.215
G1 F2220 X204.500 Y132.786 E1342.18250
G0 F12000 X205.000 Y133.075
G1 F2220 X205.000 Y171.926 E1343.79774
G0 F12000 X205.500 Y171.638
G1 F2220 X205.500 Y133.363 E1345.38903
G0 F12000 X206.000 Y133.652
G1 F2220 X206.000 Y171.349 E1346.95629
G0 F12000 X206.500 Y171.060
G1 F2220 X206.500 Y133.941 E1348.49952
G0 F12000 X207.000 Y134.229
G1 F2220 X207.000 Y170.772 E1350.01880
G0 F12000 X207.500 Y170.483
G1 F2220 X207.500 Y134.518 E1351.51405
G0 F12000 X208.000 Y134.807
G1 F2220 X208.000 Y170.194 E1352.98527
G0 F12000 X208.500 Y169.906
G1 F2220 X208.500 Y135.095 E1354.43254
G0 F12000 X209.000 Y135.384
G1 F2220 X209.000 Y169.617 E1355.85579
G0 F12000 X209.500 Y169.328
G1 F2220 X209.500 Y135.673 E1357.25500
G0 F12000 X210.000 Y135.961
G1 F2220 X210.000 Y169.040 E1358.63026
G0 F12000 X210.500 Y168.751
G1 F2220 X210.500 Y136.250 E1359.98150
G0 F12000 X211.000 Y136.539
G1 F2220 X211.000 Y168.462 E1361.30870
G0 F12000 X211.500 Y168.048
G1 F2220 X211.500 Y136.953 E1362.60148
;LAYER:3
M106 S30
G1 F2100 E1362.20148
G0 F12000 X147.950 Y137.119 Z0.800
;TYPE:WALL-INNER
G1 F2100 E1362.60148
G1 F2400 X147.950 Y167.881 E1363.88042
G1 X147.545 Y168.581 E1363.91404
G1 X120.904 Y183.962 E1365.19299
G1 X120.096 Y183.962 E1365.22658
G1 X93.455 Y168.581 E1366.50553
G1 X93.050 Y167.881 E1366.53915
G1 X93.050 Y137.119 E1367.81808
G1 X93.455 Y136.419 E1367.85171
G1 X120.096 Y121.038 E1369.13065
G1 X120.904 Y121.038 E1369.16425
G1 X147.545 Y136.419 E1370.44319
G1 X147.950 Y137.119 E1370.47682
G0 F12000 X148.450 Y136.984
;TYPE:WALL-OUTER
G1 F2400 X148.450 Y168.016 E1371.76698
G1 X147.911 Y168.947 E1371.81170
G1 X121.038 Y184.462 E1373.10179
G1 X119.962 Y184.462 E1373.14652
G1 X93.089 Y168.947 E1374.43661
G1 X92.550 Y168.016 E1374.48133
G1 X92.550 Y136.984 E1375.77150
G1 X93.089 Y136.053 E1375.81622
G1 X119.962 Y120.538 E1377.10631
G1 X121.038 Y120.538 E1377.15104
G1 X147.911 Y136.053 E1378.44113
G1 X148.450 Y136.984 E1378.48585
G0 F12000 X147.680 Y137.000
;TYPE:SKIN
G1 F2400 X93.319 Y137.000 E1380.74592
G0 F12000 X93.224 Y137.500
G1 F2400 X147.774 Y137.500 E1383.01385
G0 F12000 X147.774 Y138.000
G1 F2400 X93.224 Y138.000 E1385.28177
G0 F12000 X93.224 Y138.500
G1 F2400 X147.774 Y138.500 E1387.54970
G0 F12000 X147.774 Y139.000
G1 F2400 X93.224 Y139.000 E1389.81762
G0 F12000 X93.224 Y139.500
G1 F2400 X147.774 Y139.500 E1392.08555
G1 F2100 E1391.68555
G0 F12000 X147.336 Y136.500
G1 F2100 E1392.08555
G1 F2400 X93.663 Y136.500 E1394.31701
G0 F12000 X94.529 Y136.000
G1 F2400 X146.470 Y136.000 E1396.47647
G0 F12000 X145.604 Y135.500
G1 F2400 X95.395 Y135.500 E1398.56391
G0 F12000 X96.261 Y135.000
G1 F2400 X144.738 Y135.000 E1400.57935
G0 F12000 X143.872 Y134.500
G1 F2400 X97.127 Y134.500 E1402.52279
G0 F12000 X97.993 Y134.000
G1 F2400 X143.006 Y134.000 E1404.39421
G0 F12000 X142.140 Y133.500
G1 F2400 X98.859 Y133.500 E1406.19362
G0 F12000 X99.725 Y133.000
G1 F2400 X141.274 Y133.000 E1407.92103
G0 F12000 X140.408 Y132.500
G1 F2400 X100.591 Y132.500 E1409.57643
G0 F12000 X101.457 Y132.000
G1 F2400 X139.542 Y132.000 E1411.15982
G0 F12000 X138.676 Y131.500
G1 F2400 X102.323 Y131.500 E1412.67120
G0 F12000 X103.190 Y131.000
G1 F2400 X137.809 Y131.000 E1414.11049
G0 F12000 X136.943 Y130.500
G1 F2400 X104.056 Y130.500 E1415.47777
G0 F12000 X104.922 Y130.000
G1 F2400 X136.077 Y130.000 E1416.77305
G0 F12000 X135.211 Y129.500
G1 F2400 X105.788 Y129.500 E1417.99632
G0 F12000 X106.654 Y129.000
G1 F2400 X134.345 Y129.000 E1419.14757
G0 F12000 X133.479 Y128.500
G1 F2400 X107.520 Y128.500 E1420.22682
G0 F12000 X108.386 Y128.000
G1 F2400 X132.613 Y128.000 E1421.23406
G0 F12000 X131.747 Y127.500
G1 F2400 X109.252 Y127.500 E1422.16930
G0 F12000 X110.118 Y127.000
G1 F2400 X130.881 Y127.000 E1423.03252
G0 F12000 X130.015 Y126.500
G1 F2400 X110.984 Y126.500 E1423.82374
G0 F12000 X111.850 Y126.000
G1 F2400 X129.149 Y126.000 E1424.54295
G0 F12000 X128.283 Y125.500
G1 F2400 X112.716 Y125.500 E1425.19015
G0 F12000 X113.582 Y125.000
G1 F2400 X127.417 Y125.000 E1425.76534
G0 F12000 X126.551 Y124.500
G1 F2400 X114.448 Y124.500 E1426.26853
G0 F12000 X115.314 Y124.000
G1 F2400 X125.685 Y124.000 E1426.69970
G0 F12000 X124.819 Y123.500
G1 F2400 X116.180 Y123.500 E1427.05887
G0 F12000 X117.046 Y123.000
G1 F2400 X123.953 Y123.000 E1427.34603
G0 F12000 X123.086 Y122.500
G1 F2400 X117.913 Y122.500 E1427.56110
G0 F12000 X118.779 Y122.000
G1 F2400 X122.220 Y122.000 E1427.70416
G0 F12000 X121.354 Y121.500
G1 F2400 X119.645 Y121.500 E1427.77521
G1 F2100 E1427.37521
G0 F12000 X93.224 Y140.000
G1 F2100 E1427.77521
G1 F2400 X147.774 Y140.000 E1430.04314
G0 F12000 X147.774 Y140.500
G1 F2400 X93.224 Y140.500 E1432.31106
G0 F12000 X93.224 Y141.000
G1 F2400 X147.774 Y141.000 E1434.57899
G0 F12000 X147.774 Y141.500
G1 F2400 X93.224 Y141.500 E1436.84691
G0 F12000 X93.224 Y142.000
G1 F2400 X147.774 Y142.000 E1439.11484
G0 F12000 X147.774 Y142.500
G1 F2400 X93.224 Y142.500 E1441.38276
G0 F12000 X93.224 Y143.000
G1 F2400 X147.774 Y143.000 E1443.65069
G0 F12000 X147.774 Y143.500
G1 F2400 X93.224 Y143.500 E1445.91861
G0 F12000 X93.224 Y144.000
G1 F2400 X147.774 Y144.000 E1448.18654
G0 F12000 X147.774 Y144.500
G1 F2400 X93.224 Y144.500 E1450.45447
G0 F12000 X93.224 Y145.000
G1 F2400 X147.774 Y145.000 E1452.72239
G0 F12000 X147.774 Y145.500
G1 F2400 X93.224 Y145.500 E1454.99032
G0 F12000 X93.224 Y146.000
G1 F2400 X147.774 Y146.000 E1457.25824
G0 F12000 X147.774 Y146.500
G1 F2400 X93.224 Y146.500 E1459.52617
G0 F12000 X93.224 Y147.000
G1 F2400 X147.774 Y147.000 E1461.79409
G0 F12000 X147.774 Y147.500
G1 F2400 X93.224 Y147.500 E1464.06202
G0 F12000 X93.224 Y148.000
G1 F2400 X147.774 Y148.000 E1466.32994
G0 F12000 X147.774 Y148.500
G1 F2400 X93.224 Y148.500 E1468.59787
G0 F12000 X93.224 Y149.000
G1 F2400 X147.774 Y149.000 E1470.86579
G0 F12000 X147.774 Y149.500
G1 F2400 X93.224 Y149.500 E1473.13372
G0 F12000 X93.224 Y150.000
G1 F2400 X147.774 Y150.000 E1475.40165
G0 F12000 X147.774 Y150.500
G1 F2400 X93.224 Y150.500 E1477.66957
G0 F12000 X93.224 Y151.000
G1 F2400 X147.774 Y151.000 E1479.93750
G0 F12000 X147.774 Y151.500
G1 F2400 X93.224 Y151.500 E1482.20542
G0 F12000 X93.224 Y152.000
G1 F2400 X147.774 Y152.000 E1484.47335
G0 F12000 X147.774 Y152.500
G1 F2400 X93.224 Y152.500 E1486.74127
G0 F12000 X93.224 Y153.000
G1 F2400 X147.774 Y153.000 E1489.00920
G0 F12000 X147.774 Y153.500
G1 F2400 X93.224 Y153.500 E1491.27712
G0 F12000 X93.224 Y154.000
G1 F2400 X147.774 Y154.000 E1493.54505
G0 F12000 X147.774 Y154.500
G1 F2400 X93.224 Y154.500 E1495.81297
G0 F12000 X93.224 Y155.000
G1 F2400 X147.774 Y155.000 E1498.08090
G0 F12000 X147.774 Y155.500
G1 F2400 X93.224 Y155.500 E1500.34883
G0 F12000 X93.224 Y156.000
G1 F2400 X147.774 Y156.000 E1502.61675
G0 F12000 X147.774 Y156.500
G1 F2400 X93.224 Y156.500 E1504.88468
G0 F12000 X93.224 Y157.000
G1 F2400 X147.774 Y157.000 E1507.15260
G0 F12000 X147.774 Y157.500
G1 F2400 X93.224 Y157.500 E1509.42053
G0 F12000 X93.224 Y158.000
G1 F2400 X147.774 Y158.000 E1511.68845
G0 F12000 X147.774 Y158.500
G1 F2400 X93.224 Y158.500 E1513.95638
G0 F12000 X93.224 Y159.000
G1 F2400 X147.774 Y159.000 E1516.22430
G0 F12000 X147.774 Y159.500
G1 F2400 X93.224 Y159.500 E1518.49223
G0 F12000 X93.224 Y160.000
G1 F2400 X147.774 Y160.000 E1520.76015
G0 F12000 X147.774 Y160.500
G1 F2400 X93.224 Y160.500 E1523.02808
G0 F12000 X93.224 Y161.000
G1 F2400 X147.774 Y161.000 E1525.29601
G0 F12000 X147.774 Y161.500
G1 F2400 X93.224 Y161.500 E1527.56393
G0 F12000 X93.224 Y162.000
G1 F2400 X147.774 Y162.000 E1529.83186
G0 F12000 X147.774 Y162.500
G1 F2400 X93.224 Y162.500 E1532.09978
G0 F12000 X93.224 Y163.000
G1 F2400 X147.774 Y163.000 E1534.36771
G0 F12000 X147.774 Y163.500
G1 F2400 X93.224 Y163.500 E1536.63563
G0 F12000 X93.224 Y164.000
G1 F2400 X147.774 Y164.000 E1538.90356
G0 F12000 X147.774 Y164.500
G1 F2400 X93.224 Y164.500 E1541.17148
G0 F12000 X93.224 Y165.000
G1 F2400 X147.774 Y165.000 E1543.43941
G0 F12000 X147.774 Y165.500
G1 F2400 X93.224 Y165.500 E1545.70733
G0 F12000 X93.224 Y166.000
G1 F2400 X147.774 Y166.000 E1547.97526
G0 F12000 X147.774 Y166.500
G1 F2400 X93.224 Y166.500 E1550.24319
G0 F12000 X93.224 Y167.000
G1 F2400 X147.774 Y167.000 E1552.51111
G0 F12000 X147.774 Y167.500
G1 F2400 X93.224 Y167.500 E1554.77904
G0 F12000 X93.320 Y168.000
G1 F2400 X147.677 Y168.000 E1557.03894
G0 F12000 X147.332 Y168.500
G1 F2400 X93.665 Y168.500 E1559.27015
G0 F12000 X94.531 Y169.000
G1 F2400 X146.466 Y169.000 E1561.42936
G0 F12000 X145.600 Y169.500
G1 F2400 X95.397 Y169.500 E1563.51656
G0 F12000 X96.264 Y170.000
G1 F2400 X144.733 Y170.000 E1565.53166
G0 F12000 X143.867 Y170.500
G1 F2400 X97.130 Y170.500 E1567.47476
G0 F12000 X97.996 Y171.000
G1 F2400 X143.001 Y171.000 E1569.34585
G0 F12000 X142.135 Y171.500
G1 F2400 X98.862 Y171.500 E1571.14494
G0 F12000 X99.728 Y172.000
G1 F2400 X141.269 Y172.000 E1572.87201
G0 F12000 X140.403 Y172.500
G1 F2400 X100.594 Y172.500 E1574.52708
G0 F12000 X101.460 Y173.000
G1 F2400 X139.537 Y173.000 E1576.11013
G0 F12000 X138.671 Y173.500
G1 F2400 X102.326 Y173.500 E1577.62118
G0 F12000 X103.192 Y174.000
G1 F2400 X137.805 Y174.000 E1579.06022
G0 F12000 X136.939 Y174.500
G1 F2400 X104.058 Y174.500 E1580.42726
G0 F12000 X104.924 Y175.000
G1 F2400 X136.073 Y175.000 E1581.72228
G0 F12000 X135.207 Y175.500
G1 F2400 X105.790 Y175.500 E1582.94530
G0 F12000 X106.656 Y176.000
G1 F2400 X134.341 Y176.000 E1584.09631
G0 F12000 X133.475 Y176.500
G1 F2400 X107.522 Y176.500 E1585.17531
G0 F12000 X108.388 Y177.000
G1 F2400 X132.609 Y177.000 E1586.18230
G0 F12000 X131.743 Y177.500
G1 F2400 X109.254 Y177.500 E1587.11728
G0 F12000 X110.120 Y178.000
G1 F2400 X130.877 Y178.000 E1587.98026
G0 F12000 X130.010 Y178.500
G1 F2400 X110.987 Y178.500 E1588.77114
G0 F12000 X111.853 Y179.000
G1 F2400 X129.144 Y179.000 E1589.49002
G0 F12000 X128.278 Y179.500
G1 F2400 X112.719 Y179.500 E1590.13689
G0 F12000 X113.585 Y180.000
G1 F2400 X127.412 Y180.000 E1590.71175
G0 F12000 X126.546 Y180.500
G1 F2400 X114.451 Y180.500 E1591.21460
G0 F12000 X115.317 Y181.000
G1 F2400 X125.680 Y181.000 E1591.64544
G0 F12000 X124.814 Y181.500
G1 F2400 X116.183 Y181.500 E1592.00428
G0 F12000 X117.049 Y182.000
G1 F2400 X123.948 Y182.000 E1592.29111
G0 F12000 X123.082 Y182.500
G1 F2400 X117.915 Y182.500 E1592.50592
G0 F12000 X118.781 Y183.000
G1 F2400 X122.216 Y183.000 E1592.64874
G0 F12000 X121.350 Y183.500
G1 F2400 X119.647 Y183.500 E1592.71954
G1 F2100 E1592.31954
G0 F12000 X157.050 Y167.881
;TYPE:WALL-INNER
G1 F2100 E1592.71954
G1 F2400 X157.050 Y137.119 E1593.99847
G1 X157.455 Y136.419 E1594.03210
G1 X184.096 Y121.038 E1595.31104
G1 X184.904 Y121.038 E1595.34464
G1 X211.545 Y136.419 E1596.62358
G1 X211.950 Y137.119 E1596.65721
G1 X211.950 Y167.881 E1597.93614
G1 X211.545 Y168.581 E1597.96976
G1 X184.904 Y183.962 E1599.24871
G1 X184.096 Y183.962 E1599.28230
G1 X157.455 Y168.581 E1600.56125
G1 X157.050 Y167.881 E1600.59487
G0 F12000 X156.550 Y168.016
;TYPE:WALL-OUTER
G1 F2400 X156.550 Y136.984 E1601.88503
G1 X157.089 Y136.053 E1601.92976
G1 X183.962 Y120.538 E1603.21984
G1 X185.038 Y120.538 E1603.26458
G1 X211.911 Y136.053 E1604.55466
G1 X212.450 Y136.984 E1604.59939
G1 X212.450 Y168.016 E1605.88955
G1 X211.911 Y168.947 E1605.93428
G1 X185.038 Y184.462 E1607.22436
G1 X183.962 Y184.462 E1607.26910
G1 X157.089 Y168.947 E1608.55918
G1 X156.550 Y168.016 E1608.60391
G0 F12000 X157.320 Y168.000
;TYPE:SKIN
G1 F2400 X211.677 Y168.000 E1610.86381
G0 F12000 X211.774 Y167.500
G1 F2400 X157.224 Y167.500 E1613.13174
G0 F12000 X157.224 Y167.000
G1 F2400 X211.774 Y167.000 E1615.39966
G0 F12000 X211.774 Y166.500
G1 F2400 X157.224 Y166.500 E1617.66759
G0 F12000 X157.224 Y166.000
G1 F2400 X211.774 Y166.000 E1619.93551
G0 F12000 X211.774 Y165.500
G1 F2400 X157.224 Y165.500 E1622.20344
G0 F12000 X157.224 Y165.000
G1 F2400 X211.774 Y165.000 E1624.47136
G0 F12000 X211.774 Y164.500
G1 F2400 X157.224 Y164.500 E1626.73929
G0 F12000 X157.224 Y164.000
G1 F2400 X211.774 Y164.000 E1629.00721
G0 F12000 X211.774 Y163.500
G1 F2400 X157.224 Y163.500 E1631.27514
G0 F12000 X157.224 Y163.000
G1 F2400 X211.774 Y163.000 E1633.54306
G0 F12000 X211.774 Y162.500
G1 F2400 X157.224 Y162.500 E1635.81099
G0 F12000 X157.224 Y162.000
G1 F2400 X211.774 Y162.000 E1638.07892
G0 F12000 X211.774 Y161.500
G1 F2400 X157.224 Y161.500 E1640.34684
G0 F12000 X157.224 Y161.000
G1 F2400 X211.774 Y161.000 E1642.61477
G0 F12000 X211.774 Y160.500
G1 F2400 X157.224 Y160.500 E1644.88269
G0 F12000 X157.224 Y160.000
G1 F2400 X211.774 Y160.000 E1647.15062
G1 F2100 E1646.75062
G0 F12000 X211.332 Y168.500
G1 F2100 E1647.15062
G1 F2400 X157.665 Y168.500 E1649.38183
G0 F12000 X158.531 Y169.000
G1 F2400 X210.466 Y169.000 E1651.54104
G0 F12000 X209.600 Y169.500
G1 F2400 X159.397 Y169.500 E1653.62824
G0 F12000 X160.264 Y170.000
G1 F2400 X208.733 Y170.000 E1655.64334
G0 F12000 X207.867 Y170.500
G1 F2400 X161.130 Y170.500 E1657.58644
G0 F12000 X161.996 Y171.000
G1 F2400 X207.001 Y171.000 E1659.45753
G0 F12000 X206.135 Y171.500
G1 F2400 X162.862 Y171.500 E1661.25661
G0 F12000 X163.728 Y172.000
G1 F2400 X205.269 Y172.000 E1662.98369
G0 F12000 X204.403 Y172.500
G1 F2400 X164.594 Y172.500 E1664.63875
G0 F12000 X165.460 Y173.000
G1 F2400 X203.537 Y173.000 E1666.22181
G0 F12000 X202.671 Y173.500
G1 F2400 X166.326 Y173.500 E1667.73286
G0 F12000 X167.192 Y174.000
G1 F2400 X201.805 Y174.000 E1669.17190
G0 F12000 X200.939 Y174.500
G1 F2400 X168.058 Y174.500 E1670.53894
G0 F12000 X168.924 Y175.000
G1 F2400 X200.073 Y175.000 E1671.83396
G0 F12000 X199.207 Y175.500
G1 F2400 X169.790 Y175.500 E1673.05698
G0 F12000 X170.656 Y176.000
G1 F2400 X198.341 Y176.000 E1674.20799
G0 F12000 X197.475 Y176.500
G1 F2400 X171.522 Y176.500 E1675.28699
G0 F12000 X172.388 Y177.000
G1 F2400 X196.609 Y177.000 E1676.29398
G0 F12000 X195.743 Y177.500
G1 F2400 X173.254 Y177.500 E1677.22896
G0 F12000 X174.120 Y178.000
G1 F2400 X194.877 Y178.000 E1678.09194
G0 F12000 X194.010 Y178.500
G1 F2400 X174.987 Y178.500 E1678.88282
G0 F12000 X175.853 Y179.000
G1 F2400 X193.144 Y179.000 E1679.60170
G0 F12000 X192.278 Y179.500
G1 F2400 X176.719 Y179.500 E1680.24857
G0 F12000 X177.585 Y180.000
G1 F2400 X191.412 Y180.000 E1680.82343
G0 F12000 X190.546 Y180.500
G1 F2400 X178.451 Y180.500 E1681.32628
G0 F12000 X179.317 Y181.000
G1 F2400 X189.680 Y181.000 E1681.75712
G0 F12000 X188.814 Y181.500
G1 F2400 X180.183 Y181.500 E1682.11596
G0 F12000 X181.049 Y182.000
G1 F2400 X187.948 Y182.000 E1682.40278
G0 F12000 X187.082 Y182.500
G1 F2400 X181.915 Y182.500 E1682.61760
G0 F12000 X182.781 Y183.000
G1 F2400 X186.216 Y183.000 E1682.76041
G0 F12000 X185.350 Y183.500
G1 F2400 X183.647 Y183.500 E1682.83122
G1 F2100 E1682.43122
G0 F12000 X157.224 Y159.500
G1 F2100 E1682.83122
G1 F2400 X211.774 Y159.500 E1685.09914
G0 F12000 X211.774 Y159.000
G1 F2400 X157.224 Y159.000 E1687.36707
G0 F12000 X157.224 Y158.500
G1 F2400 X211.774 Y158.500 E1689.63499
G0 F12000 X211.774 Y158.000
G1 F2400 X157.224 Y158.000 E1691.90292
G0 F12000 X157.224 Y157.500
G1 F2400 X211.774 Y157.500 E1694.17084
G0 F12000 X211.774 Y157.000
G1 F2400 X157.224 Y157.000 E1696.43877
G0 F12000 X157.224 Y156.500
G1 F2400 X211.774 Y156.500 E1698.70669
G0 F12000 X211.774 Y156.000
G1 F2400 X157.224 Y156.000 E1700.97462
G0 F12000 X157.224 Y155.500
G1 F2400 X211.774 Y155.500 E1703.24255
G0 F12000 X211.774 Y155.000
G1 F2400 X157.224 Y155.000 E1705.51047
G0 F12000 X157.224 Y154.500
G1 F2400 X211.774 Y154.500 E1707.77840
G0 F12000 X211.774 Y154.000
G1 F2400 X157.224 Y154.000 E1710.04632
G0 F12000 X157.224 Y153.500
G1 F2400 X211.774 Y153.500 E1712.31425
G0 F12000 X211.774 Y153.000
G1 F2400 X157.224 Y153.000 E1714.58217
G0 F12000 X157.224 Y152.500
G1 F2400 X211.774 Y152.500 E1716.85010
G0 F12000 X211.774 Y152.000
G1 F2400 X157.224 Y152.000 E1719.11802
G0 F12000 X157.224 Y151.500
G1 F2400 X211.774 Y151.500 E1721.38595
G0 F12000 X211.774 Y151.000
G1 F2400 X157.224 Y151.000 E1723.65388
G0 F12000 X157.224 Y150.500
G1 F2400 X211.774 Y150.500 E1725.92180
G0 F12000 X211.774 Y150.000
G1 F2400 X157.224 Y150.000 E1728.18973
G0 F12000 X157.224 Y149.500
G1 F2400 X211.774 Y149.500 E1730.45765
G0 F12000 X211.774 Y149.000
G1 F2400 X157.224 Y149.000 E1732.72558
G0 F12000 X157.224 Y148.500
G1 F2400 X211.774 Y148.500 E1734.99350
G0 F12000 X211.774 Y148.000
G1 F2400 X157.224 Y148.000 E1737.26143
G0 F12000 X157.224 Y147.500
G1 F2400 X211.774 Y147.500 E1739.52935
G0 F12000 X211.774 Y147.000
G1 F2400 X157.224 Y147.000 E1741.79728
G0 F12000 X157.224 Y146.500
G1 F2400 X211.774 Y146.500 E1744.06520
G0 F12000 X211.774 Y146.000
G1 F2400 X157.224 Y146.000 E1746.33313
G0 F12000 X157.224 Y145.500
G1 F2400 X211.774 Y145.500 E1748.60106
G0 F12000 X211.774 Y145.000
G1 F2400 X157.224 Y145.000 E1750.86898
G0 F12000 X157.224 Y144.500
G1 F2400 X211.774 Y144.500 E1753.13691
G0 F12000 X211.774 Y144.000
G1 F2400 X157.224 Y144.000 E1755.40483
G0 F12000 X157.224 Y143.500
G1 F2400 X211.774 Y143.500 E1757.67276
G0 F12000 X211.774 Y143.000
G1 F2400 X157.224 Y143.000 E1759.94068
G0 F12000 X157.224 Y142.500
G1 F2400 X211.774 Y142.500 E1762.20861
G0 F12000 X211.774 Y142.000
G1 F2400 X157.224 Y142.000 E1764.47653
G0 F12000 X157.224 Y141.500
G1 F2400 X211.774 Y141.500 E1766.74446
G0 F12000 X211.774 Y141.000
G1 F2400 X157.224 Y141.000 E1769.01238
G0 F12000 X157.224 Y140.500
G1 F2400 X211.774 Y140.500 E1771.28031
G0 F12000 X211.774 Y140.000
G1 F2400 X157.224 Y140.000 E1773.54824
G0 F12000 X157.224 Y139.500
G1 F2400 X211.774 Y139.500 E1775.81616
G0 F12000 X211.774 Y139.000
G1 F2400 X157.224 Y139.000 E1778.08409
G0 F12000 X157.224 Y138.500
G1 F2400 X211.774 Y138.500 E1780.35201
G0 F12000 X211.774 Y138.000
G1 F2400 X157.224 Y138.000 E1782.61994
G0 F12000 X157.224 Y137.500
G1 F2400 X211.774 Y137.500 E1784.88786
G0 F12000 X211.680 Y137.000
G1 F2400 X157.319 Y137.000 E1787.14793
G0 F12000 X157.663 Y136.500
G1 F2400 X211.336 Y136.500 E1789.37939
G0 F12000 X210.470 Y136.000
G1 F2400 X158.529 Y136.000 E1791.53885
G0 F12000 X159.395 Y135.500
G1 F2400 X209.604 Y135.500 E1793.62630
G0 F12000 X208.738 Y135.000
G1 F2400 X160.261 Y135.000 E1795.64174
G0 F12000 X161.127 Y134.500
G1 F2400 X207.872 Y134.500 E1797.58517
G0 F12000 X207.006 Y134.000
G1 F2400 X161.993 Y134.000 E1799.45659
G0 F12000 X162.859 Y133.500
G1 F2400 X206.140 Y133.500 E1801.25601
G0 F12000 X205.274 Y133.000
G1 F2400 X163.725 Y133.000 E1802.98341
G0 F12000 X164.591 Y132.500
G1 F2400 X204.408 Y132.500 E1804.63881
G0 F12000 X203.542 Y132.000
G1 F2400 X165.457 Y132.000 E1806.22220
G0 F12000 X166.323 Y131.500
G1 F2400 X202.676 Y131.500 E1807.73358
G0 F12000 X201.809 Y131.000
G1 F2400 X167.190 Y131.000 E1809.17287
G0 F12000 X168.056 Y130.500
G1 F2400 X200.943 Y130.500 E1810.54016
G0 F12000 X200.077 Y130.000
G1 F2400 X168.922 Y130.000 E1811.83543
G0 F12000 X169.788 Y129.500
G1 F2400 X199.211 Y129.500 E1813.05870
G0 F12000 X198.345 Y129.000
G1 F2400 X170.654 Y129.000 E1814.20996
G0 F12000 X171.520 Y128.500
G1 F2400 X197.479 Y128.500 E1815.28921
G0 F12000 X196.613 Y128.000
G1 F2400 X172.386 Y128.000 E1816.29645
G0 F12000 X173.252 Y127.500
G1 F2400 X195.747 Y127.500 E1817.23168
G0 F12000 X194.881 Y127.000
G1 F2400 X174.118 Y127.000 E1818.09491
G0 F12000 X174.984 Y126.500
G1 F2400 X194.015 Y126.500 E1818.88612
G0 F12000 X193.149 Y126.000
G1 F2400 X175.850 Y126.000 E1819.60533
G0 F12000 X176.716 Y125.500
G1 F2400 X192.283 Y125.500 E1820.25253
G0 F12000 X191.417 Y125.000
G1 F2400 X177.582 Y125.000 E1820.82772
G0 F12000 X178.448 Y124.500
G1 F2400 X190.551 Y124.500 E1821.33091
G0 F12000 X189.685 Y124.000
G1 F2400 X179.314 Y124.000 E1821.76209
G0 F12000 X180.180 Y123.500
G1 F2400 X188.819 Y123.500 E1822.12125
G0 F12000 X187.953 Y123.000
G1 F2400 X181.046 Y123.000 E1822.40841
G0 F12000 X181.913 Y122.500
G1 F2400 X187.086 Y122.500 E1822.62348
G0 F12000 X186.220 Y122.000
G1 F2400 X182.779 Y122.000 E1822.76654
G0 F12000 X183.645 Y121.500
G1 F2400 X185.354 Y121.500 E1822.83759
;LAYER:4
M106 S40
G1 F2100 E1822.43759
G0 F12000 X148.150 Y137.203 Z1.000
;TYPE:WALL-INNER
G1 F2100 E1822.83759
G1 F2700 X148.150 Y167.797 E1824.10954
G1 X147.572 Y168.796 E1824.15753
G1 X121.077 Y184.093 E1825.42947
G1 X119.923 Y184.093 E1825.47745
G1 X93.428 Y168.796 E1826.74939
G1 X92.850 Y167.797 E1826.79738
G1 X92.850 Y137.203 E1828.06933
G1 X93.428 Y136.204 E1828.11731
G1 X119.923 Y120.907 E1829.38926
G1 X121.077 Y120.907 E1829.43724
G1 X147.572 Y136.204 E1830.70918
G1 X148.150 Y137.203 E1830.75716
G0 F12000 X148.650 Y137.069
;TYPE:WALL-OUTER
G1 F2700 X148.650 Y167.931 E1832.04026
G1 X147.938 Y169.162 E1832.09938
G1 X121.211 Y184.593 E1833.38246
G1 X119.789 Y184.593 E1833.44158
G1 X93.062 Y169.162 E1834.72467
G1 X92.350 Y167.931 E1834.78379
G1 X92.350 Y137.069 E1836.06688
G1 X93.062 Y135.838 E1836.12601
G1 X119.789 Y120.407 E1837.40909
G1 X121.211 Y120.407 E1837.46821
G1 X147.938 Y135.838 E1838.75129
G1 X148.650 Y137.069 E1838.81041
G0 F12000 X147.500 Y136.429
;TYPE:SKIN
G1 F2700 X147.500 Y168.572 E1840.14676
G0 F12000 X147.000 Y168.924
G1 F2700 X147.000 Y136.077 E1841.51238
G0 F12000 X146.500 Y135.788
G1 F2700 X146.500 Y169.213 E1842.90203
G0 F12000 X146.000 Y169.502
G1 F2700 X146.000 Y135.499 E1844.31571
G0 F12000 X145.500 Y135.211
G1 F2700 X145.500 Y169.790 E1845.75334
G0 F12000 X145.000 Y170.079
G1 F2700 X145.000 Y134.922 E1847.21500
G0 F12000 X144.500 Y134.633
G1 F2700 X144.500 Y170.368 E1848.70069
G0 F12000 X144.000 Y170.656
G1 F2700 X144.000 Y134.345 E1850.21033
G0 F12000 X143.500 Y134.056
G1 F2700 X143.500 Y170.945 E1851.74399
G0 F12000 X143.000 Y171.234
G1 F2700 X143.000 Y133.767 E1853.30169
G0 F12000 X142.500 Y133.479
G1 F2700 X142.500 Y171.522 E1854.88333
G0 F12000 X142.000 Y171.811
G1 F2700 X142.000 Y133.190 E1856.48901
G0 F12000 X141.500 Y132.901
G1 F2700 X141.500 Y172.100 E1858.11871
G0 F12000 X141.000 Y172.388
G1 F2700 X141.000 Y132.613 E1859.77236
G0 F12000 X140.500 Y132.324
G1 F2700 X140.500 Y172.677 E1861.45005
G0 F12000 X140.000 Y172.966
G1 F2700 X140.000 Y132.035 E1863.15176
G0 F12000 X139.500 Y131.747
G1 F2700 X139.500 Y173.254 E1864.87742
G0 F12000 X139.000 Y173.543
G1 F2700 X139.000 Y131.458 E1866.62711
G0 F12000 X138.500 Y131.169
G1 F2700 X138.500 Y173.832 E1868.40083
G0 F12000 X138.000 Y174.120
G1 F2700 X138.000 Y130.881 E1870.19850
G0 F12000 X137.500 Y130.592
G1 F2700 X137.500 Y174.409 E1872.02020
G0 F12000 X137.000 Y174.698
G1 F2700 X137.000 Y130.303 E1873.86593
G0 F12000 X136.500 Y130.015
G1 F2700 X136.500 Y174.986 E1875.73561
G0 F12000 X136.000 Y175.275
G1 F2700 X136.000 Y129.726 E1877.62932
G0 F12000 X135.500 Y129.437
G1 F2700 X135.500 Y175.564 E1879.54705
G0 F12000 X135.000 Y175.852
G1 F2700 X135.000 Y129.149 E1881.48874
G0 F12000 X134.500 Y128.860
G1 F2700 X134.500 Y176.141 E1883.45445
G0 F12000 X134.000 Y176.430
G1 F2700 X134.000 Y128.571 E1885.44420
G0 F12000 X133.500 Y128.283
G1 F2700 X133.500 Y176.718 E1887.45789
G0 F12000 X133.000 Y177.007
G1 F2700 X133.000 Y127.994 E1889.49562
G0 F12000 X132.500 Y127.705
G1 F2700 X132.500 Y177.296 E1891.55737
G0 F12000 X132.000 Y177.585
G1 F2700 X132.000 Y127.416 E1893.64316
G0 F12000 X131.500 Y127.128
G1 F2700 X131.500 Y177.873 E1895.75289
G0 F12000 X131.000 Y178.162
G1 F2700 X131.000 Y126.839 E1897.88665
G0 F12000 X130.500 Y126.550
G1 F2700 X130.500 Y178.451 E1900.04444
G0 F12000 X130.000 Y178.739
G1 F2700 X130.000 Y126.262 E1902.22618
G0 F12000 X129.500 Y125.973
G1 F2700 X129.500 Y179.028 E1904.43195
G0 F12000 X129.000 Y179.317
G1 F2700 X129.000 Y125.684 E1906.66175
G0 F12000 X128.500 Y125.396
G1 F2700 X128.500 Y179.605 E1908.91550
G0 F12000 X128.000 Y179.894
G1 F2700 X128.000 Y125.107 E1911.19328
G0 F12000 X127.500 Y124.818
G1 F2700 X127.500 Y180.183 E1913.49509
G0 F12000 X127.000 Y180.471
G1 F2700 X127.000 Y124.530 E1915.82085
G0 F12000 X126.500 Y124.241
G1 F2700 X126.500 Y180.760 E1918.17063
G0 F12000 X126.000 Y181.049
G1 F2700 X126.000 Y123.952 E1920.54445
G0 F12000 X125.500 Y123.664
G1 F2700 X125.500 Y181.337 E1922.94222
G0 F12000 X125.000 Y181.626
G1 F2700 X125.000 Y123.375 E1925.36401
G0 F12000 X124.500 Y123.086
G1 F2700 X124.500 Y181.915 E1927.80984
G0 F12000 X124.000 Y182.203
G1 F2700 X124.000 Y122.798 E1930.27961
G0 F12000 X123.500 Y122.509
G1 F2700 X123.500 Y182.492 E1932.77341
G0 F12000 X123.000 Y182.781
G1 F2700 X123.000 Y122.220 E1935.29125
G0 F12000 X122.500 Y121.932
G1 F2700 X122.500 Y183.069 E1937.83303
G0 F12000 X122.000 Y183.358
G1 F2700 X122.000 Y121.643 E1940.39884
G0 F12000 X121.500 Y121.354
G1 F2700 X121.500 Y183.647 E1942.98868
G0 F12000 X121.000 Y183.918
G1 F2700 X121.000 Y121.082 E1945.60110
G0 F12000 X120.500 Y121.082
G1 F2700 X120.500 Y183.918 E1948.21352
G0 F12000 X120.000 Y183.918
G1 F2700 X120.000 Y121.082 E1950.82593
G0 F12000 X119.500 Y121.353
G1 F2700 X119.500 Y183.646 E1953.41578
G0 F12000 X119.000 Y183.357
G1 F2700 X119.000 Y121.642 E1955.98159
G0 F12000 X118.500 Y121.931
G1 F2700 X118.500 Y183.068 E1958.52337
G0 F12000 X118.000 Y182.780
G1 F2700 X118.000 Y122.219 E1961.04120
G0 F12000 X117.500 Y122.508
G1 F2700 X117.500 Y182.491 E1963.53501
G0 F12000 X117.000 Y182.202
G1 F2700 X117.000 Y122.797 E1966.00478
G0 F12000 X116.500 Y123.085
G1 F2700 X116.500 Y181.914 E1968.45060
G0 F12000 X116.000 Y181.625
G1 F2700 X116.000 Y123.374 E1970.87240
G0 F12000 X115.500 Y123.663
G1 F2700 X115.500 Y181.336 E1973.27016
G0 F12000 X115.000 Y181.048
G1 F2700 X115.000 Y123.951 E1975.64398
G0 F12000 X114.500 Y124.240
G1 F2700 X114.500 Y180.759 E1977.99377
G0 F12000 X114.000 Y180.470
G1 F2700 X114.000 Y124.529 E1980.31953
G0 F12000 X113.500 Y124.817
G1 F2700 X113.500 Y180.182 E1982.62133
G0 F12000 X113.000 Y179.893
G1 F2700 X113.000 Y125.106 E1984.89911
G0 F12000 X112.500 Y125.395
G1 F2700 X112.500 Y179.604 E1987.15286
G0 F12000 X112.000 Y179.316
G1 F2700 X112.000 Y125.683 E1989.38266
G0 F12000 X111.500 Y125.972
G1 F2700 X111.500 Y179.027 E1991.58843
G0 F12000 X111.000 Y178.738
G1 F2700 X111.000 Y126.261 E1993.77017
G0 F12000 X110.500 Y126.549
G1 F2700 X110.500 Y178.450 E1995.92797
G0 F12000 X110.000 Y178.161
G1 F2700 X110.000 Y126.838 E1998.06173
G0 F12000 X109.500 Y127.127
G1 F2700 X109.500 Y177.872 E2000.17146
G0 F12000 X109.000 Y177.584
G1 F2700 X109.000 Y127.415 E2002.25725
G0 F12000 X108.500 Y127.704
G1 F2700 X108.500 Y177.295 E2004.31900
G0 F12000 X108.000 Y177.006
G1 F2700 X108.000 Y127.993 E2006.35672
G0 F12000 X107.500 Y128.282
G1 F2700 X107.500 Y176.717 E2008.37042
G0 F12000 X107.000 Y176.429
G1 F2700 X107.000 Y128.570 E2010.36016
G0 F12000 X106.500 Y128.859
G1 F2700 X106.500 Y176.140 E2012.32588
G0 F12000 X106.000 Y175.851
G1 F2700 X106.000 Y129.148 E2014.26756
G0 F12000 X105.500 Y129.436
G1 F2700 X105.500 Y175.563 E2016.18530
G0 F12000 X105.000 Y175.274
G1 F2700 X105.000 Y129.725 E2018.07901
G0 F12000 X104.500 Y130.014
G1 F2700 X104.500 Y174.985 E2019.94869
G0 F12000 X104.000 Y174.697
G1 F2700 X104.000 Y130.302 E2021.79441
G0 F12000 X103.500 Y130.591
G1 F2700 X103.500 Y174.408 E2023.61611
G0 F12000 X103.000 Y174.119
G1 F2700 X103.000 Y130.880 E2025.41378
G0 F12000 X102.500 Y131.168
G1 F2700 X102.500 Y173.831 E2027.18750
G0 F12000 X102.000 Y173.542
G1 F2700 X102.000 Y131.457 E2028.93720
G0 F12000 X101.500 Y131.746
G1 F2700 X101.500 Y173.253 E2030.66286
G0 F12000 X101.000 Y172.965
G1 F2700 X101.000 Y132.034 E2032.36457
G0 F12000 X100.500 Y132.323
G1 F2700 X100.500 Y172.676 E2034.04225
G0 F12000 X100.000 Y172.387
G1 F2700 X100.000 Y132.612 E2035.69590
G0 F12000 X99.500 Y132.900
G1 F2700 X99.500 Y172.099 E2037.32561
G0 F12000 X99.000 Y171.810
G1 F2700 X99.000 Y133.189 E2038.93128
G0 F12000 X98.500 Y133.478
G1 F2700 X98.500 Y171.521 E2040.51293
G0 F12000 X98.000 Y171.233
G1 F2700 X98.000 Y133.766 E2042.07062
G0 F12000 X97.500 Y134.055
G1 F2700 X97.500 Y170.944 E2043.60429
G0 F12000 X97.000 Y170.655
G1 F2700 X97.000 Y134.344 E2045.11393
G0 F12000 X96.500 Y134.632
G1 F2700 X96.500 Y170.367 E2046.59962
G0 F12000 X96.000 Y170.078
G1 F2700 X96.000 Y134.921 E2048.06127
G0 F12000 X95.500 Y135.210
G1 F2700 X95.500 Y169.789 E2049.49890
G0 F12000 X95.000 Y169.501
G1 F2700 X95.000 Y135.498 E2050.91258
G0 F12000 X94.500 Y135.787
G1 F2700 X94.500 Y169.212 E2052.30223
G0 F12000 X94.000 Y168.923
G1 F2700 X94.000 Y136.076 E2053.66785
G0 F12000 X93.500 Y136.428
G1 F2700 X93.500 Y168.571 E2055.00420
G1 F2100 E2054.60420
G0 F12000 X156.850 Y167.797
;TYPE:WALL-INNER
G1 F2100 E2055.00420
G1 F2700 X156.850 Y137.203 E2056.27615
G1 X157.428 Y136.204 E2056.32414
G1 X183.923 Y120.907 E2057.59608
G1 X185.077 Y120.907 E2057.64406
G1 X211.572 Y136.204 E2058.91600
G1 X212.150 Y137.203 E2058.96399
G1 X212.150 Y167.797 E2060.23594
G1 X211.572 Y168.796 E2060.28392
G1 X185.077 Y184.093 E2061.55587
G1 X183.923 Y184.093 E2061.60384
G1 X157.428 Y168.796 E2062.87579
G1 X156.850 Y167.797 E2062.92377
G0 F12000 X156.350 Y167.931
;TYPE:WALL-OUTER
G1 F2700 X156.350 Y137.069 E2064.20687
G1 X157.062 Y135.838 E2064.26599
G1 X183.789 Y120.407 E2065.54907
G1 X185.211 Y120.407 E2065.60819
G1 X211.938 Y135.838 E2066.89128
G1 X212.650 Y137.069 E2066.95040
G1 X212.650 Y167.931 E2068.23349
G1 X211.938 Y169.162 E2068.29261
G1 X185.211 Y184.593 E2069.57570
G1 X183.789 Y184.593 E2069.63482
G1 X157.062 Y169.162 E2070.91790
G1 X156.350 Y167.931 E2070.97702
G0 F12000 X157.500 Y168.571
;TYPE:SKIN
G1 F2700 X157.500 Y136.428 E2072.31337
G0 F12000 X158.000 Y136.076
G1 F2700 X158.000 Y168.923 E2073.67899
G0 F12000 X158.500 Y169.212
G1 F2700 X158.500 Y135.787 E2075.06864
G0 F12000 X159.000 Y135.498
G1 F2700 X159.000 Y169.501 E2076.48232
G0 F12000 X159.500 Y169.789
G1 F2700 X159.500 Y135.210 E2077.91995
G0 F12000 X160.000 Y134.921
G1 F2700 X160.000 Y170.078 E2079.38161
G0 F12000 X160.500 Y170.367
G1 F2700 X160.500 Y134.632 E2080.86730
G0 F12000 X161.000 Y134.344
G1 F2700 X161.000 Y170.655 E2082.37693
G0 F12000 X161.500 Y170.944
G1 F2700 X161.500 Y134.055 E2083.91060
G0 F12000 X162.000 Y133.766
G1 F2700 X162.000 Y171.233 E2085.46830
G0 F12000 X162.500 Y171.521
G1 F2700 X162.500 Y133.478 E2087.04994
G0 F12000 X163.000 Y133.189
G1 F2700 X163.000 Y171.810 E2088.65562
G0 F12000 X163.500 Y172.099
G1 F2700 X163.500 Y132.900 E2090.28532
G0 F12000 X164.000 Y132.612
G1 F2700 X164.000 Y172.387 E2091.93897
G0 F12000 X164.500 Y172.676
G1 F2700 X164.500 Y132.323 E2093.61666
G0 F12000 X165.000 Y132.034
G1 F2700 X165.000 Y172.965 E2095.31837
G0 F12000 X165.500 Y173.253
G1 F2700 X165.500 Y131.746 E2097.04403
G0 F12000 X166.000 Y131.457
G1 F2700 X166.000 Y173.542 E2098.79372
G0 F12000 X166.500 Y173.831
G1 F2700 X166.500 Y131.168 E2100.56744
G0 F12000 X167.000 Y130.880
G1 F2700 X167.000 Y174.119 E2102.36511
G0 F12000 X167.500 Y174.408
G1 F2700 X167.500 Y130.591 E2104.18681
G0 F12000 X168.000 Y130.302
G1 F2700 X168.000 Y174.697 E2106.03254
G0 F12000 X168.500 Y174.985
G1 F2700 X168.500 Y130.014 E2107.90222
G0 F12000 X169.000 Y129.725
G1 F2700 X169.000 Y175.274 E2109.79592
G0 F12000 X169.500 Y175.563
G1 F2700 X169.500 Y129.436 E2111.71366
G0 F12000 X170.000 Y129.148
G1 F2700 X170.000 Y175.851 E2113.65535
G0 F12000 X170.500 Y176.140
G1 F2700 X170.500 Y128.859 E2115.62106
G0 F12000 X171.000 Y128.570
G1 F2700 X171.000 Y176.429 E2117.61081
G0 F12000 X171.500 Y176.717
G1 F2700 X171.500 Y128.282 E2119.62450
G0 F12000 X172.000 Y127.993
G1 F2700 X172.000 Y177.006 E2121.66223
G0 F12000 X172.500 Y177.295
G1 F2700 X172.500 Y127.704 E2123.72398
G0 F12000 X173.000 Y127.415
G1 F2700 X173.000 Y177.584 E2125.80977
G0 F12000 X173.500 Y177.872
G1 F2700 X173.500 Y127.127 E2127.91950
G0 F12000 X174.000 Y126.838
G1 F2700 X174.000 Y178.161 E2130.05326
G0 F12000 X174.500 Y178.450
G1 F2700 X174.500 Y126.549 E2132.21105
G0 F12000 X175.000 Y126.261
G1 F2700 X175.000 Y178.738 E2134.39279
G0 F12000 X175.500 Y179.027
G1 F2700 X175.500 Y125.972 E2136.59856
G0 F12000 X176.000 Y125.683
G1 F2700 X176.000 Y179.316 E2138.82836
G0 F12000 X176.500 Y179.604
G1 F2700 X176.500 Y125.395 E2141.08211
G0 F12000 X177.000 Y125.106
G1 F2700 X177.000 Y179.893 E2143.35989
G0 F12000 X177.500 Y180.182
G1 F2700 X177.500 Y124.817 E2145.66170
G0 F12000 X178.000 Y124.529
G1 F2700 X178.000 Y180.470 E2147.98746
G0 F12000 X178.500 Y180.759
G1 F2700 X178.500 Y124.240 E2150.33724
G0 F12000 X179.000 Y123.951
G1 F2700 X179.000 Y181.048 E2152.71106
G0 F12000 X179.500 Y181.336
G1 F2700 X179.500 Y123.663 E2155.10883
G0 F12000 X180.000 Y123.374
G1 F2700 X180.000 Y181.625 E2157.53062
G0 F12000 X180.500 Y181.914
G1 F2700 X180.500 Y123.085 E2159.97645
G0 F12000 X181.000 Y122.797
G1 F2700 X181.000 Y182.202 E2162.44622
G0 F12000 X181.500 Y182.491
G1 F2700 X181.500 Y122.508 E2164.94002
G0 F12000 X182.000 Y122.219
G1 F2700 X182.000 Y182.780 E2167.45786
G0 F12000 X182.500 Y183.068
G1 F2700 X182.500 Y121.931 E2169.99964
G0 F12000 X183.000 Y121.642
G1 F2700 X183.000 Y183.357 E2172.56545
G0 F12000 X183.500 Y183.646
G1 F2700 X183.500 Y121.353 E2175.15529
G0 F12000 X184.000 Y121.082
G1 F2700 X184.000 Y183.918 E2177.76771
G0 F12000 X184.500 Y183.918
G1 F2700 X184.500 Y121.082 E2180.38013
G0 F12000 X185.000 Y121.082
G1 F2700 X185.000 Y183.918 E2182.99254
G0 F12000 X185.500 Y183.647
G1 F2700 X185.500 Y121.354 E2185.58239
G0 F12000 X186.000 Y121.643
G1 F2700 X186.000 Y183.358 E2188.14820
G0 F12000 X186.500 Y183.069
G1 F2700 X186.500 Y121.932 E2190.68998
G0 F12000 X187.000 Y122.220
G1 F2700 X187.000 Y182.781 E2193.20781
G0 F12000 X187.500 Y182.492
G1 F2700 X187.500 Y122.509 E2195.70162
G0 F12000 X188.000 Y122.798
G1 F2700 X188.000 Y182.203 E2198.17139
G0 F12000 X188.500 Y181.915
G1 F2700 X188.500 Y123.086 E2200.61721
G0 F12000 X189.000 Y123.375
G1 F2700 X189.000 Y181.626 E2203.03901
G0 F12000 X189.500 Y181.337
G1 F2700 X189.500 Y123.664 E2205.43677
G0 F12000 X190.000 Y123.952
G1 F2700 X190.000 Y181.049 E2207.81059
G0 F12000 X190.500 Y180.760
G1 F2700 X190.500 Y124.241 E2210.16038
G0 F12000 X191.000 Y124.530
G1 F2700 X191.000 Y180.471 E2212.48613
G0 F12000 X191.500 Y180.183
G1 F2700 X191.500 Y124.818 E2214.78794
G0 F12000 X192.000 Y125.107
G1 F2700 X192.000 Y179.894 E2217.06572
G0 F12000 X192.500 Y179.605
G1 F2700 X192.500 Y125.396 E2219.31947
G0 F12000 X193.000 Y125.684
G1 F2700 X193.000 Y179.317 E2221.54927
G0 F12000 X193.500 Y179.028
G1 F2700 X193.500 Y125.973 E2223.75504
G0 F12000 X194.000 Y126.262
G1 F2700 X194.000 Y178.739 E2225.93678
G0 F12000 X194.500 Y178.451
G1 F2700 X194.500 Y126.550 E2228.09458
G0 F12000 X195.000 Y126.839
G1 F2700 X195.000 Y178.162 E2230.22834
G0 F12000 X195.500 Y177.873
G1 F2700 X195.500 Y127.128 E2232.33807
G0 F12000 X196.000 Y127.416
G1 F2700 X196.000 Y177.585 E2234.42385
G0 F12000 X196.500 Y177.296
G1 F2700 X196.500 Y127.705 E2236.48561
G0 F12000 X197.000 Y127.994
G1 F2700 X197.000 Y177.007 E2238.52333
G0 F12000 X197.500 Y176.718
G1 F2700 X197.500 Y128.283 E2240.53703
G0 F12000 X198.000 Y128.571
G1 F2700 X198.000 Y176.430 E2242.52677
G0 F12000 X198.500 Y176.141
G1 F2700 X198.500 Y128.860 E2244.49249
G0 F12000 X199.000 Y129.149
G1 F2700 X199.000 Y175.852 E2246.43417
G0 F12000 X199.500 Y175.564
G1 F2700 X199.500 Y129.437 E2248.35191
G0 F12000 X200.000 Y129.726
G1 F2700 X200.000 Y175.275 E2250.24562
G0 F12000 X200.500 Y174.986
G1 F2700 X200.500 Y130.015 E2252.11529
G0 F12000 X201.000 Y130.303
G1 F2700 X201.000 Y174.698 E2253.96102
G0 F12000 X201.500 Y174.409
G1 F2700 X201.500 Y130.592 E2255.78272
G0 F12000 X202.000 Y130.881
G1 F2700 X202.000 Y174.120 E2257.58039
G0 F12000 X202.500 Y173.832
G1 F2700 X202.500 Y131.169 E2259.35411
G0 F12000 X203.000 Y131.458
G1 F2700 X203.000 Y173.543 E2261.10380
G0 F12000 X203.500 Y173.254
G1 F2700 X203.500 Y131.747 E2262.82946
G0 F12000 X204.000 Y132.035
G1 F2700 X204.000 Y172.966 E2264.53118
G0 F12000 X204.500 Y172.677
G1 F2700 X204.500 Y132.324 E2266.20886
G0 F12000 X205.000 Y132.613
G1 F2700 X205.000 Y172.388 E2267.86251
G0 F12000 X205.500 Y172.100
G1 F2700 X205.500 Y132.901 E2269.49222
G0 F12000 X206.000 Y133.190
G1 F2700 X206.000 Y171.811 E2271.09789
G0 F12000 X206.500 Y171.522
G1 F2700 X206.500 Y133.479 E2272.67954
G0 F12000 X207.000 Y133.767
G1 F2700 X207.000 Y171.234 E2274.23723
G0 F12000 X207.500 Y170.945
G1 F2700 X207.500 Y134.056 E2275.77090
G0 F12000 X208.000 Y134.345
G1 F2700 X208.000 Y170.656 E2277.28054
G0 F12000 X208.500 Y170.368
G1 F2700 X208.500 Y134.633 E2278.76622
G0 F12000 X209.000 Y134.922
G1 F2700 X209.000 Y170.079 E2280.22788
G0 F12000 X209.500 Y169.790
G1 F2700 X209.500 Y135.211 E2281.66551
G0 F12000 X210.000 Y135.499
G1 F2700 X210.000 Y169.502 E2283.07919
G0 F12000 X210.500 Y169.213
G1 F2700 X210.500 Y135.788 E2284.46884
G0 F12000 X211.000 Y136.077
G1 F2700 X211.000 Y168.924 E2285.83446
G0 F12000 X211.500 Y168.572
G1 F2700 X211.500 Y136.429 E2287.17081
;LAYER:5
M106 S51
G1 F2100 E2286.77081
G0 F12000 X148.350 Y137.288 Z1.200
;TYPE:WALL-INNER
G1 F2100 E2287.17081
G1 F2700 X148.350 Y167.712 E2288.43569
G1 X147.598 Y169.012 E2288.49813
G1 X121.253 Y184.224 E2289.76291
G1 X119.750 Y184.224 E2289.82540
G1 X93.402 Y169.011 E2291.09030
G1 X92.650 Y167.711 E2291.15274
G1 X92.650 Y137.289 E2292.41754
G1 X93.403 Y135.987 E2292.48007
G1 X119.748 Y120.776 E2293.74483
G1 X121.251 Y120.776 E2293.80732
G1 X147.599 Y135.989 E2295.07222
G1 X148.350 Y137.288 E2295.13460
G0 F12000 X148.850 Y137.154
;TYPE:WALL-OUTER
G1 F2700 X148.850 Y167.846 E2296.41063
G1 X147.964 Y169.378 E2296.48421
G1 X121.387 Y184.724 E2297.76012
G1 X119.616 Y184.724 E2297.83375
G1 X93.036 Y169.377 E2299.10980
G1 X92.150 Y167.846 E2299.18334
G1 X92.150 Y137.154 E2300.45936
G1 X93.037 Y135.622 E2300.53296
G1 X119.614 Y120.276 E2301.80888
G1 X121.385 Y120.276 E2301.88251
G1 X147.965 Y135.623 E2303.15855
G1 X148.850 Y137.154 E2303.23207
G1 F2100 E2302.83207
G0 F12000 X146.791 Y136.011
;TYPE:FILL
G1 F2100 E2303.23207
G1 F2700 X93.074 Y167.024 E2305.81084
G1 F2100 E2305.41084
G0 F12000 X93.074 Y160.608
G1 F2100 E2305.81084
G1 F2700 X127.187 Y180.304 E2307.44852
G1 F2100 E2307.04852
G0 F12000 X121.631 Y183.514
G1 F2100 E2307.44852
G1 F2700 X121.631 Y121.487 E2310.02730
G1 F2100 E2309.62730
G0 F12000 X127.186 Y124.693
G1 F2100 E2310.02730
G1 F2700 X93.074 Y144.388 E2311.66492
G1 F2100 E2311.26492
G0 F12000 X93.074 Y149.290
G1 F2100 E2311.66492
G1 F2700 X136.989 Y174.644 E2313.77314
G1 F2100 E2313.37314
G0 F12000 X131.433 Y177.855
G1 F2100 E2313.77314
G1 F2700 X131.433 Y127.146 E2315.88137
G1 F2100 E2315.48137
G0 F12000 X136.988 Y130.352
G1 F2100 E2315.88137
G1 F2700 X93.074 Y155.706 E2317.98955
G1 F2100 E2317.58955
G0 F12000 X93.073 Y137.971
G1 F2100 E2317.98955
G1 F2700 X146.792 Y168.986 E2320.56844
G1 F2100 E2320.16844
G0 F12000 X141.235 Y172.196
G1 F2100 E2320.56844
G1 F2700 X141.235 Y132.805 E2322.20613
G1 F2100 E2321.80613
G0 F12000 X147.923 Y146.675
G1 F2100 E2322.20613
G1 F2700 X101.744 Y173.337 E2324.42305
G0 F12000 X102.027 Y173.500
G1 F2700 X102.027 Y131.499 E2326.16925
G0 F12000 X101.747 Y131.660
G1 F2700 X147.925 Y158.321 E2328.38611
G0 F12000 X147.923 Y157.994
G1 F2700 X111.545 Y178.997 E2330.13251
G0 F12000 X111.829 Y179.159
G1 F2700 X111.829 Y125.839 E2332.34929
G0 F12000 X111.548 Y126.001
G1 F2700 X147.924 Y147.002 E2334.09558
G0 F12000 X148.174 Y147.000
;TYPE:SKIN
G1 F2700 X147.274 Y147.250 E2334.13294
G1 X148.174 Y147.750 E2334.17035
G1 X147.274 Y148.250 E2334.20776
G1 X148.174 Y148.750 E2334.24517
G1 X147.274 Y149.250 E2334.28258
G1 X148.174 Y149.750 E2334.31999
G1 X147.274 Y150.250 E2334.35740
G1 X148.174 Y150.750 E2334.39481
G1 X147.274 Y151.250 E2334.43222
G1 X148.174 Y151.750 E2334.46963
G1 X147.274 Y152.250 E2334.50705
G1 X148.174 Y152.750 E2334.54446
G1 X147.274 Y153.250 E2334.58187
G1 X148.174 Y153.750 E2334.61928
G1 X147.274 Y154.250 E2334.65669
G1 X148.174 Y154.750 E2334.69410
G1 X147.274 Y155.250 E2334.73151
G1 X148.174 Y155.750 E2334.76892
G1 X147.274 Y156.250 E2334.80633
G1 X148.174 Y156.750 E2334.84374
G1 X147.274 Y157.250 E2334.88116
G1 X148.174 Y157.750 E2334.91857
G1 X147.274 Y158.250 E2334.95598
G1 X148.174 Y158.750 E2334.99339
G1 X147.274 Y159.250 E2335.03080
G1 X148.174 Y159.500 E2335.06963
G1 F2100 E2334.66963
G0 F12000 X148.174 Y146.500
G1 F2100 E2335.06963
G1 F2700 X147.274 Y146.250 E2335.10699
G1 X148.174 Y145.750 E2335.14440
G1 X147.274 Y145.250 E2335.18181
G1 X148.174 Y144.750 E2335.21922
G1 X147.274 Y144.250 E2335.25664
G1 X148.174 Y143.750 E2335.29405
G1 X147.274 Y143.250 E2335.33146
G1 X148.174 Y142.750 E2335.36887
G1 X147.274 Y142.250 E2335.40628
G1 X148.174 Y141.750 E2335.44369
G1 X147.274 Y141.250 E2335.48110
G1 X148.174 Y140.750 E2335.51851
G1 X147.274 Y140.250 E2335.55592
G1 X148.174 Y139.750 E2335.59333
G1 X147.274 Y139.250 E2335.63074
G1 X148.174 Y138.750 E2335.66816
G1 X147.274 Y138.250 E2335.70557
G1 X148.174 Y137.750 E2335.74298
G1 X147.236 Y137.250 E2335.78036
G1 X147.982 Y137.000 E2335.81307
G0 F12000 X147.693 Y136.500
G1 F2700 X146.333 Y136.500 E2335.86962
G0 F12000 X145.467 Y136.000
G1 F2700 X147.269 Y136.000 E2335.94453
G0 F12000 X146.403 Y135.500
G1 F2700 X144.601 Y135.500 E2336.01945
G0 F12000 X143.735 Y135.000
G1 F2700 X145.537 Y135.000 E2336.09437
G0 F12000 X144.671 Y134.500
G1 F2700 X142.869 Y134.500 E2336.16929
G0 F12000 X142.003 Y134.000
G1 F2700 X143.805 Y134.000 E2336.24421
G0 F12000 X142.939 Y133.500
G1 F2700 X141.137 Y133.500 E2336.31913
G0 F12000 X140.271 Y133.000
G1 F2700 X142.073 Y133.000 E2336.39405
G0 F12000 X141.207 Y132.500
G1 F2700 X139.405 Y132.500 E2336.46896
G0 F12000 X138.539 Y132.000
G1 F2700 X140.341 Y132.000 E2336.54388
G0 F12000 X139.475 Y131.500
G1 F2700 X137.673 Y131.500 E2336.61880
G0 F12000 X136.807 Y131.000
G1 F2700 X138.609 Y131.000 E2336.69372
G0 F12000 X137.743 Y130.500
G1 F2700 X135.941 Y130.500 E2336.76864
G0 F12000 X135.075 Y130.000
G1 F2700 X136.877 Y130.000 E2336.84356
G0 F12000 X136.011 Y129.500
G1 F2700 X134.209 Y129.500 E2336.91847
G0 F12000 X133.343 Y129.000
G1 F2700 X135.145 Y129.000 E2336.99339
G0 F12000 X134.279 Y128.500
G1 F2700 X132.477 Y128.500 E2337.06831
G0 F12000 X131.611 Y128.000
G1 F2700 X133.413 Y128.000 E2337.14323
G0 F12000 X132.547 Y127.500
G1 F2700 X130.745 Y127.500 E2337.21815
G0 F12000 X129.879 Y127.000
G1 F2700 X131.681 Y127.000 E2337.29307
G0 F12000 X130.815 Y126.500
G1 F2700 X129.013 Y126.500 E2337.36799
G0 F12000 X128.147 Y126.000
G1 F2700 X129.949 Y126.000 E2337.44290
G0 F12000 X129.083 Y125.500
G1 F2700 X127.281 Y125.500 E2337.51782
G0 F12000 X126.415 Y125.000
G1 F2700 X128.217 Y125.000 E2337.59274
G0 F12000 X127.351 Y124.500
G1 F2700 X125.549 Y124.500 E2337.66766
G0 F12000 X124.683 Y124.000
G1 F2700 X126.485 Y124.000 E2337.74258
G0 F12000 X125.619 Y123.500
G1 F2700 X123.817 Y123.500 E2337.81750
G0 F12000 X122.951 Y123.000
G1 F2700 X124.753 Y123.000 E2337.89241
G0 F12000 X123.887 Y122.500
G1 F2700 X122.085 Y122.500 E2337.96733
G0 F12000 X121.219 Y122.000
G1 F2700 X123.021 Y122.000 E2338.04225
G0 F12000 X122.155 Y121.500
G1 F2700 X118.843 Y121.500 E2338.17995
G0 F12000 X117.977 Y122.000
G1 F2700 X119.778 Y122.000 E2338.25483
G0 F12000 X118.912 Y122.500
G1 F2700 X117.111 Y122.500 E2338.32970
G0 F12000 X116.245 Y123.000
G1 F2700 X118.046 Y123.000 E2338.40458
G0 F12000 X117.180 Y123.500
G1 F2700 X115.379 Y123.500 E2338.47946
G0 F12000 X114.513 Y124.000
G1 F2700 X116.314 Y124.000 E2338.55433
G0 F12000 X115.448 Y124.500
G1 F2700 X113.647 Y124.500 E2338.62921
G0 F12000 X112.781 Y125.000
G1 F2700 X114.582 Y125.000 E2338.70409
G0 F12000 X113.716 Y125.500
G1 F2700 X111.915 Y125.500 E2338.77896
G0 F12000 X111.049 Y126.000
G1 F2700 X112.850 Y126.000 E2338.85384
G0 F12000 X111.984 Y126.500
G1 F2700 X110.183 Y126.500 E2338.92872
G0 F12000 X109.317 Y127.000
G1 F2700 X111.118 Y127.000 E2339.00359
G0 F12000 X110.252 Y127.500
G1 F2700 X108.451 Y127.500 E2339.07847
G0 F12000 X107.585 Y128.000
G1 F2700 X109.386 Y128.000 E2339.15335
G0 F12000 X108.520 Y128.500
G1 F2700 X106.719 Y128.500 E2339.22822
G0 F12000 X105.853 Y129.000
G1 F2700 X107.654 Y129.000 E2339.30310
G0 F12000 X106.788 Y129.500
G1 F2700 X104.987 Y129.500 E2339.37798
G0 F12000 X104.121 Y130.000
G1 F2700 X105.922 Y130.000 E2339.45286
G0 F12000 X105.056 Y130.500
G1 F2700 X103.255 Y130.500 E2339.52773
G0 F12000 X102.389 Y131.000
G1 F2700 X104.190 Y131.000 E2339.60261
G0 F12000 X103.324 Y131.500
G1 F2700 X101.523 Y131.500 E2339.67749
G0 F12000 X100.657 Y132.000
G1 F2700 X102.458 Y132.000 E2339.75236
G0 F12000 X101.592 Y132.500
G1 F2700 X99.791 Y132.500 E2339.82724
G0 F12000 X98.925 Y133.000
G1 F2700 X100.726 Y133.000 E2339.90212
G1 F2100 E2339.50212
G0 F12000 X119.709 Y121.000
G1 F2100 E2339.90212
G1 F2700 X121.289 Y121.000 E2339.96781
G1 F2100 E2339.56781
G0 F12000 X99.860 Y133.500
G1 F2100 E2339.96781
G1 F2700 X98.059 Y133.500 E2340.04268
G0 F12000 X97.193 Y134.000
G1 F2700 X98.994 Y134.000 E2340.11756
G0 F12000 X98.128 Y134.500
G1 F2700 X96.327 Y134.500 E2340.19244
G0 F12000 X95.461 Y135.000
G1 F2700 X97.262 Y135.000 E2340.26731
G0 F12000 X96.396 Y135.500
G1 F2700 X94.595 Y135.500 E2340.34219
G0 F12000 X93.729 Y136.000
G1 F2700 X95.530 Y136.000 E2340.41707
G0 F12000 X94.664 Y136.500
G1 F2700 X93.307 Y136.500 E2340.47348
G0 F12000 X93.018 Y137.000
G1 F2700 X93.761 Y137.250 E2340.50595
G1 X92.824 Y137.750 E2340.54330
G1 X93.724 Y138.250 E2340.58071
G1 X92.824 Y138.750 E2340.61812
G1 X93.724 Y139.250 E2340.65553
G1 X92.824 Y139.750 E2340.69295
G1 X93.724 Y140.250 E2340.73036
G1 X92.824 Y140.750 E2340.76777
G1 X93.724 Y141.250 E2340.80518
G1 X92.824 Y141.750 E2340.84259
G1 X93.724 Y142.250 E2340.88000
G1 X92.824 Y142.750 E2340.91741
G1 X93.724 Y143.250 E2340.95482
G1 X92.824 Y143.750 E2340.99223
G1 X93.724 Y144.250 E2341.02964
G1 X92.824 Y144.750 E2341.06705
G1 X93.724 Y145.250 E2341.10447
G1 X92.824 Y145.750 E2341.14188
G1 X93.724 Y146.250 E2341.17929
G1 X92.824 Y146.750 E2341.21670
G1 X93.724 Y147.250 E2341.25411
G1 X92.824 Y147.750 E2341.29152
G1 X93.724 Y148.250 E2341.32893
G1 X92.824 Y148.750 E2341.36634
G1 X93.724 Y149.250 E2341.40375
G1 X92.824 Y149.750 E2341.44116
G1 X93.724 Y150.250 E2341.47857
G1 X92.824 Y150.750 E2341.51599
G1 X93.724 Y151.250 E2341.55340
G1 X92.824 Y151.750 E2341.59081
G1 X93.724 Y152.250 E2341.62822
G1 X92.824 Y152.750 E2341.66563
G1 X93.724 Y153.250 E2341.70304
G1 X92.824 Y153.750 E2341.74045
G1 X93.724 Y154.250 E2341.77786
G1 X92.824 Y154.750 E2341.81527
G1 X93.724 Y155.250 E2341.85268
G1 X92.824 Y155.750 E2341.89009
G1 X93.724 Y156.250 E2341.92751
G1 X92.824 Y156.750 E2341.96492
G1 X93.724 Y157.250 E2342.00233
G1 X92.824 Y157.750 E2342.03974
G1 X93.724 Y158.250 E2342.07715
G1 X92.824 Y158.750 E2342.11456
G1 X93.724 Y159.250 E2342.15197
G1 X92.824 Y159.750 E2342.18938
G1 X93.724 Y160.250 E2342.22679
G1 X92.824 Y160.750 E2342.26420
G1 X93.724 Y161.250 E2342.30161
G1 X92.824 Y161.750 E2342.33903
G1 X93.724 Y162.250 E2342.37644
G1 X92.824 Y162.750 E2342.41385
G1 X93.724 Y163.250 E2342.45126
G1 X92.824 Y163.750 E2342.48867
G1 X93.724 Y164.250 E2342.52608
G1 X92.824 Y164.750 E2342.56349
G1 X93.724 Y165.250 E2342.60090
G1 X92.824 Y165.750 E2342.63831
G1 X93.724 Y166.250 E2342.67572
G1 X92.824 Y166.750 E2342.71313
G1 X93.724 Y167.250 E2342.75055
G1 X92.921 Y167.750 E2342.78799
G1 X93.802 Y168.000 E2342.82606
G0 F12000 X93.307 Y168.500
G1 F2700 X94.668 Y168.500 E2342.88264
G0 F12000 X95.534 Y169.000
G1 F2700 X93.734 Y169.000 E2342.95748
G0 F12000 X94.600 Y169.500
G1 F2700 X96.400 Y169.500 E2343.03231
G0 F12000 X97.266 Y170.000
G1 F2700 X95.466 Y170.000 E2343.10715
G0 F12000 X96.332 Y170.500
G1 F2700 X98.132 Y170.500 E2343.18198
G0 F12000 X98.998 Y171.000
G1 F2700 X97.198 Y171.000 E2343.25682
G0 F12000 X98.064 Y171.500
G1 F2700 X99.864 Y171.500 E2343.33166
G0 F12000 X100.730 Y172.000
G1 F2700 X98.930 Y172.000 E2343.40649
G0 F12000 X99.796 Y172.500
G1 F2700 X101.596 Y172.500 E2343.48133
G0 F12000 X102.462 Y173.000
G1 F2700 X100.662 Y173.000 E2343.55616
G0 F12000 X101.528 Y173.500
G1 F2700 X103.328 Y173.500 E2343.63100
G0 F12000 X104.194 Y174.000
G1 F2700 X102.394 Y174.000 E2343.70583
G0 F12000 X103.260 Y174.500
G1 F2700 X105.060 Y174.500 E2343.78067
G0 F12000 X105.926 Y175.000
G1 F2700 X104.126 Y175.000 E2343.85550
G0 F12000 X104.992 Y175.500
G1 F2700 X106.792 Y175.500 E2343.93034
G0 F12000 X107.658 Y176.000
G1 F2700 X105.857 Y176.000 E2344.00521
G0 F12000 X106.723 Y176.500
G1 F2700 X108.524 Y176.500 E2344.08009
G0 F12000 X109.390 Y177.000
G1 F2700 X107.589 Y177.000 E2344.15497
G0 F12000 X108.455 Y177.500
G1 F2700 X110.256 Y177.500 E2344.22985
G0 F12000 X111.122 Y178.000
G1 F2700 X109.321 Y178.000 E2344.30472
G0 F12000 X110.187 Y178.500
G1 F2700 X111.988 Y178.500 E2344.37960
G0 F12000 X112.854 Y179.000
G1 F2700 X111.053 Y179.000 E2344.45448
G0 F12000 X111.919 Y179.500
G1 F2700 X113.720 Y179.500 E2344.52935
G0 F12000 X114.586 Y180.000
G1 F2700 X112.785 Y180.000 E2344.60423
G0 F12000 X113.651 Y180.500
G1 F2700 X115.452 Y180.500 E2344.67911
G0 F12000 X116.318 Y181.000
G1 F2700 X114.517 Y181.000 E2344.75398
G0 F12000 X115.383 Y181.500
G1 F2700 X117.184 Y181.500 E2344.82886
G0 F12000 X118.050 Y182.000
G1 F2700 X116.249 Y182.000 E2344.90374
G0 F12000 X117.115 Y182.500
G1 F2700 X118.916 Y182.500 E2344.97861
G0 F12000 X119.782 Y183.000
G1 F2700 X117.981 Y183.000 E2345.05349
G0 F12000 X118.847 Y183.500
G1 F2700 X122.153 Y183.500 E2345.19094
G0 F12000 X121.287 Y184.000
G1 F2700 X119.713 Y184.000 E2345.25638
G1 F2100 E2344.85638
G0 F12000 X121.217 Y183.000
G1 F2100 E2345.25638
