;-- START GCODE --
;Sliced for Type A Machines Series 1
;Sliced at: Tue 06-12-2016 16:25:04
;Basic settings:
; Layer height: 0.4
; Walls: 1.2
; Fill: 8
; Print Speed: 45
; Support: 0
; Retraction Speed: 35
; Retraction Distance: 0.4
;Print time: 3 hours 46 minutes
;Filament used: 32.529m 97.0g
;Settings based on: Type A Machines Everyday PLA
G21        ;metric values
G90        ;absolute positioning
G28     ;move to endstops
G1 Z15.0 F12000 ;move the platform down 15mm
G1 X150 Y5 F12000 ;center
M140 S50 ;Prep Heat Bed
M109 S215 ;Heat To temp
M190 S50 ;Heat Bed to temp
G1 X150 Y5 Z0.3 ;move the platform to purge extrusion
G92 E0 ;zero the extruded length
G1 F200 X250 E30 ;extrude 30mm of feed stock
G92 E0 ;zero the extruded length again
G1 X150 Y150  Z25 F12000 ;recenter and begin
G1 F12000

;Layer count: 275
;LAYER:0
M107
G0 F12000 X83.700 Y77.719 Z0.400
;TYPE:SKIRT
G1 F1800 X213.891 Y77.719 E12.99051
G1 X213.892 Y119.941 E17.20344
G1 X170.477 Y199.537 E26.25016
G1 X170.254 Y199.944 E26.29647
G1 X170.150 Y201.863 E26.48823
G1 X170.139 Y202.078 E26.50971
G1 X169.649 Y205.064 E26.81164
G1 X168.834 Y208.015 E27.11712
G1 X167.704 Y210.864 E27.42293
G1 X166.272 Y213.575 E27.72886
G1 X164.557 Y216.113 E28.03450
G1 X162.576 Y218.451 E28.34026
G1 X160.354 Y220.563 E28.64615
G1 X157.916 Y222.421 E28.95201
G1 X155.293 Y224.005 E29.25775
G1 X152.515 Y225.294 E29.56333
G1 X149.794 Y226.217 E29.85002
G1 X149.581 Y226.290 E29.87249
G1 X146.618 Y226.941 E30.17519
G1 X143.574 Y227.277 E30.48077
G1 X140.686 Y227.281 E30.76893
G1 X140.468 Y227.281 E30.79069
G1 X137.460 Y226.954 E31.09259
G1 X134.469 Y226.301 E31.39807
G1 X131.722 Y225.379 E31.68719
G1 X131.517 Y225.309 E31.70880
G1 X128.777 Y224.043 E32.00998
G1 X126.151 Y222.467 E32.31557
G1 X123.709 Y220.616 E32.62132
G1 X121.482 Y218.511 E32.92708
G1 X119.494 Y216.179 E33.23285
G1 X117.771 Y213.645 E33.53860
G1 X116.331 Y210.939 E33.84446
G1 X115.193 Y208.094 E34.15020
G1 X114.369 Y205.142 E34.45602
G1 X113.868 Y202.120 E34.76167
G1 X113.712 Y199.331 E35.04039
G1 X113.553 Y198.159 E35.15840
G1 X99.346 Y93.977 E45.64994
G1 X99.199 Y93.413 E45.70809
G1 X99.009 Y93.058 E45.74827
G1 X98.740 Y92.758 E45.78847
G1 X98.411 Y92.534 E45.82819
G1 X98.196 Y92.452 E45.85115
G1 X83.700 Y92.453 E47.29757
G1 X83.700 Y77.719 E48.76773
G1 F2100 E48.36773
G1 Z0.800
G0 F12000 X87.900 Y81.919
;TYPE:WALL-INNER
G1 Z0.400
G1 F2100 E48.76773
G1 F1800 X209.691 Y81.919 E60.92009
G1 X209.692 Y118.871 E64.60717
G1 X166.112 Y198.766 E73.68797
G1 X165.956 Y201.627 E73.97387
G1 X165.541 Y204.159 E74.22988
G1 X164.846 Y206.677 E74.49052
G1 X163.883 Y209.107 E74.75133
G1 X162.666 Y211.409 E75.01115
G1 X161.205 Y213.572 E75.27160
G1 X159.514 Y215.568 E75.53263
G1 X157.631 Y217.357 E75.79179
G1 X155.544 Y218.947 E76.05358
G1 X153.320 Y220.291 E76.31287
G1 X150.952 Y221.390 E76.57335
G1 X148.446 Y222.239 E76.83736
G1 X145.939 Y222.790 E77.09348
G1 X143.336 Y223.077 E77.35478
G1 X140.698 Y223.081 E77.61801
G1 X138.132 Y222.802 E77.87555
G1 X135.587 Y222.246 E78.13548
G1 X133.083 Y221.406 E78.39902
G1 X130.748 Y220.327 E78.65568
G1 X128.506 Y218.981 E78.91660
G1 X126.426 Y217.405 E79.17699
G1 X124.534 Y215.617 E79.43674
G1 X122.836 Y213.626 E79.69784
G1 X121.371 Y211.470 E79.95793
G1 X120.148 Y209.172 E80.21768
G1 X119.177 Y206.744 E80.47860
G1 X118.475 Y204.231 E80.73895
G1 X118.049 Y201.661 E80.99888
G1 X117.897 Y198.932 E81.27160
G1 X103.497 Y93.326 E91.90652
G1 X103.473 Y93.158 E91.92346
G1 X103.137 Y91.869 E92.05637
G1 X102.471 Y90.626 E92.19708
G1 X101.529 Y89.578 E92.33768
G1 X100.366 Y88.782 E92.47831
G1 X99.048 Y88.284 E92.61889
G1 X97.701 Y88.120 E92.75429
G1 X95.100 Y88.118 E93.01382
G1 X95.100 Y88.252 E93.02719
G1 X87.900 Y88.253 E93.74561
G1 X87.900 Y81.919 E94.37762
G1 F2100 E93.97762
G1 Z0.800
G0 F12000 X112.219 Y91.913
G1 Z0.400
G1 F2100 E94.37762
G1 F1800 X112.172 Y92.031 E94.39029
G1 X111.873 Y93.311 E94.52145
G1 X111.857 Y93.436 E94.53402
G1 X111.874 Y94.752 E94.66534
G1 X122.562 Y173.128 E102.55811
G1 X122.869 Y174.305 E102.67948
G1 X122.900 Y174.430 E102.69233
G1 X123.513 Y175.572 E102.82166
G1 X123.574 Y175.679 E102.83395
G1 X124.423 Y176.627 E102.96093
G1 X124.507 Y176.719 E102.97336
G1 X125.646 Y177.500 E103.11116
G1 X126.843 Y177.958 E103.23904
G1 X126.965 Y178.007 E103.25216
G1 X128.243 Y178.169 E103.38070
G1 X128.366 Y178.184 E103.39307
G1 X129.642 Y178.039 E103.52120
G1 X129.764 Y178.023 E103.53348
G1 X130.990 Y177.575 E103.66372
G1 X133.346 Y176.530 E103.92089
G1 X135.744 Y175.747 E104.17260
G1 X138.201 Y175.223 E104.42327
G1 X140.708 Y174.956 E104.67484
G1 X143.261 Y174.952 E104.92958
G1 X145.727 Y175.211 E105.17699
G1 X148.199 Y175.731 E105.42904
G1 X150.589 Y176.503 E105.67965
G1 X152.963 Y177.554 E105.93871
G1 X154.100 Y177.973 E106.05961
G1 X154.227 Y178.023 E106.07323
G1 X155.501 Y178.169 E106.20119
G1 X155.630 Y178.185 E106.21416
G1 X156.905 Y178.024 E106.34239
G1 X157.027 Y178.009 E106.35465
G1 X158.231 Y177.552 E106.48315
G1 X158.346 Y177.506 E106.49551
G1 X159.482 Y176.726 E106.63301
G1 X160.344 Y175.770 E106.76145
G1 X160.432 Y175.675 E106.77437
G1 X161.027 Y174.564 E106.90012
G1 X161.095 Y174.446 E106.91371
G1 X161.434 Y173.145 E107.04786
G1 X161.582 Y172.077 E107.15544
G1 X172.118 Y94.809 E114.93662
G1 X172.144 Y93.449 E115.07235
G1 X172.130 Y93.319 E115.08539
G1 X171.819 Y91.992 E115.22139
G1 X171.166 Y90.714 E115.36459
G1 X170.266 Y89.677 E115.50160
G1 X170.170 Y89.589 E115.51459
G1 X169.047 Y88.805 E115.65125
G1 X167.708 Y88.290 E115.79440
G1 X166.337 Y88.120 E115.93224
G1 X165.664 Y88.119 E115.99940
G1 X117.666 Y88.119 E120.78866
G1 X116.313 Y88.285 E120.92467
G1 X114.971 Y88.795 E121.06792
G1 X113.791 Y89.615 E121.21130
G1 X112.846 Y90.696 E121.35457
G1 X112.219 Y91.913 E121.49117
G1 F2100 E121.09117
G1 Z0.800
G0 F12000 X141.486 Y197.152
G1 Z0.400
G1 F2100 E121.49117
G1 F1800 X141.019 Y197.351 E121.54182
G1 X140.621 Y197.662 E121.59222
G1 X140.319 Y198.064 E121.64239
G1 X140.129 Y198.529 E121.69251
G1 X140.066 Y199.021 E121.74200
G1 X140.135 Y199.533 E121.79355
G1 X140.334 Y199.999 E121.84411
G1 X140.645 Y200.398 E121.89459
G1 X141.049 Y200.700 E121.94492
G1 X141.510 Y200.888 E121.99460
G1 X142.003 Y200.953 E122.04421
G1 X142.516 Y200.882 E122.09589
G1 X142.981 Y200.684 E122.14632
G1 X143.380 Y200.374 E122.19673
G1 X143.682 Y199.970 E122.24706
G1 X143.872 Y199.507 E122.29700
G1 X143.935 Y199.016 E122.34639
G1 X143.869 Y198.515 E122.39682
G1 X143.668 Y198.038 E122.44846
G1 X143.356 Y197.638 E122.49908
G1 X142.954 Y197.336 E122.54925
G1 X142.489 Y197.146 E122.59937
G1 X141.997 Y197.083 E122.64887
G1 X141.486 Y197.152 E122.70032
G0 F12000 X141.647 Y197.736
;TYPE:WALL-OUTER
G1 F1800 X141.326 Y197.872 E122.73510
G1 X141.053 Y198.086 E122.76971
G1 X140.845 Y198.363 E122.80428
G1 X140.714 Y198.683 E122.83878
G1 X140.671 Y199.019 E122.87258
G1 X140.719 Y199.372 E122.90813
G1 X140.855 Y199.692 E122.94282
G1 X141.069 Y199.966 E122.97751
G1 X141.346 Y200.173 E123.01201
G1 X141.665 Y200.303 E123.04639
G1 X142.001 Y200.348 E123.08021
G1 X142.355 Y200.299 E123.11587
G1 X142.674 Y200.163 E123.15047
G1 X142.948 Y199.950 E123.18510
G1 X143.156 Y199.672 E123.21974
G1 X143.287 Y199.353 E123.25415
G1 X143.330 Y199.017 E123.28795
G1 X143.284 Y198.673 E123.32258
G1 X143.146 Y198.344 E123.35818
G1 X142.932 Y198.070 E123.39287
G1 X142.655 Y197.862 E123.42744
G1 X142.335 Y197.731 E123.46194
G1 X141.999 Y197.688 E123.49574
G1 X141.647 Y197.736 E123.53119
G1 F2100 E123.13119
G1 Z0.800
G0 F12000 X135.585 Y175.168
G1 Z0.400
G1 F2100 E123.53119
G1 F1800 X138.108 Y174.629 E123.78861
G1 X140.672 Y174.356 E124.04590
G1 X143.295 Y174.352 E124.30762
G1 X145.815 Y174.616 E124.56044
G1 X148.358 Y175.152 E124.81976
G1 X150.805 Y175.942 E125.07633
G1 X153.188 Y176.997 E125.33637
G1 X154.323 Y177.415 E125.45705
G1 X154.375 Y177.436 E125.46265
G1 X155.576 Y177.574 E125.58327
G1 X155.629 Y177.580 E125.58860
G1 X156.881 Y177.422 E125.71451
G1 X158.013 Y176.993 E125.83530
G1 X158.061 Y176.973 E125.84049
G1 X159.084 Y176.271 E125.96429
G1 X159.902 Y175.365 E126.08609
G1 X159.939 Y175.325 E126.09152
G1 X160.506 Y174.266 E126.21138
G1 X160.534 Y174.217 E126.21701
G1 X160.845 Y173.028 E126.33964
G1 X171.519 Y94.762 E134.22135
G1 X171.543 Y93.475 E134.34979
G1 X171.537 Y93.419 E134.35541
G1 X171.252 Y92.200 E134.48032
G1 X170.665 Y91.052 E134.60897
G1 X169.834 Y90.095 E134.73544
G1 X168.764 Y89.339 E134.86617
G1 X167.561 Y88.877 E134.99475
G1 X166.300 Y88.720 E135.12154
G1 X117.703 Y88.719 E139.97057
G1 X116.458 Y88.872 E140.09573
G1 X115.253 Y89.330 E140.22436
G1 X114.194 Y90.066 E140.35304
G1 X113.346 Y91.036 E140.48160
G1 X112.766 Y92.162 E140.60798
G1 X112.464 Y93.417 E140.73678
G1 X112.458 Y93.469 E140.74200
G1 X112.473 Y94.707 E140.86554
G1 X123.151 Y173.011 E148.75106
G1 X123.451 Y174.160 E148.86955
G1 X123.464 Y174.212 E148.87490
G1 X124.038 Y175.281 E148.99597
G1 X124.063 Y175.326 E149.00110
G1 X124.868 Y176.224 E149.12144
G1 X124.903 Y176.263 E149.12667
G1 X125.927 Y176.965 E149.25055
G1 X127.066 Y177.402 E149.37227
G1 X127.116 Y177.422 E149.37765
G1 X128.369 Y177.580 E149.50366
G1 X129.571 Y177.443 E149.62437
G1 X129.622 Y177.436 E149.62951
G1 X130.765 Y177.018 E149.75095
G1 X133.132 Y175.968 E150.00932
G1 X135.585 Y175.168 E150.26677
G1 F2100 E149.86677
G1 Z0.800
G0 F12000 X117.299 Y198.989
G1 Z0.400
G1 F2100 E150.26677
G1 F1800 X102.902 Y93.408 E160.89918
G1 X102.884 Y93.276 E160.91247
G1 X102.574 Y92.090 E161.03479
G1 X101.976 Y90.973 E161.16121
G1 X101.131 Y90.033 E161.28733
G1 X100.087 Y89.318 E161.41359
G1 X98.903 Y88.871 E161.53987
G1 X97.664 Y88.720 E161.66441
G1 X95.700 Y88.719 E161.86038
G1 X95.700 Y88.852 E161.87365
G1 X87.300 Y88.853 E162.71180
G1 X87.300 Y81.319 E163.46355
G1 X210.291 Y81.319 E175.73564
G1 X210.292 Y119.024 E179.49786
G1 X166.704 Y198.934 E188.58036
G1 X166.554 Y201.692 E188.85596
G1 X166.127 Y204.293 E189.11896
G1 X165.417 Y206.866 E189.38529
G1 X164.428 Y209.360 E189.65299
G1 X163.183 Y211.715 E189.91879
G1 X161.682 Y213.937 E190.18635
G1 X159.953 Y215.977 E190.45318
G1 X158.020 Y217.815 E190.71933
G1 X155.887 Y219.441 E190.98695
G1 X153.597 Y220.823 E191.25383
G1 X151.176 Y221.947 E191.52016
G1 X148.627 Y222.811 E191.78872
G1 X146.031 Y223.384 E192.05398
G1 X143.375 Y223.677 E192.32061
G1 X140.660 Y223.681 E192.59151
G1 X138.042 Y223.396 E192.85428
G1 X135.424 Y222.825 E193.12165
G1 X132.879 Y221.971 E193.38950
G1 X130.462 Y220.856 E193.65510
G1 X128.172 Y219.481 E193.92162
G1 X126.040 Y217.866 E194.18849
G1 X124.096 Y216.029 E194.45537
G1 X122.361 Y213.993 E194.72228
G1 X120.858 Y211.782 E194.98904
G1 X119.601 Y209.421 E195.25593
G1 X118.607 Y206.936 E195.52299
G1 X117.887 Y204.356 E195.79026
G1 X117.452 Y201.728 E196.05605
G1 X117.299 Y198.989 E196.32977
G1 F2100 E195.92977
G1 Z0.800
G0 F12000 X117.600 Y195.197
;TYPE:SKIN
G1 Z0.400
G1 F2100 E196.32977
G1 F1800 X117.600 Y138.301 E202.00688
G1 F2100 E201.60688
G1 Z0.800
G0 F12000 X117.000 Y133.900
G1 Z0.400
G1 F2100 E202.00688
G1 F1800 X117.000 Y190.797 E207.68408
G1 F2100 E207.28408
G1 Z0.800
G0 F12000 X116.400 Y186.397
G1 Z0.400
G1 F2100 E207.68408
G1 F1800 X116.400 Y129.500 E213.36129
G1 F2100 E212.96129
G1 Z0.800
G0 F12000 X115.800 Y125.100
G1 Z0.400
G1 F2100 E213.36129
G1 F1800 X115.800 Y181.996 E219.03840
G1 F2100 E218.63840
G1 Z0.800
G0 F12000 X115.200 Y177.596
G1 Z0.400
G1 F2100 E219.03840
G1 F1800 X115.200 Y120.700 E224.71550
G1 F2100 E224.31550
G1 Z0.800
G0 F12000 X107.400 Y120.395
G1 Z0.400
G1 F2100 E224.71550
G1 F1800 X107.400 Y82.129 E228.53370
G0 F12000 X106.800 Y82.129
G1 F1800 X106.800 Y115.995 E231.91286
G1 F2100 E231.51286
G1 Z0.800
G0 F12000 X106.200 Y111.595
G1 Z0.400
G1 F2100 E231.91286
G1 F1800 X106.200 Y82.129 E234.85299
G0 F12000 X105.600 Y82.129
G1 F1800 X105.600 Y107.195 E237.35409
G1 F2100 E236.95409
G1 Z0.800
G0 F12000 X105.000 Y102.794
G1 Z0.400
G1 F2100 E237.35409
G1 F1800 X105.000 Y82.129 E239.41605
G0 F12000 X104.400 Y82.129
G1 F1800 X104.400 Y98.394 E241.03898
G1 F2100 E240.63898
G1 Z0.800
G0 F12000 X103.800 Y93.994
G1 Z0.400
G1 F2100 E241.03898
G1 F1800 X103.800 Y82.129 E242.22287
G0 F12000 X103.200 Y82.129
G1 F1800 X103.200 Y91.540 E243.16191
G0 F12000 X102.600 Y90.455
G1 F1800 X102.600 Y82.129 E243.99268
G0 F12000 X102.000 Y82.129
G1 F1800 X102.000 Y89.788 E244.75690
G0 F12000 X101.400 Y89.235
G1 F1800 X101.400 Y82.129 E245.46594
G0 F12000 X100.800 Y82.129
G1 F1800 X100.800 Y88.824 E246.13397
G0 F12000 X100.200 Y88.494
G1 F1800 X100.200 Y82.129 E246.76907
G1 F2100 E246.36907
G1 Z0.800
G0 F12000 X108.000 Y82.129
G1 Z0.400
G1 F2100 E246.76907
G1 F1800 X108.000 Y124.795 E251.02630
G1 F2100 E250.62630
G1 Z0.800
G0 F12000 X108.600 Y129.195
G1 Z0.400
G1 F2100 E251.02630
G1 F1800 X108.600 Y82.129 E255.72256
G0 F12000 X109.200 Y82.129
G1 F1800 X109.200 Y133.595 E260.85786
G1 F2100 E260.45786
G1 Z0.800
G0 F12000 X109.800 Y137.995
G1 Z0.400
G1 F2100 E260.85786
G1 F1800 X109.800 Y82.129 E266.43219
G0 F12000 X110.400 Y82.129
G1 F1800 X110.400 Y142.395 E272.44556
G1 F2100 E272.04556
G1 Z0.800
G0 F12000 X111.000 Y146.796
G1 Z0.400
G1 F2100 E272.44556
G1 F1800 X111.000 Y82.129 E278.89806
G0 F12000 X111.600 Y82.129
G1 F1800 X111.600 Y151.196 E285.78959
G1 F2100 E285.38959
G1 Z0.800
G0 F12000 X112.200 Y155.596
G1 Z0.400
G1 F2100 E285.78959
G1 F1800 X112.200 Y98.700 E291.46670
G1 F2100 E291.06670
G1 Z0.800
G0 F12000 X112.200 Y91.493
G1 Z0.400
G1 F2100 E291.46670
G1 F1800 X112.200 Y82.129 E292.40104
G0 F12000 X112.800 Y82.129
G1 F1800 X112.800 Y90.430 E293.22932
G0 F12000 X113.400 Y89.744
G1 F1800 X113.400 Y82.129 E293.98915
G0 F12000 X114.000 Y82.129
G1 F1800 X114.000 Y89.214 E294.69609
G0 F12000 X114.600 Y88.797
G1 F1800 X114.600 Y82.129 E295.36143
G0 F12000 X115.200 Y82.129
G1 F1800 X115.200 Y88.484 E295.99553
G0 F12000 X115.800 Y88.256
G1 F1800 X115.800 Y82.129 E296.60689
G0 F12000 X116.400 Y82.129
G1 F1800 X116.400 Y88.064 E297.19908
G0 F12000 X117.000 Y87.990
G1 F1800 X117.000 Y82.129 E297.78389
G0 F12000 X117.600 Y82.129
G1 F1800 X117.600 Y87.916 E298.36132
G0 F12000 X118.200 Y87.909
G1 F1800 X118.200 Y82.129 E298.93805
G0 F12000 X118.800 Y82.129
G1 F1800 X118.800 Y87.909 E299.51479
G0 F12000 X119.400 Y87.909
G1 F1800 X119.400 Y82.129 E300.09152
G0 F12000 X120.000 Y82.129
G1 F1800 X120.000 Y87.909 E300.66825
G0 F12000 X120.600 Y87.909
G1 F1800 X120.600 Y82.129 E301.24498
G0 F12000 X121.200 Y82.129
G1 F1800 X121.200 Y87.909 E301.82171
G0 F12000 X121.800 Y87.909
G1 F1800 X121.800 Y82.129 E302.39844
G0 F12000 X122.400 Y82.129
G1 F1800 X122.400 Y87.909 E302.97517
G0 F12000 X123.000 Y87.909
G1 F1800 X123.000 Y82.129 E303.55190
G0 F12000 X123.600 Y82.129
G1 F1800 X123.600 Y87.909 E304.12863
G0 F12000 X124.200 Y87.909
G1 F1800 X124.200 Y82.129 E304.70536
G0 F12000 X124.800 Y82.129
G1 F1800 X124.800 Y87.909 E305.28209
G0 F12000 X125.400 Y87.909
G1 F1800 X125.400 Y82.129 E305.85882
G0 F12000 X126.000 Y82.129
G1 F1800 X126.000 Y87.909 E306.43555
G0 F12000 X126.600 Y87.909
G1 F1800 X126.600 Y82.129 E307.01229
G0 F12000 X127.200 Y82.129
G1 F1800 X127.200 Y87.909 E307.58902
G0 F12000 X127.800 Y87.909
G1 F1800 X127.800 Y82.129 E308.16575
G0 F12000 X128.400 Y82.129
G1 F1800 X128.400 Y87.909 E308.74248
G0 F12000 X129.000 Y87.909
G1 F1800 X129.000 Y82.129 E309.31921
G0 F12000 X129.600 Y82.129
G1 F1800 X129.600 Y87.909 E309.89594
G0 F12000 X130.200 Y87.909
G1 F1800 X130.200 Y82.129 E310.47267
G0 F12000 X130.800 Y82.129
G1 F1800 X130.800 Y87.909 E311.04940
G0 F12000 X131.400 Y87.909
G1 F1800 X131.400 Y82.129 E311.62613
G0 F12000 X132.000 Y82.129
G1 F1800 X132.000 Y87.909 E312.20286
G0 F12000 X132.600 Y87.909
G1 F1800 X132.600 Y82.129 E312.77959
G0 F12000 X133.200 Y82.129
G1 F1800 X133.200 Y87.909 E313.35632
G0 F12000 X133.800 Y87.909
G1 F1800 X133.800 Y82.129 E313.93305
G0 F12000 X134.400 Y82.129
G1 F1800 X134.400 Y87.909 E314.50978
G0 F12000 X135.000 Y87.909
G1 F1800 X135.000 Y82.129 E315.08652
G0 F12000 X135.600 Y82.129
G1 F1800 X135.600 Y87.909 E315.66325
G0 F12000 X136.200 Y87.909
G1 F1800 X136.200 Y82.129 E316.23998
G0 F12000 X136.800 Y82.129
G1 F1800 X136.800 Y87.909 E316.81671
G0 F12000 X137.400 Y87.909
G1 F1800 X137.400 Y82.129 E317.39344
G0 F12000 X138.000 Y82.129
G1 F1800 X138.000 Y87.909 E317.97017
G0 F12000 X138.600 Y87.909
G1 F1800 X138.600 Y82.129 E318.54690
G0 F12000 X139.200 Y82.129
G1 F1800 X139.200 Y87.909 E319.12363
G0 F12000 X139.800 Y87.909
G1 F1800 X139.800 Y82.129 E319.70036
G0 F12000 X140.400 Y82.129
G1 F1800 X140.400 Y87.909 E320.27709
G0 F12000 X141.000 Y87.909
G1 F1800 X141.000 Y82.129 E320.85382
G0 F12000 X141.600 Y82.129
G1 F1800 X141.600 Y87.909 E321.43055
G0 F12000 X142.200 Y87.909
G1 F1800 X142.200 Y82.129 E322.00728
G0 F12000 X142.800 Y82.129
G1 F1800 X142.800 Y87.909 E322.58402
G0 F12000 X143.400 Y87.909
G1 F1800 X143.400 Y82.129 E323.16075
G0 F12000 X144.000 Y82.129
G1 F1800 X144.000 Y87.909 E323.73748
G0 F12000 X144.600 Y87.909
G1 F1800 X144.600 Y82.129 E324.31421
G0 F12000 X145.200 Y82.129
G1 F1800 X145.200 Y87.909 E324.89094
G0 F12000 X145.800 Y87.909
G1 F1800 X145.800 Y82.129 E325.46767
G0 F12000 X146.400 Y82.129
G1 F1800 X146.400 Y87.909 E326.04440
G0 F12000 X147.000 Y87.909
G1 F1800 X147.000 Y82.129 E326.62113
G0 F12000 X147.600 Y82.129
G1 F1800 X147.600 Y87.909 E327.19786
G0 F12000 X148.200 Y87.909
G1 F1800 X148.200 Y82.129 E327.77459
G0 F12000 X148.800 Y82.129
G1 F1800 X148.800 Y87.909 E328.35132
G0 F12000 X149.400 Y87.909
G1 F1800 X149.400 Y82.129 E328.92805
G0 F12000 X150.000 Y82.129
G1 F1800 X150.000 Y87.909 E329.50478
G0 F12000 X150.600 Y87.909
G1 F1800 X150.600 Y82.129 E330.08151
G0 F12000 X151.200 Y82.129
G1 F1800 X151.200 Y87.909 E330.65825
G0 F12000 X151.800 Y87.909
G1 F1800 X151.800 Y82.129 E331.23498
G0 F12000 X152.400 Y82.129
G1 F1800 X152.400 Y87.909 E331.81171
G0 F12000 X153.000 Y87.909
G1 F1800 X153.000 Y82.129 E332.38844
G0 F12000 X153.600 Y82.129
G1 F1800 X153.600 Y87.909 E332.96517
G0 F12000 X154.200 Y87.909
G1 F1800 X154.200 Y82.129 E333.54190
G0 F12000 X154.800 Y82.129
G1 F1800 X154.800 Y87.909 E334.11863
G0 F12000 X155.400 Y87.909
G1 F1800 X155.400 Y82.129 E334.69536
G0 F12000 X156.000 Y82.129
G1 F1800 X156.000 Y87.909 E335.27209
G0 F12000 X156.600 Y87.909
G1 F1800 X156.600 Y82.129 E335.84882
G0 F12000 X157.200 Y82.129
G1 F1800 X157.200 Y87.909 E336.42555
G0 F12000 X157.800 Y87.909
G1 F1800 X157.800 Y82.129 E337.00228
G0 F12000 X158.400 Y82.129
G1 F1800 X158.400 Y87.909 E337.57901
G0 F12000 X159.000 Y87.909
G1 F1800 X159.000 Y82.129 E338.15575
G0 F12000 X159.600 Y82.129
G1 F1800 X159.600 Y87.909 E338.73248
G0 F12000 X160.200 Y87.909
G1 F1800 X160.200 Y82.129 E339.30921
G0 F12000 X160.800 Y82.129
G1 F1800 X160.800 Y87.909 E339.88594
G0 F12000 X161.400 Y87.909
G1 F1800 X161.400 Y82.129 E340.46267
G0 F12000 X162.000 Y82.129
G1 F1800 X162.000 Y87.909 E341.03940
G0 F12000 X162.600 Y87.909
G1 F1800 X162.600 Y82.129 E341.61613
G0 F12000 X163.200 Y82.129
G1 F1800 X163.200 Y87.909 E342.19286
G0 F12000 X163.800 Y87.909
G1 F1800 X163.800 Y82.129 E342.76959
G0 F12000 X164.400 Y82.129
G1 F1800 X164.400 Y87.909 E343.34632
G0 F12000 X165.000 Y87.909
G1 F1800 X165.000 Y82.129 E343.92305
G0 F12000 X165.600 Y82.129
G1 F1800 X165.600 Y87.909 E344.49978
G0 F12000 X166.200 Y87.909
G1 F1800 X166.200 Y82.129 E345.07651
G0 F12000 X166.800 Y82.129
G1 F1800 X166.800 Y87.965 E345.65883
G0 F12000 X167.400 Y88.040
G1 F1800 X167.400 Y82.129 E346.24863
G0 F12000 X168.000 Y82.129
G1 F1800 X168.000 Y88.177 E346.85211
G0 F12000 X168.600 Y88.408
G1 F1800 X168.600 Y82.129 E347.47863
G0 F12000 X169.200 Y82.129
G1 F1800 X169.200 Y88.656 E348.12989
G0 F12000 X169.800 Y89.074
G1 F1800 X169.800 Y82.129 E348.82287
G0 F12000 X170.400 Y82.129
G1 F1800 X170.400 Y89.515 E349.55985
G0 F12000 X171.000 Y90.202
G1 F1800 X171.000 Y82.129 E350.36537
G0 F12000 X171.600 Y82.129
G1 F1800 X171.600 Y91.101 E351.26060
G1 F2100 E350.86060
G1 Z0.800
G0 F12000 X172.200 Y92.699
G1 Z0.400
G1 F2100 E351.26060
G1 F1800 X172.200 Y82.129 E352.31528
G0 F12000 X172.800 Y82.129
G1 F1800 X172.800 Y186.067 E362.68626
G0 F12000 X172.200 Y187.167
G1 F1800 X172.200 Y95.766 E371.80629
G1 F2100 E371.40629
G1 Z0.800
G0 F12000 X173.400 Y82.129
G1 Z0.400
G1 F2100 E371.80629
G1 F1800 X173.400 Y184.967 E382.06751
G0 F12000 X174.000 Y183.867
G1 F1800 X174.000 Y82.129 E392.21896
G0 F12000 X174.600 Y82.129
G1 F1800 X174.600 Y182.767 E402.26066
G0 F12000 X175.200 Y181.667
G1 F1800 X175.200 Y82.129 E412.19261
G0 F12000 X175.800 Y82.129
G1 F1800 X175.800 Y180.567 E422.01479
G1 F2100 E421.61479
G1 Z0.800
G0 F12000 X171.600 Y188.267
G1 Z0.400
G1 F2100 E422.01479
G1 F1800 X171.600 Y100.165 E430.80564
G1 F2100 E430.40564
G1 Z0.800
G0 F12000 X171.000 Y104.565
G1 Z0.400
G1 F2100 E430.80564
G1 F1800 X171.000 Y189.367 E439.26722
G0 F12000 X170.400 Y190.467
G1 F1800 X170.400 Y108.964 E447.39962
G1 F2100 E446.99962
G1 Z0.800
G0 F12000 X169.800 Y113.364
G1 Z0.400
G1 F2100 E447.39962
G1 F1800 X169.800 Y191.567 E455.20275
G0 F12000 X169.200 Y192.667
G1 F1800 X169.200 Y117.763 E462.67670
G1 F2100 E462.27670
G1 Z0.800
G0 F12000 X168.600 Y122.162
G1 Z0.400
G1 F2100 E462.67670
G1 F1800 X168.600 Y193.767 E469.82148
G0 F12000 X168.000 Y194.867
G1 F1800 X168.000 Y126.562 E476.63698
G1 F2100 E476.23698
G1 Z0.800
G0 F12000 X167.400 Y130.961
G1 Z0.400
G1 F2100 E476.63698
G1 F1800 X167.400 Y195.967 E483.12330
G0 F12000 X166.800 Y197.067
G1 F1800 X166.800 Y135.360 E489.28045
G1 F2100 E488.88045
G1 Z0.800
G0 F12000 X166.200 Y139.760
G1 Z0.400
G1 F2100 E489.28045
G1 F1800 X166.200 Y198.167 E495.10833
G1 F2100 E494.70833
G1 Z0.800
G0 F12000 X165.600 Y202.503
G1 Z0.400
G1 F2100 E495.10833
G1 F1800 X165.600 Y144.159 E500.92991
G1 F2100 E500.52991
G1 Z0.800
G0 F12000 X165.000 Y148.559
G1 Z0.400
G1 F2100 E500.92991
G1 F1800 X165.000 Y205.329 E506.59445
G1 F2100 E506.19445
G1 Z0.800
G0 F12000 X164.400 Y207.231
G1 Z0.400
G1 F2100 E506.59445
G1 F1800 X164.400 Y152.958 E512.00983
G1 F2100 E511.60983
G1 Z0.800
G0 F12000 X163.800 Y157.357
G1 Z0.400
G1 F2100 E512.00983
G1 F1800 X163.800 Y208.747 E517.13755
G0 F12000 X163.200 Y209.950
G1 F1800 X163.200 Y161.757 E521.94626
G1 F2100 E521.54626
G1 Z0.800
G0 F12000 X162.600 Y166.156
G1 Z0.400
G1 F2100 E521.94626
G1 F1800 X162.600 Y211.084 E526.42920
G0 F12000 X162.000 Y212.018
G1 F1800 X162.000 Y170.556 E530.56629
G1 F2100 E530.16629
G1 Z0.800
G0 F12000 X161.400 Y174.108
G1 Z0.400
G1 F2100 E530.56629
G1 F1800 X161.400 Y212.907 E534.43767
G0 F12000 X160.800 Y213.725
G1 F1800 X160.800 Y175.432 E538.25856
G0 F12000 X160.200 Y176.243
G1 F1800 X160.200 Y214.434 E542.06928
G0 F12000 X159.600 Y215.142
G1 F1800 X159.600 Y176.899 E545.88518
G0 F12000 X159.000 Y177.311
G1 F1800 X159.000 Y215.768 E549.72243
G0 F12000 X158.400 Y216.338
G1 F1800 X158.400 Y177.710 E553.57675
G0 F12000 X157.800 Y177.940
G1 F1800 X157.800 Y216.908 E557.46499
G0 F12000 X157.200 Y217.422
G1 F1800 X157.200 Y178.167 E561.38187
G0 F12000 X156.600 Y178.274
G1 F1800 X156.600 Y217.879 E565.33368
G0 F12000 X156.000 Y218.336
G1 F1800 X156.000 Y178.350 E569.32350
G0 F12000 X155.400 Y178.371
G1 F1800 X155.400 Y218.790 E573.35652
G0 F12000 X154.800 Y219.152
G1 F1800 X154.800 Y178.302 E577.43255
G0 F12000 X154.200 Y178.233
G1 F1800 X154.200 Y219.515 E581.55168
G0 F12000 X153.600 Y219.877
G1 F1800 X153.600 Y178.013 E585.72889
G0 F12000 X153.000 Y177.792
G1 F1800 X153.000 Y220.209 E589.96128
G0 F12000 X152.400 Y220.487
G1 F1800 X152.400 Y177.535 E594.24704
G0 F12000 X151.800 Y177.269
G1 F1800 X151.800 Y220.766 E598.58719
G0 F12000 X151.200 Y221.044
G1 F1800 X151.200 Y177.004 E602.98152
G0 F12000 X150.600 Y176.738
G1 F1800 X150.600 Y221.288 E607.42674
G0 F12000 X150.000 Y221.492
G1 F1800 X150.000 Y176.534 E611.91267
G0 F12000 X149.400 Y176.340
G1 F1800 X149.400 Y221.695 E616.43821
G0 F12000 X148.800 Y221.898
G1 F1800 X148.800 Y176.146 E621.00336
G0 F12000 X148.200 Y175.952
G1 F1800 X148.200 Y222.079 E625.60593
G0 F12000 X147.600 Y222.210
G1 F1800 X147.600 Y175.821 E630.23464
G0 F12000 X147.000 Y175.694
G1 F1800 X147.000 Y222.342 E634.88920
G0 F12000 X146.400 Y222.474
G1 F1800 X146.400 Y175.568 E639.56950
G0 F12000 X145.800 Y175.442
G1 F1800 X145.800 Y222.595 E644.27444
G0 F12000 X145.200 Y222.661
G1 F1800 X145.200 Y175.367 E648.99346
G0 F12000 X144.600 Y175.304
G1 F1800 X144.600 Y222.727 E653.72535
G0 F12000 X144.000 Y222.793
G1 F1800 X144.000 Y199.750 E656.02459
G0 F12000 X144.000 Y198.285
G1 F1800 X144.000 Y175.241 E658.32393
G0 F12000 X143.400 Y175.178
G1 F1800 X143.400 Y197.408 E660.54204
G0 F12000 X142.800 Y197.045
G1 F1800 X142.800 Y175.162 E662.72554
G0 F12000 X142.200 Y175.163
G1 F1800 X142.200 Y196.896 E664.89407
G0 F12000 X141.600 Y196.925
G1 F1800 X141.600 Y175.164 E667.06539
G0 F12000 X141.000 Y175.165
G1 F1800 X141.000 Y197.131 E669.25716
G0 F12000 X140.400 Y197.607
G1 F1800 X140.400 Y175.199 E671.49304
G0 F12000 X139.800 Y175.263
G1 F1800 X139.800 Y222.772 E676.23351
G0 F12000 X139.200 Y222.707
G1 F1800 X139.200 Y175.327 E680.96111
G0 F12000 X138.600 Y175.391
G1 F1800 X138.600 Y222.642 E685.67583
G0 F12000 X138.000 Y222.558
G1 F1800 X138.000 Y175.479 E690.37339
G0 F12000 X137.400 Y175.608
G1 F1800 X137.400 Y222.427 E695.04501
G0 F12000 X136.800 Y222.296
G1 F1800 X136.800 Y175.736 E699.69079
G0 F12000 X136.200 Y175.864
G1 F1800 X136.200 Y222.165 E704.31072
G0 F12000 X135.600 Y222.029
G1 F1800 X135.600 Y176.015 E708.90201
G0 F12000 X135.000 Y176.211
G1 F1800 X135.000 Y221.828 E713.45370
G0 F12000 X134.400 Y221.627
G1 F1800 X134.400 Y176.407 E717.96577
G0 F12000 X133.800 Y176.602
G1 F1800 X133.800 Y221.425 E722.43822
G0 F12000 X133.200 Y221.224
G1 F1800 X133.200 Y176.824 E726.86847
G0 F12000 X132.600 Y177.090
G1 F1800 X132.600 Y220.951 E731.24494
G0 F12000 X132.000 Y220.674
G1 F1800 X132.000 Y177.357 E735.56713
G0 F12000 X131.400 Y177.623
G1 F1800 X131.400 Y220.397 E739.83514
G0 F12000 X130.800 Y220.113
G1 F1800 X130.800 Y177.867 E744.05046
G0 F12000 X130.200 Y178.086
G1 F1800 X130.200 Y219.753 E748.20801
G0 F12000 X129.600 Y219.393
G1 F1800 X129.600 Y178.255 E752.31278
G0 F12000 X129.000 Y178.323
G1 F1800 X129.000 Y219.032 E756.37474
G0 F12000 X128.400 Y218.636
G1 F1800 X128.400 Y178.392 E760.39030
G0 F12000 X127.800 Y178.325
G1 F1800 X127.800 Y218.182 E764.36725
G0 F12000 X127.200 Y217.728
G1 F1800 X127.200 Y178.250 E768.30638
G0 F12000 X126.600 Y178.090
G1 F1800 X126.600 Y217.274 E772.21617
G0 F12000 X126.000 Y216.713
G1 F1800 X126.000 Y177.861 E776.09284
G0 F12000 X125.400 Y177.587
G1 F1800 X125.400 Y216.146 E779.94027
G0 F12000 X124.800 Y215.579
G1 F1800 X124.800 Y177.176 E783.77214
G0 F12000 X124.200 Y176.694
G1 F1800 X124.200 Y214.902 E787.58455
G0 F12000 X123.600 Y214.198
G1 F1800 X123.600 Y176.023 E791.39367
G0 F12000 X123.000 Y175.062
G1 F1800 X123.000 Y213.494 E795.22843
G0 F12000 X122.400 Y212.610
G1 F1800 X122.400 Y173.340 E799.14680
G1 F2100 E798.74680
G1 Z0.800
G0 F12000 X121.800 Y169.101
G1 Z0.400
G1 F2100 E799.14680
G1 F1800 X121.800 Y211.727 E803.40004
G0 F12000 X121.200 Y210.700
G1 F1800 X121.200 Y164.701 E807.98984
G1 F2100 E807.58984
G1 Z0.800
G0 F12000 X120.600 Y160.301
G1 Z0.400
G1 F2100 E807.98984
G1 F1800 X120.600 Y209.574 E812.90632
G0 F12000 X120.000 Y208.235
G1 F1800 X120.000 Y155.901 E818.12823
G1 F2100 E817.72823
G1 Z0.800
G0 F12000 X119.400 Y151.501
G1 Z0.400
G1 F2100 E818.12823
G1 F1800 X119.400 Y206.735 E823.63950
G1 F2100 E823.23950
G1 Z0.800
G0 F12000 X118.800 Y204.612
G1 Z0.400
G1 F2100 E823.63950
G1 F1800 X118.800 Y147.101 E829.37797
G1 F2100 E828.97797
G1 Z0.800
G0 F12000 X118.200 Y142.701
G1 Z0.400
G1 F2100 E829.37797
G1 F1800 X118.200 Y200.598 E835.15496
G1 F2100 E834.75496
G1 Z0.800
G0 F12000 X140.400 Y200.426
G1 Z0.400
G1 F2100 E835.15496
G1 F1800 X140.400 Y222.837 E837.39114
G0 F12000 X141.000 Y222.871
G1 F1800 X141.000 Y200.907 E839.58271
G0 F12000 X141.600 Y201.112
G1 F1800 X141.600 Y222.870 E841.75374
G0 F12000 X142.200 Y222.869
G1 F1800 X142.200 Y201.138 E843.92206
G0 F12000 X142.800 Y200.989
G1 F1800 X142.800 Y222.868 E846.10516
G0 F12000 X143.400 Y222.859
G1 F1800 X143.400 Y200.624 E848.32378
G1 F2100 E847.92378
G1 Z0.800
G0 F12000 X176.400 Y179.467
G1 Z0.400
G1 F2100 E848.32378
G1 F1800 X176.400 Y82.129 E858.03620
G0 F12000 X177.000 Y82.129
G1 F1800 X177.000 Y178.367 E867.63887
G0 F12000 X177.600 Y177.267
G1 F1800 X177.600 Y82.129 E877.13178
G0 F12000 X178.200 Y82.129
G1 F1800 X178.200 Y176.167 E886.51493
G0 F12000 X178.800 Y175.067
G1 F1800 X178.800 Y82.129 E895.78832
G0 F12000 X179.400 Y82.129
G1 F1800 X179.400 Y173.967 E904.95195
G0 F12000 X180.000 Y172.867
G1 F1800 X180.000 Y82.129 E914.00583
G0 F12000 X180.600 Y82.129
G1 F1800 X180.600 Y171.767 E922.94994
G0 F12000 X181.200 Y170.667
G1 F1800 X181.200 Y82.129 E931.78430
G0 F12000 X181.800 Y82.129
G1 F1800 X181.800 Y169.567 E940.50890
G0 F12000 X182.400 Y168.467
G1 F1800 X182.400 Y82.129 E949.12374
G0 F12000 X183.000 Y82.129
G1 F1800 X183.000 Y167.368 E957.62892
G0 F12000 X183.600 Y166.268
G1 F1800 X183.600 Y82.129 E966.02434
G0 F12000 X184.200 Y82.129
G1 F1800 X184.200 Y165.168 E974.31001
G0 F12000 X184.800 Y164.068
G1 F1800 X184.800 Y82.129 E982.48592
G0 F12000 X185.400 Y82.129
G1 F1800 X185.400 Y162.968 E990.55206
G0 F12000 X186.000 Y161.868
G1 F1800 X186.000 Y82.129 E998.50845
G0 F12000 X186.600 Y82.129
G1 F1800 X186.600 Y160.768 E1006.35508
G0 F12000 X187.200 Y159.668
G1 F1800 X187.200 Y82.129 E1014.09196
G0 F12000 X187.800 Y82.129
G1 F1800 X187.800 Y158.568 E1021.71907
G0 F12000 X188.400 Y157.468
G1 F1800 X188.400 Y82.129 E1029.23643
G0 F12000 X189.000 Y82.129
G1 F1800 X189.000 Y156.368 E1036.64403
G0 F12000 X189.600 Y155.268
G1 F1800 X189.600 Y82.129 E1043.94186
G0 F12000 X190.200 Y82.129
G1 F1800 X190.200 Y154.168 E1051.12994
G0 F12000 X190.800 Y153.068
G1 F1800 X190.800 Y82.129 E1058.20827
G0 F12000 X191.400 Y82.129
G1 F1800 X191.400 Y151.968 E1065.17683
G0 F12000 X192.000 Y150.868
G1 F1800 X192.000 Y82.129 E1072.03564
G0 F12000 X192.600 Y82.129
G1 F1800 X192.600 Y149.768 E1078.78468
G0 F12000 X193.200 Y148.668
G1 F1800 X193.200 Y82.129 E1085.42397
G0 F12000 X193.800 Y82.129
G1 F1800 X193.800 Y147.568 E1091.95350
G0 F12000 X194.400 Y146.468
G1 F1800 X194.400 Y82.129 E1098.37327
G0 F12000 X195.000 Y82.129
G1 F1800 X195.000 Y145.368 E1104.68329
G0 F12000 X195.600 Y144.268
G1 F1800 X195.600 Y82.129 E1110.88354
G0 F12000 X196.200 Y82.129
G1 F1800 X196.200 Y143.168 E1116.97404
G0 F12000 X196.800 Y142.068
G1 F1800 X196.800 Y82.129 E1122.95477
G0 F12000 X197.400 Y82.129
G1 F1800 X197.400 Y140.968 E1128.82575
G0 F12000 X198.000 Y139.868
G1 F1800 X198.000 Y82.129 E1134.58697
G0 F12000 X198.600 Y82.129
G1 F1800 X198.600 Y138.768 E1140.23844
G0 F12000 X199.200 Y137.668
G1 F1800 X199.200 Y82.129 E1145.78014
G0 F12000 X199.800 Y82.129
G1 F1800 X199.800 Y136.568 E1151.21209
G0 F12000 X200.400 Y135.468
G1 F1800 X200.400 Y82.129 E1156.53427
G0 F12000 X201.000 Y82.129
G1 F1800 X201.000 Y134.368 E1161.74670
G0 F12000 X201.600 Y133.268
G1 F1800 X201.600 Y82.129 E1166.84937
G0 F12000 X202.200 Y82.129
G1 F1800 X202.200 Y132.168 E1171.84228
G0 F12000 X202.800 Y131.069
G1 F1800 X202.800 Y82.129 E1176.72554
G0 F12000 X203.400 Y82.129
G1 F1800 X203.400 Y129.969 E1181.49903
G0 F12000 X204.000 Y128.869
G1 F1800 X204.000 Y82.129 E1186.16277
G0 F12000 X204.600 Y82.129
G1 F1800 X204.600 Y127.769 E1190.71674
G0 F12000 X205.200 Y126.669
G1 F1800 X205.200 Y82.129 E1195.16096
G0 F12000 X205.800 Y82.129
G1 F1800 X205.800 Y125.569 E1199.49542
G0 F12000 X206.400 Y124.469
G1 F1800 X206.400 Y82.129 E1203.72013
G0 F12000 X207.000 Y82.129
G1 F1800 X207.000 Y123.369 E1207.83507
G0 F12000 X207.600 Y122.269
G1 F1800 X207.600 Y82.129 E1211.84026
G0 F12000 X208.200 Y82.129
G1 F1800 X208.200 Y121.169 E1215.73568
G0 F12000 X208.800 Y120.069
G1 F1800 X208.800 Y82.129 E1219.52135
G0 F12000 X209.400 Y82.129
G1 F1800 X209.400 Y118.969 E1223.19726
G1 F2100 E1222.79726
G1 Z0.800
G0 F12000 X114.600 Y116.300
G1 Z0.400
G1 F2100 E1223.19726
G1 F1800 X114.600 Y173.196 E1228.87437
G1 F2100 E1228.47437
G1 Z0.800
G0 F12000 X114.000 Y168.796
G1 Z0.400
G1 F2100 E1228.87437
G1 F1800 X114.000 Y111.900 E1234.55147
G1 F2100 E1234.15147
G1 Z0.800
G0 F12000 X113.400 Y107.500
G1 Z0.400
G1 F2100 E1234.55147
G1 F1800 X113.400 Y164.396 E1240.22858
G1 F2100 E1239.82858
G1 Z0.800
G0 F12000 X112.800 Y159.996
G1 Z0.400
G1 F2100 E1240.22858
G1 F1800 X112.800 Y103.100 E1245.90569
G1 F2100 E1245.50569
G1 Z0.800
G0 F12000 X99.600 Y88.268
G1 Z0.400
G1 F2100 E1245.90569
G1 F1800 X99.600 Y82.129 E1246.51824
G0 F12000 X99.000 Y82.129
G1 F1800 X99.000 Y88.067 E1247.11073
G0 F12000 X98.400 Y87.993
G1 F1800 X98.400 Y82.129 E1247.69585
G0 F12000 X97.800 Y82.129
G1 F1800 X97.800 Y87.920 E1248.27367
G0 F12000 X97.200 Y87.909
G1 F1800 X97.200 Y82.129 E1248.85041
G0 F12000 X96.600 Y82.129
G1 F1800 X96.600 Y87.909 E1249.42714
G0 F12000 X96.000 Y87.908
G1 F1800 X96.000 Y82.129 E1250.00377
G0 F12000 X95.400 Y82.129
G1 F1800 X95.400 Y87.908 E1250.58040
G0 F12000 X94.800 Y88.043
G1 F1800 X94.800 Y82.129 E1251.17050
G0 F12000 X94.200 Y82.129
G1 F1800 X94.200 Y88.043 E1251.76060
G0 F12000 X93.600 Y88.043
G1 F1800 X93.600 Y82.129 E1252.35070
G0 F12000 X93.000 Y82.129
G1 F1800 X93.000 Y88.043 E1252.94080
G0 F12000 X92.400 Y88.043
G1 F1800 X92.400 Y82.129 E1253.53090
G0 F12000 X91.800 Y82.129
G1 F1800 X91.800 Y88.043 E1254.12101
G0 F12000 X91.200 Y88.043
G1 F1800 X91.200 Y82.129 E1254.71111
G0 F12000 X90.600 Y82.129
G1 F1800 X90.600 Y88.043 E1255.30121
G0 F12000 X90.000 Y88.043
G1 F1800 X90.000 Y82.129 E1255.89131
G0 F12000 X89.400 Y82.129
G1 F1800 X89.400 Y88.043 E1256.48141
G0 F12000 X88.800 Y88.043
G1 F1800 X88.800 Y82.129 E1257.07151
G0 F12000 X88.200 Y82.129
G1 F1800 X88.200 Y88.043 E1257.66161
;LAYER:1
M106 S20
G0 F12000 X87.900 Y88.519 Z0.800
;TYPE:WALL-INNER
G1 F1980 X87.900 Y81.919 E1258.32016
G1 X210.003 Y81.919 E1270.50365
G1 X210.004 Y118.300 E1274.13376
G1 X166.112 Y198.766 E1283.27949
G1 X165.956 Y201.629 E1283.56558
G1 X165.546 Y204.136 E1283.81905
G1 X165.534 Y204.201 E1283.82565
G1 X164.866 Y206.606 E1284.07471
G1 X163.896 Y209.075 E1284.33939
G1 X163.870 Y209.140 E1284.34638
G1 X162.701 Y211.345 E1284.59540
G1 X161.242 Y213.516 E1284.85640
G1 X159.536 Y215.542 E1285.12068
G1 X157.680 Y217.310 E1285.37645
G1 X155.572 Y218.927 E1285.64154
G1 X153.291 Y220.308 E1285.90760
G1 X150.974 Y221.379 E1286.16230
G1 X148.545 Y222.205 E1286.41829
G1 X145.953 Y222.786 E1286.68334
G1 X143.409 Y223.069 E1286.93875
G1 X140.752 Y223.081 E1287.20387
G1 X140.698 Y223.081 E1287.20926
G1 X138.206 Y222.810 E1287.45937
G1 X135.655 Y222.261 E1287.71974
G1 X133.183 Y221.439 E1287.97968
G1 X130.763 Y220.333 E1288.24517
G1 X128.477 Y218.964 E1288.51104
G1 X126.399 Y217.385 E1288.77145
G1 X124.584 Y215.665 E1289.02096
G1 X122.815 Y213.601 E1289.29220
G1 X121.410 Y211.528 E1289.54207
G1 X120.181 Y209.235 E1289.80166
G1 X119.184 Y206.763 E1290.06762
G1 X119.162 Y206.708 E1290.07354
G1 X118.495 Y204.306 E1290.32228
G1 X118.043 Y201.621 E1290.59396
G1 X117.897 Y198.933 E1290.86256
G1 X103.526 Y93.537 E1301.47633
G1 X103.470 Y93.141 E1301.51623
G1 X103.143 Y91.891 E1301.64516
G1 X102.484 Y90.647 E1301.78562
G1 X101.582 Y89.635 E1301.92089
G1 X101.457 Y89.524 E1301.93757
G1 X100.384 Y88.793 E1302.06712
G1 X99.070 Y88.291 E1302.20747
G1 X97.722 Y88.121 E1302.34304
G1 X96.034 Y88.119 E1302.51147
G1 X95.100 Y88.119 E1302.60467
G1 X95.100 Y88.519 E1302.64458
G1 X87.900 Y88.519 E1303.36300
G1 F2100 E1302.96300
G1 Z1.200
G0 F12000 X111.876 Y93.293
G1 Z0.800
G1 F2100 E1303.36300
G1 F1980 X111.856 Y93.450 E1303.37879
G1 X111.873 Y94.734 E1303.50692
G1 X122.562 Y173.128 E1311.40148
G1 X122.902 Y174.434 E1311.53614
G1 X123.494 Y175.537 E1311.66105
G1 X123.568 Y175.673 E1311.67650
G1 X124.396 Y176.597 E1311.80029
G1 X124.501 Y176.715 E1311.81606
G1 X125.535 Y177.424 E1311.94115
G1 X125.664 Y177.511 E1311.95668
G1 X126.828 Y177.954 E1312.08095
G1 X126.974 Y178.009 E1312.09652
G1 X128.211 Y178.165 E1312.22092
G1 X128.366 Y178.184 E1312.23650
G1 X129.610 Y178.043 E1312.36143
G1 X129.764 Y178.023 E1312.37692
G1 X130.959 Y177.586 E1312.50388
G1 X133.325 Y176.538 E1312.76208
G1 X133.379 Y176.514 E1312.76798
G1 X135.720 Y175.755 E1313.01354
G1 X135.778 Y175.736 E1313.01963
G1 X138.180 Y175.227 E1313.26462
G1 X138.236 Y175.215 E1313.27034
G1 X140.638 Y174.963 E1313.51132
G1 X143.206 Y174.952 E1313.76756
G1 X143.261 Y174.952 E1313.77305
G1 X145.663 Y175.204 E1314.01404
G1 X148.170 Y175.725 E1314.26953
G1 X150.564 Y176.494 E1314.52043
G1 X152.869 Y177.512 E1314.77185
G1 X154.086 Y177.968 E1314.90153
G1 X154.236 Y178.025 E1314.91754
G1 X155.469 Y178.165 E1315.04136
G1 X155.630 Y178.185 E1315.05755
G1 X156.873 Y178.028 E1315.18256
G1 X157.027 Y178.009 E1315.19805
G1 X158.192 Y177.566 E1315.32241
G1 X158.339 Y177.511 E1315.33807
G1 X159.363 Y176.808 E1315.46201
G1 X159.495 Y176.719 E1315.47789
G1 X160.331 Y175.785 E1315.60297
G1 X160.435 Y175.669 E1315.61851
G1 X161.020 Y174.577 E1315.74212
G1 X161.097 Y174.438 E1315.75798
G1 X161.426 Y173.175 E1315.88821
G1 X161.854 Y170.079 E1316.20006
G1 X172.099 Y94.945 E1323.76634
G1 X172.127 Y94.725 E1323.78847
G1 X172.145 Y93.409 E1323.91979
G1 X171.826 Y92.013 E1324.06268
G1 X171.200 Y90.777 E1324.20092
G1 X171.103 Y90.637 E1324.21791
G1 X170.238 Y89.644 E1324.34932
G1 X169.067 Y88.817 E1324.49236
G1 X167.730 Y88.297 E1324.63550
G1 X166.359 Y88.121 E1324.77342
G1 X165.703 Y88.119 E1324.83888
G1 X117.710 Y88.119 E1329.62764
G1 X117.631 Y88.122 E1329.63553
G1 X116.331 Y88.282 E1329.76622
G1 X114.988 Y88.787 E1329.90939
G1 X113.807 Y89.603 E1330.05262
G1 X112.892 Y90.640 E1330.19061
G1 X112.803 Y90.773 E1330.20658
G1 X112.222 Y91.905 E1330.33354
G1 X112.166 Y92.053 E1330.34933
G1 X111.876 Y93.293 E1330.47640
G1 F2100 E1330.07640
G1 Z1.200
G0 F12000 X141.493 Y197.158
G1 Z0.800
G1 F2100 E1330.47640
G1 F1980 X141.006 Y197.370 E1330.52940
G1 X140.636 Y197.657 E1330.57612
G1 X140.332 Y198.054 E1330.62601
G1 X140.139 Y198.519 E1330.67625
G1 X140.073 Y199.018 E1330.72647
G1 X140.141 Y199.527 E1330.77771
G1 X140.353 Y200.012 E1330.83053
G1 X140.640 Y200.383 E1330.87733
G1 X141.038 Y200.687 E1330.92730
G1 X141.500 Y200.878 E1330.97718
G1 X142.008 Y200.948 E1331.02835
G1 X142.545 Y200.864 E1331.08258
G1 X142.996 Y200.663 E1331.13185
G1 X143.365 Y200.379 E1331.17831
G1 X143.669 Y199.981 E1331.22828
G1 X143.862 Y199.518 E1331.27834
G1 X143.928 Y199.018 E1331.32866
G1 X143.861 Y198.510 E1331.37979
G1 X143.648 Y198.023 E1331.43282
G1 X143.361 Y197.653 E1331.47955
G1 X142.964 Y197.349 E1331.52944
G1 X142.499 Y197.156 E1331.57968
G1 X142.000 Y197.090 E1331.62990
G1 X141.493 Y197.158 E1331.68094
G0 F12000 X141.656 Y197.741
;TYPE:WALL-OUTER
G1 F1980 X141.315 Y197.890 E1331.71807
G1 X141.065 Y198.084 E1331.74965
G1 X140.856 Y198.357 E1331.78395
G1 X140.724 Y198.676 E1331.81840
G1 X140.678 Y199.018 E1331.85283
G1 X140.724 Y199.364 E1331.88766
G1 X140.873 Y199.703 E1331.92461
G1 X141.067 Y199.954 E1331.95626
G1 X141.340 Y200.162 E1331.99051
G1 X141.658 Y200.294 E1332.02486
G1 X142.003 Y200.341 E1332.05961
G1 X142.374 Y200.283 E1332.09707
G1 X142.687 Y200.144 E1332.13125
G1 X142.936 Y199.952 E1332.16262
G1 X143.145 Y199.678 E1332.19701
G1 X143.277 Y199.361 E1332.23127
G1 X143.323 Y199.018 E1332.26580
G1 X143.277 Y198.673 E1332.30053
G1 X143.128 Y198.332 E1332.33766
G1 X142.934 Y198.082 E1332.36924
G1 X142.661 Y197.873 E1332.40354
G1 X142.342 Y197.741 E1332.43799
G1 X142.000 Y197.695 E1332.47242
G1 X141.656 Y197.741 E1332.50705
G1 F2100 E1332.10705
G1 Z1.200
G0 F12000 X135.533 Y175.185
G1 Z0.800
G1 F2100 E1332.50705
G1 F1980 X138.142 Y174.621 E1332.77339
G1 X140.602 Y174.363 E1333.02020
G1 X143.203 Y174.352 E1333.27973
G1 X143.295 Y174.352 E1333.28891
G1 X145.748 Y174.610 E1333.53502
G1 X148.297 Y175.139 E1333.79478
G1 X150.752 Y175.924 E1334.05196
G1 X150.839 Y175.954 E1334.06114
G1 X153.220 Y177.012 E1334.32112
G1 X154.298 Y177.407 E1334.43567
G1 X154.378 Y177.437 E1334.44420
G1 X155.544 Y177.570 E1334.56130
G1 X155.629 Y177.580 E1334.56984
G1 X156.881 Y177.422 E1334.69575
G1 X158.059 Y176.975 E1334.82147
G1 X159.027 Y176.311 E1334.93860
G1 X159.098 Y176.263 E1334.94715
G1 X159.884 Y175.386 E1335.06466
G1 X159.940 Y175.323 E1335.07307
G1 X160.494 Y174.289 E1335.19012
G1 X160.535 Y174.215 E1335.19856
G1 X160.837 Y173.058 E1335.31787
G1 X171.504 Y94.867 E1343.19207
G1 X171.528 Y94.683 E1343.21059
G1 X171.544 Y93.473 E1343.33133
G1 X171.257 Y92.218 E1343.45979
G1 X170.683 Y91.084 E1343.58661
G1 X170.628 Y91.005 E1343.59621
G1 X169.833 Y90.093 E1343.71693
G1 X168.781 Y89.350 E1343.84544
G1 X167.581 Y88.883 E1343.97393
G1 X166.320 Y88.721 E1344.10078
G1 X165.702 Y88.719 E1344.16245
G1 X117.723 Y88.719 E1348.94981
G1 X117.680 Y88.721 E1348.95411
G1 X116.475 Y88.869 E1349.07525
G1 X115.269 Y89.322 E1349.20379
G1 X114.208 Y90.055 E1349.33247
G1 X113.368 Y91.008 E1349.45922
G1 X112.771 Y92.149 E1349.58771
G1 X112.741 Y92.228 E1349.59615
G1 X112.467 Y93.399 E1349.71615
G1 X112.457 Y93.483 E1349.72459
G1 X112.472 Y94.689 E1349.84493
G1 X123.151 Y173.011 E1357.73224
G1 X123.465 Y174.213 E1357.85620
G1 X124.021 Y175.251 E1357.97370
G1 X124.061 Y175.324 E1357.98200
G1 X124.845 Y176.198 E1358.09915
G1 X124.901 Y176.262 E1358.10764
G1 X125.872 Y176.928 E1358.22513
G1 X125.942 Y176.975 E1358.23354
G1 X127.119 Y177.422 E1358.35917
G1 X128.369 Y177.580 E1358.48488
G1 X129.539 Y177.447 E1358.60238
G1 X129.622 Y177.436 E1358.61073
G1 X130.734 Y177.029 E1358.72889
G1 X133.081 Y175.990 E1358.98499
G1 X133.170 Y175.951 E1358.99469
G1 X135.533 Y175.185 E1359.24255
G1 F2100 E1358.84255
G1 Z1.200
G0 F12000 X117.299 Y198.990
G1 Z0.800
G1 F2100 E1359.24255
G1 F1980 X102.931 Y93.619 E1369.85380
G1 X102.881 Y93.259 E1369.89007
G1 X102.580 Y92.110 E1370.00858
G1 X101.988 Y90.992 E1370.13481
G1 X101.158 Y90.061 E1370.25927
G1 X101.088 Y89.999 E1370.26860
G1 X100.104 Y89.328 E1370.38743
G1 X98.923 Y88.877 E1370.51358
G1 X97.684 Y88.721 E1370.63818
G1 X95.700 Y88.719 E1370.83614
G1 X95.700 Y89.119 E1370.87606
G1 X87.300 Y89.119 E1371.71421
G1 X87.300 Y81.319 E1372.49250
G1 X210.603 Y81.319 E1384.79572
G1 X210.604 Y118.453 E1388.50097
G1 X166.704 Y198.934 E1397.64839
G1 X166.554 Y201.694 E1397.92419
G1 X166.137 Y204.235 E1398.18112
G1 X166.121 Y204.330 E1398.19073
G1 X165.435 Y206.799 E1398.44642
G1 X164.452 Y209.301 E1398.71465
G1 X164.415 Y209.391 E1398.72436
G1 X163.215 Y211.656 E1398.98012
G1 X161.721 Y213.879 E1399.24737
G1 X159.992 Y215.932 E1399.51519
G1 X159.931 Y216.004 E1399.52461
G1 X158.070 Y217.767 E1399.78039
G1 X155.933 Y219.406 E1400.04912
G1 X155.863 Y219.460 E1400.05794
G1 X153.566 Y220.842 E1400.32542
G1 X151.143 Y221.963 E1400.59181
G1 X148.716 Y222.781 E1400.84736
G1 X145.990 Y223.392 E1401.12611
G1 X143.448 Y223.669 E1401.38125
G1 X140.755 Y223.681 E1401.64997
G1 X140.661 Y223.681 E1401.65935
G1 X138.112 Y223.404 E1401.91518
G1 X135.503 Y222.843 E1402.18146
G1 X132.959 Y221.997 E1402.44897
G1 X130.514 Y220.879 E1402.71723
G1 X130.434 Y220.842 E1402.72602
G1 X128.142 Y219.463 E1402.99292
G1 X126.007 Y217.840 E1403.26052
G1 X124.148 Y216.079 E1403.51602
G1 X122.334 Y213.961 E1403.79427
G1 X120.898 Y211.844 E1404.04952
G1 X119.634 Y209.483 E1404.31674
G1 X118.594 Y206.905 E1404.59412
G1 X117.908 Y204.435 E1404.84990
G1 X117.446 Y201.690 E1405.12765
G1 X117.299 Y198.990 E1405.39746
G0 F12000 X118.120 Y199.200
;TYPE:SKIN
G1 F1980 X139.885 Y199.200 E1407.56918
G0 F12000 X139.915 Y198.600
G1 F1980 X118.062 Y198.600 E1409.74968
G0 F12000 X117.981 Y198.000
G1 F1980 X140.125 Y198.000 E1411.95922
G0 F12000 X140.622 Y197.400
G1 F1980 X117.899 Y197.400 E1414.22653
G0 F12000 X117.817 Y196.800
G1 F1980 X166.943 Y196.800 E1419.12834
G0 F12000 X166.616 Y197.400
G1 F1980 X143.377 Y197.400 E1421.44714
G0 F12000 X143.867 Y198.000
G1 F1980 X166.289 Y198.000 E1423.68441
G0 F12000 X165.961 Y198.600
G1 F1980 X144.084 Y198.600 E1425.86731
G0 F12000 X144.115 Y199.200
G1 F1980 X165.877 Y199.200 E1428.03873
G0 F12000 X165.844 Y199.800
G1 F1980 X143.971 Y199.800 E1430.22123
G1 F2100 E1429.82123
G1 Z1.200
G0 F12000 X140.030 Y199.800
G1 Z0.800
G1 F2100 E1430.22123
G1 F1980 X118.153 Y199.800 E1432.40412
G1 F2100 E1432.00412
G1 Z1.200
G0 F12000 X117.735 Y196.200
G1 Z0.800
G1 F2100 E1432.40412
G1 F1980 X167.270 Y196.200 E1437.34674
G0 F12000 X167.598 Y195.600
G1 F1980 X117.653 Y195.600 E1442.33028
G0 F12000 X117.571 Y195.000
G1 F1980 X167.925 Y195.000 E1447.35462
G0 F12000 X168.252 Y194.400
G1 F1980 X117.490 Y194.400 E1452.41967
G0 F12000 X117.408 Y193.800
G1 F1980 X168.580 Y193.800 E1457.52563
G0 F12000 X168.907 Y193.200
G1 F1980 X117.326 Y193.200 E1462.67241
G0 F12000 X117.244 Y192.600
G1 F1980 X169.234 Y192.600 E1467.85999
G0 F12000 X169.561 Y192.000
G1 F1980 X117.162 Y192.000 E1473.08838
G0 F12000 X117.081 Y191.400
G1 F1980 X169.889 Y191.400 E1478.35759
G0 F12000 X170.216 Y190.800
G1 F1980 X116.999 Y190.800 E1483.66760
G0 F12000 X116.917 Y190.200
G1 F1980 X170.543 Y190.200 E1489.01843
G0 F12000 X170.871 Y189.600
G1 F1980 X116.835 Y189.600 E1494.41016
G0 F12000 X116.753 Y189.000
G1 F1980 X171.198 Y189.000 E1499.84270
G0 F12000 X171.525 Y188.400
G1 F1980 X116.671 Y188.400 E1505.31606
G0 F12000 X116.590 Y187.800
G1 F1980 X171.852 Y187.800 E1510.83012
G0 F12000 X172.180 Y187.200
G1 F1980 X116.508 Y187.200 E1516.38510
G0 F12000 X116.426 Y186.600
G1 F1980 X172.507 Y186.600 E1521.98088
G0 F12000 X172.834 Y186.000
G1 F1980 X116.344 Y186.000 E1527.61748
G0 F12000 X116.262 Y185.400
G1 F1980 X173.162 Y185.400 E1533.29498
G0 F12000 X173.489 Y184.800
G1 F1980 X116.181 Y184.800 E1539.01320
G0 F12000 X116.099 Y184.200
G1 F1980 X173.816 Y184.200 E1544.77222
G0 F12000 X174.143 Y183.600
G1 F1980 X116.017 Y183.600 E1550.57206
G0 F12000 X115.935 Y183.000
G1 F1980 X174.471 Y183.000 E1556.41281
G0 F12000 X174.798 Y182.400
G1 F1980 X115.853 Y182.400 E1562.29436
G0 F12000 X115.771 Y181.800
G1 F1980 X175.125 Y181.800 E1568.21673
G0 F12000 X175.453 Y181.200
G1 F1980 X115.690 Y181.200 E1574.17990
G0 F12000 X115.608 Y180.600
G1 F1980 X175.780 Y180.600 E1580.18389
G0 F12000 X176.107 Y180.000
G1 F1980 X115.526 Y180.000 E1586.22869
G0 F12000 X115.444 Y179.400
G1 F1980 X176.434 Y179.400 E1592.31429
G0 F12000 X176.762 Y178.800
G1 F1980 X115.362 Y178.800 E1598.44081
G0 F12000 X115.281 Y178.200
G1 F1980 X126.889 Y178.200 E1599.59906
G1 F2100 E1599.19906
G1 Z1.200
G0 F12000 X125.423 Y177.600
G1 Z0.800
G1 F2100 E1599.59906
G1 F1980 X115.199 Y177.600 E1600.61922
G0 F12000 X115.117 Y177.000
G1 F1980 X124.546 Y177.000 E1601.56005
G0 F12000 X123.937 Y176.400
G1 F1980 X115.035 Y176.400 E1602.44829
G0 F12000 X114.953 Y175.800
G1 F1980 X123.400 Y175.800 E1603.29114
G0 F12000 X123.075 Y175.200
G1 F1980 X114.871 Y175.200 E1604.10974
G0 F12000 X114.790 Y174.600
G1 F1980 X122.753 Y174.600 E1604.90429
G0 F12000 X122.572 Y174.000
G1 F1980 X114.708 Y174.000 E1605.68896
G0 F12000 X114.626 Y173.400
G1 F1980 X122.415 Y173.400 E1606.46615
G0 F12000 X122.305 Y172.800
G1 F1980 X114.544 Y172.800 E1607.24054
G0 F12000 X114.462 Y172.200
G1 F1980 X122.223 Y172.200 E1608.01494
G0 F12000 X122.141 Y171.600
G1 F1980 X114.381 Y171.600 E1608.78924
G0 F12000 X114.299 Y171.000
G1 F1980 X122.059 Y171.000 E1609.56353
G0 F12000 X121.977 Y170.400
G1 F1980 X114.217 Y170.400 E1610.33783
G0 F12000 X114.135 Y169.800
G1 F1980 X121.896 Y169.800 E1611.11222
G0 F12000 X121.814 Y169.200
G1 F1980 X114.053 Y169.200 E1611.88662
G0 F12000 X113.971 Y168.600
G1 F1980 X121.732 Y168.600 E1612.66102
G0 F12000 X121.650 Y168.000
G1 F1980 X113.890 Y168.000 E1613.43531
G0 F12000 X113.808 Y167.400
G1 F1980 X121.568 Y167.400 E1614.20961
G0 F12000 X121.486 Y166.800
G1 F1980 X113.726 Y166.800 E1614.98390
G0 F12000 X113.644 Y166.200
G1 F1980 X121.405 Y166.200 E1615.75830
G0 F12000 X121.323 Y165.600
G1 F1980 X113.562 Y165.600 E1616.53269
G0 F12000 X113.481 Y165.000
G1 F1980 X121.241 Y165.000 E1617.30699
G0 F12000 X121.159 Y164.400
G1 F1980 X113.399 Y164.400 E1618.08129
G0 F12000 X113.317 Y163.800
G1 F1980 X121.077 Y163.800 E1618.85558
G0 F12000 X120.996 Y163.200
G1 F1980 X113.235 Y163.200 E1619.62998
G0 F12000 X113.153 Y162.600
G1 F1980 X120.914 Y162.600 E1620.40437
G0 F12000 X120.832 Y162.000
G1 F1980 X113.071 Y162.000 E1621.17877
G0 F12000 X112.990 Y161.400
G1 F1980 X120.750 Y161.400 E1621.95307
G0 F12000 X120.668 Y160.800
G1 F1980 X112.908 Y160.800 E1622.72736
G0 F12000 X112.826 Y160.200
G1 F1980 X120.587 Y160.200 E1623.50176
G1 F2100 E1623.10176
G1 Z1.200
G0 F12000 X129.887 Y178.200
G1 Z0.800
G1 F2100 E1623.50176
G1 F1980 X154.107 Y178.200 E1625.91844
G1 F2100 E1625.51844
G1 Z1.200
G0 F12000 X152.550 Y177.600
G1 Z0.800
G1 F2100 E1625.91844
G1 F1980 X131.443 Y177.600 E1628.02450
G0 F12000 X132.797 Y177.000
G1 F1980 X151.191 Y177.000 E1629.85986
G1 F2100 E1629.45986
G1 Z1.200
G0 F12000 X149.585 Y176.400
G1 Z0.800
G1 F2100 E1629.85986
G1 F1980 X134.407 Y176.400 E1631.37433
G1 F2100 E1630.97433
G1 Z1.200
G0 F12000 X136.480 Y175.800
G1 Z0.800
G1 F2100 E1631.37433
G1 F1980 X147.503 Y175.800 E1632.47421
G1 F2100 E1632.07421
G1 Z1.200
G0 F12000 X143.625 Y175.200
G1 Z0.800
G1 F2100 E1632.47421
G1 F1980 X140.377 Y175.200 E1632.79830
G1 F2100 E1632.39830
G1 Z1.200
G0 F12000 X157.111 Y178.200
G1 Z0.800
G1 F2100 E1632.79830
G1 F1980 X177.089 Y178.200 E1634.79171
G0 F12000 X177.416 Y177.600
G1 F1980 X158.580 Y177.600 E1636.67117
G0 F12000 X159.455 Y177.000
G1 F1980 X177.744 Y177.000 E1638.49606
G0 F12000 X178.071 Y176.400
G1 F1980 X160.061 Y176.400 E1640.29310
G0 F12000 X160.598 Y175.800
G1 F1980 X178.398 Y175.800 E1642.06919
G0 F12000 X178.725 Y175.200
G1 F1980 X160.923 Y175.200 E1643.84549
G0 F12000 X161.246 Y174.600
G1 F1980 X179.053 Y174.600 E1645.62228
G0 F12000 X179.380 Y174.000
G1 F1980 X161.428 Y174.000 E1647.41353
G0 F12000 X161.584 Y173.400
G1 F1980 X179.707 Y173.400 E1649.22185
G0 F12000 X180.035 Y172.800
G1 F1980 X161.689 Y172.800 E1651.05242
G0 F12000 X161.771 Y172.200
G1 F1980 X180.362 Y172.200 E1652.90744
G0 F12000 X180.689 Y171.600
G1 F1980 X161.853 Y171.600 E1654.78691
G0 F12000 X161.935 Y171.000
G1 F1980 X181.016 Y171.000 E1656.69082
G0 F12000 X181.344 Y170.400
G1 F1980 X162.017 Y170.400 E1658.61927
G0 F12000 X162.099 Y169.800
G1 F1980 X181.671 Y169.800 E1660.57217
G0 F12000 X181.998 Y169.200
G1 F1980 X162.180 Y169.200 E1662.54962
G0 F12000 X162.262 Y168.600
G1 F1980 X182.326 Y168.600 E1664.55162
G0 F12000 X182.653 Y168.000
G1 F1980 X162.344 Y168.000 E1666.57806
G0 F12000 X162.426 Y167.400
G1 F1980 X182.980 Y167.400 E1668.62894
G0 F12000 X183.307 Y166.800
G1 F1980 X162.508 Y166.800 E1670.70428
G0 F12000 X162.590 Y166.200
G1 F1980 X183.635 Y166.200 E1672.80415
G0 F12000 X183.962 Y165.600
G1 F1980 X162.671 Y165.600 E1674.92858
G0 F12000 X162.753 Y165.000
G1 F1980 X184.289 Y165.000 E1677.07745
G0 F12000 X184.617 Y164.400
G1 F1980 X162.835 Y164.400 E1679.25087
G0 F12000 X162.917 Y163.800
G1 F1980 X184.944 Y163.800 E1681.44873
G0 F12000 X185.271 Y163.200
G1 F1980 X162.999 Y163.200 E1683.67104
G0 F12000 X163.081 Y162.600
G1 F1980 X185.598 Y162.600 E1685.91779
G0 F12000 X185.926 Y162.000
G1 F1980 X163.162 Y162.000 E1688.18919
G0 F12000 X163.244 Y161.400
G1 F1980 X186.253 Y161.400 E1690.48504
G0 F12000 X186.580 Y160.800
G1 F1980 X163.326 Y160.800 E1692.80534
G0 F12000 X163.408 Y160.200
G1 F1980 X186.908 Y160.200 E1695.15017
G0 F12000 X187.235 Y159.600
G1 F1980 X163.490 Y159.600 E1697.51946
G0 F12000 X163.572 Y159.000
G1 F1980 X187.562 Y159.000 E1699.91319
G0 F12000 X187.889 Y158.400
G1 F1980 X163.654 Y158.400 E1702.33137
G0 F12000 X163.735 Y157.800
G1 F1980 X188.217 Y157.800 E1704.77419
G0 F12000 X188.544 Y157.200
G1 F1980 X163.817 Y157.200 E1707.24146
G0 F12000 X163.899 Y156.600
G1 F1980 X188.871 Y156.600 E1709.73318
G0 F12000 X189.199 Y156.000
G1 F1980 X163.981 Y156.000 E1712.24944
G0 F12000 X164.063 Y155.400
G1 F1980 X189.526 Y155.400 E1714.79015
G0 F12000 X189.853 Y154.800
G1 F1980 X164.145 Y154.800 E1717.35531
G0 F12000 X164.226 Y154.200
G1 F1980 X190.180 Y154.200 E1719.94501
G0 F12000 X190.508 Y153.600
G1 F1980 X164.308 Y153.600 E1722.55925
G0 F12000 X164.390 Y153.000
G1 F1980 X190.835 Y153.000 E1725.19795
G0 F12000 X191.162 Y152.400
G1 F1980 X164.472 Y152.400 E1727.86109
G0 F12000 X164.554 Y151.800
G1 F1980 X191.490 Y151.800 E1730.54877
G0 F12000 X191.817 Y151.200
G1 F1980 X164.636 Y151.200 E1733.26090
G0 F12000 X164.717 Y150.600
G1 F1980 X192.144 Y150.600 E1735.99758
G0 F12000 X192.471 Y150.000
G1 F1980 X164.799 Y150.000 E1738.75870
G0 F12000 X164.881 Y149.400
G1 F1980 X192.799 Y149.400 E1741.54437
G0 F12000 X193.126 Y148.800
G1 F1980 X164.963 Y148.800 E1744.35449
G0 F12000 X165.045 Y148.200
G1 F1980 X193.453 Y148.200 E1747.18905
G0 F12000 X193.781 Y147.600
G1 F1980 X165.127 Y147.600 E1750.04816
G0 F12000 X165.208 Y147.000
G1 F1980 X194.108 Y147.000 E1752.93181
G0 F12000 X194.435 Y146.400
G1 F1980 X165.290 Y146.400 E1755.83991
G0 F12000 X165.372 Y145.800
G1 F1980 X194.762 Y145.800 E1758.77246
G0 F12000 X195.090 Y145.200
G1 F1980 X165.454 Y145.200 E1761.72955
G0 F12000 X165.536 Y144.600
G1 F1980 X195.417 Y144.600 E1764.71109
G0 F12000 X195.744 Y144.000
G1 F1980 X165.618 Y144.000 E1767.71707
G0 F12000 X165.699 Y143.400
G1 F1980 X196.072 Y143.400 E1770.74770
G0 F12000 X196.399 Y142.800
G1 F1980 X165.781 Y142.800 E1773.80278
G0 F12000 X165.863 Y142.200
G1 F1980 X196.726 Y142.200 E1776.88230
G0 F12000 X197.053 Y141.600
G1 F1980 X165.945 Y141.600 E1779.98627
G0 F12000 X166.027 Y141.000
G1 F1980 X197.381 Y141.000 E1783.11478
G0 F12000 X197.708 Y140.400
G1 F1980 X166.109 Y140.400 E1786.26775
G0 F12000 X166.190 Y139.800
G1 F1980 X198.035 Y139.800 E1789.44525
G0 F12000 X198.363 Y139.200
G1 F1980 X166.272 Y139.200 E1792.64731
G0 F12000 X166.354 Y138.600
G1 F1980 X198.690 Y138.600 E1795.87380
G0 F12000 X199.017 Y138.000
G1 F1980 X166.436 Y138.000 E1799.12475
G0 F12000 X166.518 Y137.400
G1 F1980 X199.344 Y137.400 E1802.40014
G0 F12000 X199.672 Y136.800
G1 F1980 X166.600 Y136.800 E1805.70008
G0 F12000 X166.682 Y136.200
G1 F1980 X199.999 Y136.200 E1809.02446
G0 F12000 X200.326 Y135.600
G1 F1980 X166.763 Y135.600 E1812.37339
G0 F12000 X166.845 Y135.000
G1 F1980 X200.654 Y135.000 E1815.74687
G0 F12000 X200.981 Y134.400
G1 F1980 X166.927 Y134.400 E1819.14479
G0 F12000 X167.009 Y133.800
G1 F1980 X201.308 Y133.800 E1822.56716
G0 F12000 X201.635 Y133.200
G1 F1980 X167.091 Y133.200 E1826.01397
G0 F12000 X167.173 Y132.600
G1 F1980 X201.963 Y132.600 E1829.48533
G0 F12000 X202.290 Y132.000
G1 F1980 X167.254 Y132.000 E1832.98124
G0 F12000 X167.336 Y131.400
G1 F1980 X202.617 Y131.400 E1836.50159
G0 F12000 X202.945 Y130.800
G1 F1980 X167.418 Y130.800 E1840.04649
G0 F12000 X167.500 Y130.200
G1 F1980 X203.272 Y130.200 E1843.61583
G0 F12000 X203.599 Y129.600
G1 F1980 X167.582 Y129.600 E1847.20963
G0 F12000 X167.664 Y129.000
G1 F1980 X203.926 Y129.000 E1850.82786
G0 F12000 X204.254 Y128.400
G1 F1980 X167.745 Y128.400 E1854.47075
G0 F12000 X167.827 Y127.800
G1 F1980 X204.581 Y127.800 E1858.13807
G0 F12000 X204.908 Y127.200
G1 F1980 X167.909 Y127.200 E1861.82985
G0 F12000 X167.991 Y126.600
G1 F1980 X205.236 Y126.600 E1865.54617
G0 F12000 X205.563 Y126.000
G1 F1980 X168.073 Y126.000 E1869.28694
G0 F12000 X168.155 Y125.400
G1 F1980 X205.890 Y125.400 E1873.05215
G0 F12000 X206.217 Y124.800
G1 F1980 X168.236 Y124.800 E1876.84191
G0 F12000 X168.318 Y124.200
G1 F1980 X206.545 Y124.200 E1880.65622
G0 F12000 X206.872 Y123.600
G1 F1980 X168.400 Y123.600 E1884.49497
G0 F12000 X168.482 Y123.000
G1 F1980 X207.199 Y123.000 E1888.35817
G0 F12000 X207.527 Y122.400
G1 F1980 X168.564 Y122.400 E1892.24591
G0 F12000 X168.646 Y121.800
G1 F1980 X207.854 Y121.800 E1896.15810
G0 F12000 X208.181 Y121.200
G1 F1980 X168.727 Y121.200 E1900.09484
G0 F12000 X168.809 Y120.600
G1 F1980 X208.508 Y120.600 E1904.05602
G0 F12000 X208.836 Y120.000
G1 F1980 X168.891 Y120.000 E1908.04175
G0 F12000 X168.973 Y119.400
G1 F1980 X209.163 Y119.400 E1912.05192
G0 F12000 X209.490 Y118.800
G1 F1980 X169.055 Y118.800 E1916.08654
G0 F12000 X169.137 Y118.200
G1 F1980 X209.793 Y118.200 E1920.14321
G0 F12000 X209.793 Y117.600
G1 F1980 X169.218 Y117.600 E1924.19180
G0 F12000 X169.300 Y117.000
G1 F1980 X209.793 Y117.000 E1928.23221
G0 F12000 X209.793 Y116.400
G1 F1980 X169.382 Y116.400 E1932.26444
G0 F12000 X169.464 Y115.800
G1 F1980 X209.793 Y115.800 E1936.28848
G0 F12000 X209.793 Y115.200
G1 F1980 X169.546 Y115.200 E1940.30434
G0 F12000 X169.628 Y114.600
G1 F1980 X209.793 Y114.600 E1944.31202
G0 F12000 X209.793 Y114.000
G1 F1980 X169.710 Y114.000 E1948.31152
G0 F12000 X169.791 Y113.400
G1 F1980 X209.793 Y113.400 E1952.30294
G0 F12000 X209.793 Y112.800
G1 F1980 X169.873 Y112.800 E1956.28617
G0 F12000 X169.955 Y112.200
G1 F1980 X209.793 Y112.200 E1960.26122
G0 F12000 X209.793 Y111.600
G1 F1980 X170.037 Y111.600 E1964.22809
G0 F12000 X170.119 Y111.000
G1 F1980 X209.793 Y111.000 E1968.18678
G0 F12000 X209.793 Y110.400
G1 F1980 X170.201 Y110.400 E1972.13729
G0 F12000 X170.282 Y109.800
G1 F1980 X209.793 Y109.800 E1976.07971
G0 F12000 X209.793 Y109.200
G1 F1980 X170.364 Y109.200 E1980.01395
G0 F12000 X170.446 Y108.600
G1 F1980 X209.793 Y108.600 E1983.94001
G0 F12000 X209.793 Y108.000
G1 F1980 X170.528 Y108.000 E1987.85789
G0 F12000 X170.610 Y107.400
G1 F1980 X209.793 Y107.400 E1991.76758
G0 F12000 X209.793 Y106.800
G1 F1980 X170.692 Y106.800 E1995.66910
G0 F12000 X170.773 Y106.200
G1 F1980 X209.793 Y106.200 E1999.56253
G0 F12000 X209.793 Y105.600
G1 F1980 X170.855 Y105.600 E2003.44778
G0 F12000 X170.937 Y105.000
G1 F1980 X209.793 Y105.000 E2007.32485
G0 F12000 X209.793 Y104.400
G1 F1980 X171.019 Y104.400 E2011.19373
G0 F12000 X171.101 Y103.800
G1 F1980 X209.793 Y103.800 E2015.05444
G0 F12000 X209.793 Y103.200
G1 F1980 X171.183 Y103.200 E2018.90696
G0 F12000 X171.264 Y102.600
G1 F1980 X209.793 Y102.600 E2022.75140
G0 F12000 X209.793 Y102.000
G1 F1980 X171.346 Y102.000 E2026.58765
G0 F12000 X171.428 Y101.400
G1 F1980 X209.793 Y101.400 E2030.41573
G0 F12000 X209.793 Y100.800
G1 F1980 X171.510 Y100.800 E2034.23562
G0 F12000 X171.592 Y100.200
G1 F1980 X209.793 Y100.200 E2038.04733
G0 F12000 X209.793 Y99.600
G1 F1980 X171.674 Y99.600 E2041.85086
G0 F12000 X171.755 Y99.000
G1 F1980 X209.793 Y99.000 E2045.64631
G0 F12000 X209.793 Y98.400
G1 F1980 X171.837 Y98.400 E2049.43357
G0 F12000 X171.919 Y97.800
G1 F1980 X209.793 Y97.800 E2053.21266
G0 F12000 X209.793 Y97.200
G1 F1980 X172.001 Y97.200 E2056.98356
G0 F12000 X172.083 Y96.600
G1 F1980 X209.793 Y96.600 E2060.74628
G0 F12000 X209.793 Y96.000
G1 F1980 X172.165 Y96.000 E2064.50081
G0 F12000 X172.246 Y95.400
G1 F1980 X209.793 Y95.400 E2068.24727
G0 F12000 X209.793 Y94.800
G1 F1980 X172.328 Y94.800 E2071.98554
G0 F12000 X172.344 Y94.200
G1 F1980 X209.793 Y94.200 E2075.72222
G0 F12000 X209.793 Y93.600
G1 F1980 X172.352 Y93.600 E2079.45810
G0 F12000 X172.265 Y93.000
G1 F1980 X209.793 Y93.000 E2083.20266
G0 F12000 X209.793 Y92.400
G1 F1980 X172.128 Y92.400 E2086.96089
G0 F12000 X171.953 Y91.800
G1 F1980 X209.793 Y91.800 E2090.73658
G0 F12000 X209.793 Y91.200
G1 F1980 X171.648 Y91.200 E2094.54270
G0 F12000 X171.332 Y90.600
G1 F1980 X209.793 Y90.600 E2098.38035
G0 F12000 X209.793 Y90.000
G1 F1980 X170.826 Y90.000 E2102.26850
G0 F12000 X170.255 Y89.400
G1 F1980 X209.793 Y89.400 E2106.21361
G0 F12000 X209.793 Y88.800
G1 F1980 X169.405 Y88.800 E2110.24355
G0 F12000 X168.061 Y88.200
G1 F1980 X209.793 Y88.200 E2114.40758
G0 F12000 X209.793 Y87.600
G1 F1980 X88.109 Y87.600 E2126.54926
G0 F12000 X88.109 Y88.200
G1 F1980 X94.889 Y88.200 E2127.22577
G1 F2100 E2126.82577
G1 Z1.200
G0 F12000 X99.420 Y88.200
G1 Z0.800
G1 F2100 E2127.22577
G1 F1980 X115.949 Y88.200 E2128.87504
G0 F12000 X114.596 Y88.800
G1 F1980 X100.768 Y88.800 E2130.25480
G0 F12000 X101.633 Y89.400
G1 F1980 X113.728 Y89.400 E2131.46165
G0 F12000 X113.175 Y90.000
G1 F1980 X102.188 Y90.000 E2132.55794
G0 F12000 X102.695 Y90.600
G1 F1980 X112.664 Y90.600 E2133.55265
G0 F12000 X112.345 Y91.200
G1 F1980 X103.013 Y91.200 E2134.48380
G0 F12000 X103.331 Y91.800
G1 F1980 X112.037 Y91.800 E2135.35249
G0 F12000 X111.867 Y92.400
G1 F1980 X103.492 Y92.400 E2136.18815
G0 F12000 X103.649 Y93.000
G1 F1980 X111.727 Y93.000 E2136.99417
G0 F12000 X111.648 Y93.600
G1 F1980 X103.744 Y93.600 E2137.78284
G0 F12000 X103.826 Y94.200
G1 F1980 X111.655 Y94.200 E2138.56402
G0 F12000 X111.669 Y94.800
G1 F1980 X103.908 Y94.800 E2139.33841
G0 F12000 X103.990 Y95.400
G1 F1980 X111.751 Y95.400 E2140.11281
G0 F12000 X111.833 Y96.000
G1 F1980 X104.071 Y96.000 E2140.88730
G0 F12000 X104.153 Y96.600
G1 F1980 X111.915 Y96.600 E2141.66180
G0 F12000 X111.997 Y97.200
G1 F1980 X104.235 Y97.200 E2142.43630
G0 F12000 X104.317 Y97.800
G1 F1980 X112.078 Y97.800 E2143.21069
G0 F12000 X112.160 Y98.400
G1 F1980 X104.399 Y98.400 E2143.98509
G0 F12000 X104.481 Y99.000
G1 F1980 X112.242 Y99.000 E2144.75948
G0 F12000 X112.324 Y99.600
G1 F1980 X104.562 Y99.600 E2145.53398
G0 F12000 X104.644 Y100.200
G1 F1980 X112.406 Y100.200 E2146.30847
G0 F12000 X112.487 Y100.800
G1 F1980 X104.726 Y100.800 E2147.08287
G0 F12000 X104.808 Y101.400
G1 F1980 X112.569 Y101.400 E2147.85727
G0 F12000 X112.651 Y102.000
G1 F1980 X104.890 Y102.000 E2148.63166
G0 F12000 X104.971 Y102.600
G1 F1980 X112.733 Y102.600 E2149.40616
G0 F12000 X112.815 Y103.200
G1 F1980 X105.053 Y103.200 E2150.18065
G0 F12000 X105.135 Y103.800
G1 F1980 X112.896 Y103.800 E2150.95505
G0 F12000 X112.978 Y104.400
G1 F1980 X105.217 Y104.400 E2151.72944
G0 F12000 X105.299 Y105.000
G1 F1980 X113.060 Y105.000 E2152.50384
G0 F12000 X113.142 Y105.600
G1 F1980 X105.381 Y105.600 E2153.27824
G0 F12000 X105.462 Y106.200
G1 F1980 X113.224 Y106.200 E2154.05273
G0 F12000 X113.306 Y106.800
G1 F1980 X105.544 Y106.800 E2154.82723
G0 F12000 X105.626 Y107.400
G1 F1980 X113.387 Y107.400 E2155.60162
G0 F12000 X113.469 Y108.000
G1 F1980 X105.708 Y108.000 E2156.37602
G0 F12000 X105.790 Y108.600
G1 F1980 X113.551 Y108.600 E2157.15041
G0 F12000 X113.633 Y109.200
G1 F1980 X105.871 Y109.200 E2157.92491
G0 F12000 X105.953 Y109.800
G1 F1980 X113.715 Y109.800 E2158.69940
G0 F12000 X113.796 Y110.400
G1 F1980 X106.035 Y110.400 E2159.47380
G0 F12000 X106.117 Y111.000
G1 F1980 X113.878 Y111.000 E2160.24820
G0 F12000 X113.960 Y111.600
G1 F1980 X106.199 Y111.600 E2161.02259
G0 F12000 X106.281 Y112.200
G1 F1980 X114.042 Y112.200 E2161.79699
G0 F12000 X114.124 Y112.800
G1 F1980 X106.362 Y112.800 E2162.57148
G0 F12000 X106.444 Y113.400
G1 F1980 X114.205 Y113.400 E2163.34588
G0 F12000 X114.287 Y114.000
G1 F1980 X106.526 Y114.000 E2164.12027
G0 F12000 X106.608 Y114.600
G1 F1980 X114.369 Y114.600 E2164.89467
G0 F12000 X114.451 Y115.200
G1 F1980 X106.690 Y115.200 E2165.66907
G0 F12000 X106.771 Y115.800
G1 F1980 X114.533 Y115.800 E2166.44356
G0 F12000 X114.614 Y116.400
G1 F1980 X106.853 Y116.400 E2167.21796
G0 F12000 X106.935 Y117.000
G1 F1980 X114.696 Y117.000 E2167.99235
G0 F12000 X114.778 Y117.600
G1 F1980 X107.017 Y117.600 E2168.76675
G0 F12000 X107.099 Y118.200
G1 F1980 X114.860 Y118.200 E2169.54114
G0 F12000 X114.942 Y118.800
G1 F1980 X107.181 Y118.800 E2170.31554
G0 F12000 X107.262 Y119.400
G1 F1980 X115.024 Y119.400 E2171.09004
G0 F12000 X115.105 Y120.000
G1 F1980 X107.344 Y120.000 E2171.86443
G0 F12000 X107.426 Y120.600
G1 F1980 X115.187 Y120.600 E2172.63883
G0 F12000 X115.269 Y121.200
G1 F1980 X107.508 Y121.200 E2173.41322
G0 F12000 X107.590 Y121.800
G1 F1980 X115.351 Y121.800 E2174.18762
G0 F12000 X115.433 Y122.400
G1 F1980 X107.671 Y122.400 E2174.96211
G0 F12000 X107.753 Y123.000
G1 F1980 X115.514 Y123.000 E2175.73651
G0 F12000 X115.596 Y123.600
G1 F1980 X107.835 Y123.600 E2176.51091
G0 F12000 X107.917 Y124.200
G1 F1980 X115.678 Y124.200 E2177.28530
G0 F12000 X115.760 Y124.800
G1 F1980 X107.999 Y124.800 E2178.05970
G0 F12000 X108.081 Y125.400
G1 F1980 X115.842 Y125.400 E2178.83409
G0 F12000 X115.923 Y126.000
G1 F1980 X108.162 Y126.000 E2179.60849
G0 F12000 X108.244 Y126.600
G1 F1980 X116.005 Y126.600 E2180.38288
G0 F12000 X116.087 Y127.200
G1 F1980 X108.326 Y127.200 E2181.15728
G0 F12000 X108.408 Y127.800
G1 F1980 X116.169 Y127.800 E2181.93168
G0 F12000 X116.251 Y128.400
G1 F1980 X108.490 Y128.400 E2182.70607
G0 F12000 X108.571 Y129.000
G1 F1980 X116.332 Y129.000 E2183.48047
G0 F12000 X116.414 Y129.600
G1 F1980 X108.653 Y129.600 E2184.25486
G0 F12000 X108.735 Y130.200
G1 F1980 X116.496 Y130.200 E2185.02926
G0 F12000 X116.578 Y130.800
G1 F1980 X108.817 Y130.800 E2185.80365
G0 F12000 X108.899 Y131.400
G1 F1980 X116.660 Y131.400 E2186.57805
G0 F12000 X116.742 Y132.000
G1 F1980 X108.981 Y132.000 E2187.35245
G0 F12000 X109.062 Y132.600
G1 F1980 X116.823 Y132.600 E2188.12684
G0 F12000 X116.905 Y133.200
G1 F1980 X109.144 Y133.200 E2188.90124
G0 F12000 X109.226 Y133.800
G1 F1980 X116.987 Y133.800 E2189.67563
G0 F12000 X117.069 Y134.400
G1 F1980 X109.308 Y134.400 E2190.45003
G0 F12000 X109.390 Y135.000
G1 F1980 X117.151 Y135.000 E2191.22442
G0 F12000 X117.232 Y135.600
G1 F1980 X109.471 Y135.600 E2191.99882
G0 F12000 X109.553 Y136.200
G1 F1980 X117.314 Y136.200 E2192.77322
G0 F12000 X117.396 Y136.800
G1 F1980 X109.635 Y136.800 E2193.54761
G0 F12000 X109.717 Y137.400
G1 F1980 X117.478 Y137.400 E2194.32201
G0 F12000 X117.560 Y138.000
G1 F1980 X109.799 Y138.000 E2195.09640
G0 F12000 X109.881 Y138.600
G1 F1980 X117.641 Y138.600 E2195.87070
G0 F12000 X117.723 Y139.200
G1 F1980 X109.962 Y139.200 E2196.64509
G0 F12000 X110.044 Y139.800
G1 F1980 X117.805 Y139.800 E2197.41949
G0 F12000 X117.887 Y140.400
G1 F1980 X110.126 Y140.400 E2198.19389
G0 F12000 X110.208 Y141.000
G1 F1980 X117.969 Y141.000 E2198.96828
G0 F12000 X118.050 Y141.600
G1 F1980 X110.290 Y141.600 E2199.74258
G0 F12000 X110.371 Y142.200
G1 F1980 X118.132 Y142.200 E2200.51697
G0 F12000 X118.214 Y142.800
G1 F1980 X110.453 Y142.800 E2201.29137
G0 F12000 X110.535 Y143.400
G1 F1980 X118.296 Y143.400 E2202.06576
G0 F12000 X118.378 Y144.000
G1 F1980 X110.617 Y144.000 E2202.84016
G0 F12000 X110.699 Y144.600
G1 F1980 X118.460 Y144.600 E2203.61456
G0 F12000 X118.541 Y145.200
G1 F1980 X110.781 Y145.200 E2204.38885
G0 F12000 X110.862 Y145.800
G1 F1980 X118.623 Y145.800 E2205.16325
G0 F12000 X118.705 Y146.400
G1 F1980 X110.944 Y146.400 E2205.93764
G0 F12000 X111.026 Y147.000
G1 F1980 X118.787 Y147.000 E2206.71204
G0 F12000 X118.869 Y147.600
G1 F1980 X111.108 Y147.600 E2207.48643
G0 F12000 X111.190 Y148.200
G1 F1980 X118.950 Y148.200 E2208.26073
G0 F12000 X119.032 Y148.800
G1 F1980 X111.271 Y148.800 E2209.03513
G0 F12000 X111.353 Y149.400
G1 F1980 X119.114 Y149.400 E2209.80952
G0 F12000 X119.196 Y150.000
G1 F1980 X111.435 Y150.000 E2210.58392
G0 F12000 X111.517 Y150.600
G1 F1980 X119.278 Y150.600 E2211.35831
G0 F12000 X119.359 Y151.200
G1 F1980 X111.599 Y151.200 E2212.13261
G0 F12000 X111.681 Y151.800
G1 F1980 X119.441 Y151.800 E2212.90691
G0 F12000 X119.523 Y152.400
G1 F1980 X111.762 Y152.400 E2213.68130
G0 F12000 X111.844 Y153.000
G1 F1980 X119.605 Y153.000 E2214.45570
G0 F12000 X119.687 Y153.600
G1 F1980 X111.926 Y153.600 E2215.23009
G0 F12000 X112.008 Y154.200
G1 F1980 X119.768 Y154.200 E2216.00439
G0 F12000 X119.850 Y154.800
G1 F1980 X112.090 Y154.800 E2216.77868
G0 F12000 X112.171 Y155.400
G1 F1980 X119.932 Y155.400 E2217.55308
G0 F12000 X120.014 Y156.000
G1 F1980 X112.253 Y156.000 E2218.32748
G0 F12000 X112.335 Y156.600
G1 F1980 X120.096 Y156.600 E2219.10187
G0 F12000 X120.178 Y157.200
G1 F1980 X112.417 Y157.200 E2219.87627
G0 F12000 X112.499 Y157.800
G1 F1980 X120.259 Y157.800 E2220.65056
G0 F12000 X120.341 Y158.400
G1 F1980 X112.581 Y158.400 E2221.42486
G0 F12000 X112.662 Y159.000
G1 F1980 X120.423 Y159.000 E2222.19926
G0 F12000 X120.505 Y159.600
G1 F1980 X112.744 Y159.600 E2222.97365
G1 F2100 E2222.57365
G1 Z1.200
G0 F12000 X118.185 Y200.400
G1 Z0.800
G1 F2100 E2222.97365
G1 F1980 X140.388 Y200.400 E2225.18908
G0 F12000 X141.246 Y201.000
G1 F1980 X118.218 Y201.000 E2227.48682
G0 F12000 X118.251 Y201.600
G1 F1980 X165.746 Y201.600 E2232.22589
G0 F12000 X165.779 Y201.000
G1 F1980 X142.753 Y201.000 E2234.52343
G0 F12000 X143.611 Y200.400
G1 F1980 X165.811 Y200.400 E2236.73856
G1 F2100 E2236.33856
G1 Z1.200
G0 F12000 X165.649 Y202.200
G1 Z0.800
G1 F2100 E2236.73856
G1 F1980 X118.352 Y202.200 E2241.45787
G0 F12000 X118.453 Y202.800
G1 F1980 X165.551 Y202.800 E2246.15733
G0 F12000 X165.453 Y203.400
G1 F1980 X118.554 Y203.400 E2250.83693
G0 F12000 X118.655 Y204.000
G1 F1980 X165.354 Y204.000 E2255.49657
G0 F12000 X165.203 Y204.600
G1 F1980 X118.793 Y204.600 E2260.12738
G0 F12000 X118.960 Y205.200
G1 F1980 X165.037 Y205.200 E2264.72497
G0 F12000 X164.870 Y205.800
G1 F1980 X119.127 Y205.800 E2269.28922
G0 F12000 X119.294 Y206.400
G1 F1980 X164.703 Y206.400 E2273.82015
G0 F12000 X164.483 Y207.000
G1 F1980 X119.505 Y207.000 E2278.30807
G0 F12000 X119.747 Y207.600
G1 F1980 X164.247 Y207.600 E2282.74830
G0 F12000 X164.012 Y208.200
G1 F1980 X119.989 Y208.200 E2287.14093
G0 F12000 X120.231 Y208.800
G1 F1980 X163.776 Y208.800 E2291.48587
G0 F12000 X163.492 Y209.400
G1 F1980 X120.507 Y209.400 E2295.77493
G0 F12000 X120.828 Y210.000
G1 F1980 X163.174 Y210.000 E2300.00023
G0 F12000 X162.856 Y210.600
G1 F1980 X121.150 Y210.600 E2304.16167
G0 F12000 X121.471 Y211.200
G1 F1980 X162.538 Y211.200 E2308.25936
G0 F12000 X162.140 Y211.800
G1 F1980 X121.846 Y211.800 E2312.27991
G0 F12000 X122.253 Y212.400
G1 F1980 X161.737 Y212.400 E2316.21964
G0 F12000 X161.333 Y213.000
G1 F1980 X122.660 Y213.000 E2320.07844
G0 F12000 X123.090 Y213.600
G1 F1980 X160.895 Y213.600 E2323.85064
G0 F12000 X160.390 Y214.200
G1 F1980 X123.604 Y214.200 E2327.52116
G0 F12000 X124.118 Y214.800
G1 F1980 X159.885 Y214.800 E2331.09001
G0 F12000 X159.379 Y215.400
G1 F1980 X124.633 Y215.400 E2334.55698
G0 F12000 X125.242 Y216.000
G1 F1980 X158.749 Y216.000 E2337.90032
G0 F12000 X158.119 Y216.600
G1 F1980 X125.875 Y216.600 E2341.11764
G0 F12000 X126.508 Y217.200
G1 F1980 X157.475 Y217.200 E2344.20754
G0 F12000 X156.693 Y217.800
G1 F1980 X127.293 Y217.800 E2347.14109
G0 F12000 X128.082 Y218.400
G1 F1980 X155.911 Y218.400 E2349.91787
G0 F12000 X155.042 Y219.000
G1 F1980 X128.945 Y219.000 E2352.52184
G0 F12000 X129.947 Y219.600
G1 F1980 X154.051 Y219.600 E2354.92695
G0 F12000 X153.021 Y220.200
G1 F1980 X130.979 Y220.200 E2357.12631
G0 F12000 X132.291 Y220.800
G1 F1980 X151.724 Y220.800 E2359.06534
G1 F2100 E2358.66534
G1 Z1.200
G0 F12000 X150.256 Y221.400
G1 Z0.800
G1 F2100 E2359.06534
G1 F1980 X133.733 Y221.400 E2360.71401
G1 F2100 E2360.31401
G1 Z1.200
G0 F12000 X135.538 Y222.000
G1 Z0.800
G1 F2100 E2360.71401
G1 F1980 X148.491 Y222.000 E2362.00647
G1 F2100 E2361.60647
G1 Z1.200
G0 F12000 X145.715 Y222.600
G1 Z0.800
G1 F2100 E2362.00647
G1 F1980 X138.229 Y222.600 E2362.75343
G1 F2100 E2362.35343
G1 Z1.200
G0 F12000 X88.109 Y87.000
G1 Z0.800
G1 F2100 E2362.75343
G1 F1980 X209.793 Y87.000 E2374.89510
G0 F12000 X209.793 Y86.400
G1 F1980 X88.109 Y86.400 E2387.03678
G0 F12000 X88.109 Y85.800
G1 F1980 X209.793 Y85.800 E2399.17846
G0 F12000 X209.793 Y85.200
G1 F1980 X88.109 Y85.200 E2411.32014
G0 F12000 X88.109 Y84.600
G1 F1980 X209.793 Y84.600 E2423.46182
G0 F12000 X209.793 Y84.000
G1 F1980 X88.109 Y84.000 E2435.60350
G0 F12000 X88.109 Y83.400
G1 F1980 X209.793 Y83.400 E2447.74518
G0 F12000 X209.793 Y82.800
G1 F1980 X88.109 Y82.800 E2459.88686
G0 F12000 X88.109 Y82.200
G1 F1980 X209.793 Y82.200 E2472.02854
;LAYER:2
M106 S40
G0 F12000 X210.314 Y81.919 Z1.200
;TYPE:WALL-INNER
G1 F2220 X210.315 Y117.729 E2475.60167
G1 X166.112 Y198.766 E2484.81227
G1 X165.956 Y201.629 E2485.09837
G1 X165.558 Y204.064 E2485.34456
G1 X165.534 Y204.202 E2485.35853
G1 X164.874 Y206.582 E2485.60497
G1 X164.838 Y206.709 E2485.61815
G1 X163.870 Y209.139 E2485.87914
G1 X162.651 Y211.439 E2486.13888
G1 X161.260 Y213.491 E2486.38624
G1 X161.188 Y213.597 E2486.39902
G1 X159.580 Y215.490 E2486.64685
G1 X159.495 Y215.590 E2486.65995
G1 X157.695 Y217.295 E2486.90734
G1 X157.601 Y217.384 E2486.92025
G1 X155.628 Y218.884 E2487.16755
G1 X155.524 Y218.964 E2487.18065
G1 X153.400 Y220.242 E2487.42799
G1 X150.918 Y221.405 E2487.70148
G1 X148.572 Y222.196 E2487.94851
G1 X148.448 Y222.239 E2487.96161
G1 X145.902 Y222.798 E2488.22170
G1 X143.436 Y223.066 E2488.46921
G1 X140.698 Y223.081 E2488.74241
G1 X138.233 Y222.813 E2488.98982
G1 X138.107 Y222.800 E2489.00246
G1 X135.553 Y222.239 E2489.26337
G1 X133.205 Y221.447 E2489.51063
G1 X133.086 Y221.407 E2489.52315
G1 X130.709 Y220.308 E2489.78445
G1 X128.593 Y219.035 E2490.03085
G1 X128.474 Y218.962 E2490.04478
G1 X126.504 Y217.465 E2490.29166
G1 X126.401 Y217.387 E2490.30456
G1 X124.601 Y215.682 E2490.55194
G1 X122.901 Y213.702 E2490.81234
G1 X122.818 Y213.605 E2490.82508
G1 X121.426 Y211.551 E2491.07266
G1 X120.130 Y209.139 E2491.34587
G1 X119.163 Y206.712 E2491.60655
G1 X118.501 Y204.324 E2491.85381
G1 X118.065 Y201.753 E2492.11401
G1 X117.897 Y198.933 E2492.39589
G1 X103.475 Y93.169 E2503.04672
G1 X103.164 Y91.964 E2503.17090
G1 X103.090 Y91.772 E2503.19143
G1 X102.519 Y90.711 E2503.31166
G1 X102.402 Y90.543 E2503.33208
G1 X101.596 Y89.649 E2503.45219
G1 X101.444 Y89.514 E2503.47247
G1 X100.442 Y88.831 E2503.59347
G1 X100.260 Y88.738 E2503.61386
G1 X99.088 Y88.297 E2503.73881
G1 X97.744 Y88.122 E2503.87405
G1 X96.056 Y88.119 E2504.04248
G1 X95.100 Y88.119 E2504.13787
G1 X95.100 Y88.785 E2504.20432
G1 X87.900 Y88.785 E2504.92274
G1 X87.900 Y81.919 E2505.60783
G1 X210.314 Y81.919 E2517.82235
G1 F2100 E2517.42235
G1 Z1.600
G0 F12000 X171.843 Y92.080
G1 Z1.200
G1 F2100 E2517.82235
G1 F2220 X171.769 Y91.883 E2517.84335
G1 X171.207 Y90.788 E2517.96616
G1 X171.090 Y90.619 E2517.98667
G1 X170.285 Y89.695 E2518.10895
G1 X170.130 Y89.558 E2518.12959
G1 X169.124 Y88.856 E2518.25199
G1 X168.941 Y88.760 E2518.27261
G1 X167.747 Y88.304 E2518.40014
G1 X166.381 Y88.122 E2518.53765
G1 X165.321 Y88.119 E2518.64341
G1 X117.707 Y88.119 E2523.39436
G1 X117.612 Y88.124 E2523.40385
G1 X116.401 Y88.272 E2523.52558
G1 X116.217 Y88.317 E2523.54448
G1 X115.050 Y88.763 E2523.66914
G1 X114.881 Y88.853 E2523.68825
G1 X113.866 Y89.561 E2523.81173
G1 X113.723 Y89.687 E2523.83075
G1 X112.905 Y90.626 E2523.95501
G1 X112.796 Y90.783 E2523.97408
G1 X112.228 Y91.891 E2524.09831
G1 X112.162 Y92.069 E2524.11726
G1 X111.878 Y93.281 E2524.24147
G1 X111.856 Y93.470 E2524.26045
G1 X111.872 Y94.716 E2524.38479
G1 X122.562 Y173.128 E2532.28114
G1 X122.855 Y174.252 E2532.39705
G1 X122.902 Y174.433 E2532.41570
G1 X123.478 Y175.507 E2532.53731
G1 X123.567 Y175.672 E2532.55601
G1 X124.378 Y176.577 E2532.67727
G1 X124.503 Y176.716 E2532.69592
G1 X125.507 Y177.405 E2532.81742
G1 X125.662 Y177.511 E2532.83616
G1 X126.792 Y177.939 E2532.95673
G1 X126.970 Y178.008 E2532.97578
G1 X128.366 Y178.184 E2533.11617
G1 X129.760 Y178.025 E2533.25617
G1 X130.904 Y177.606 E2533.37773
G1 X133.372 Y176.516 E2533.64694
G1 X135.778 Y175.736 E2533.89931
G1 X138.113 Y175.242 E2534.13745
G1 X140.616 Y174.966 E2534.38872
G1 X143.261 Y174.952 E2534.65264
G1 X145.633 Y175.201 E2534.89062
G1 X148.054 Y175.699 E2535.13725
G1 X150.502 Y176.475 E2535.39349
G1 X150.625 Y176.515 E2535.40639
G1 X152.995 Y177.569 E2535.66520
G1 X154.059 Y177.958 E2535.77824
G1 X154.237 Y178.025 E2535.79722
G1 X155.634 Y178.184 E2535.93751
G1 X157.027 Y178.008 E2536.07761
G1 X158.166 Y177.576 E2536.19916
G1 X158.342 Y177.509 E2536.21795
G1 X159.340 Y176.824 E2536.33873
G1 X159.496 Y176.717 E2536.35761
G1 X160.309 Y175.810 E2536.47915
G1 X160.434 Y175.671 E2536.49780
G1 X161.007 Y174.602 E2536.61882
G1 X161.097 Y174.436 E2536.63766
G1 X161.405 Y173.257 E2536.75925
G1 X161.439 Y173.128 E2536.77256
G1 X172.087 Y95.039 E2544.63642
G1 X172.125 Y94.764 E2544.66412
G1 X172.147 Y93.430 E2544.79724
G1 X171.843 Y92.080 E2544.93532
G1 F2100 E2544.53532
G1 Z1.600
G0 F12000 X142.497 Y197.162
G1 Z1.200
G1 F2100 E2544.93532
G1 F2220 X142.000 Y197.097 E2544.98533
G1 X141.504 Y197.162 E2545.03525
G1 X141.039 Y197.356 E2545.08552
G1 X140.643 Y197.660 E2545.13534
G1 X140.339 Y198.056 E2545.18515
G1 X140.145 Y198.521 E2545.23542
G1 X140.080 Y199.018 E2545.28544
G1 X140.145 Y199.516 E2545.33555
G1 X140.339 Y199.979 E2545.38564
G1 X140.643 Y200.376 E2545.43553
G1 X141.040 Y200.680 E2545.48542
G1 X141.502 Y200.872 E2545.53534
G1 X142.000 Y200.939 E2545.58548
G1 X142.499 Y200.872 E2545.63572
G1 X142.961 Y200.680 E2545.68564
G1 X143.358 Y200.376 E2545.73553
G1 X143.662 Y199.979 E2545.78543
G1 X143.856 Y199.516 E2545.83552
G1 X143.921 Y199.018 E2545.88563
G1 X143.856 Y198.521 E2545.93564
G1 X143.662 Y198.056 E2545.98592
G1 X143.358 Y197.660 E2546.03573
G1 X142.962 Y197.356 E2546.08554
G1 X142.497 Y197.162 E2546.13582
G0 F12000 X142.340 Y197.747
;TYPE:WALL-OUTER
G1 F2220 X142.000 Y197.702 E2546.17004
G1 X141.661 Y197.747 E2546.20416
G1 X141.342 Y197.879 E2546.23861
G1 X141.071 Y198.088 E2546.27276
G1 X140.862 Y198.359 E2546.30690
G1 X140.730 Y198.678 E2546.34135
G1 X140.685 Y199.018 E2546.37557
G1 X140.730 Y199.359 E2546.40989
G1 X140.862 Y199.676 E2546.44415
G1 X141.071 Y199.948 E2546.47838
G1 X141.343 Y200.156 E2546.51255
G1 X141.660 Y200.288 E2546.54681
G1 X142.000 Y200.334 E2546.58105
G1 X142.341 Y200.288 E2546.61538
G1 X142.658 Y200.156 E2546.64964
G1 X142.930 Y199.948 E2546.68381
G1 X143.139 Y199.676 E2546.71804
G1 X143.271 Y199.359 E2546.75230
G1 X143.316 Y199.018 E2546.78662
G1 X143.271 Y198.678 E2546.82084
G1 X143.139 Y198.359 E2546.85529
G1 X142.930 Y198.088 E2546.88943
G1 X142.659 Y197.879 E2546.92358
G1 X142.340 Y197.747 E2546.95803
G1 F2100 E2546.55803
G1 Z1.600
G0 F12000 X148.207 Y175.119
G1 Z1.200
G1 F2100 E2546.95803
G1 F2220 X150.689 Y175.905 E2547.21781
G1 X150.837 Y175.953 E2547.23333
G1 X153.220 Y177.012 E2547.49353
G1 X154.271 Y177.397 E2547.60521
G1 X154.378 Y177.437 E2547.61661
G1 X155.631 Y177.580 E2547.74245
G1 X156.881 Y177.422 E2547.86817
G1 X157.951 Y177.016 E2547.98236
G1 X158.060 Y176.974 E2547.99401
G1 X159.098 Y176.262 E2548.11961
G1 X159.939 Y175.323 E2548.24539
G1 X160.480 Y174.316 E2548.35945
G1 X160.535 Y174.214 E2548.37101
G1 X160.849 Y173.011 E2548.49507
G1 X171.526 Y94.717 E2556.37958
G1 X171.546 Y93.492 E2556.50183
G1 X171.266 Y92.252 E2556.62868
G1 X171.219 Y92.126 E2556.64209
G1 X170.692 Y91.097 E2556.75745
G1 X169.858 Y90.118 E2556.88578
G1 X169.758 Y90.030 E2556.89907
G1 X168.811 Y89.369 E2557.01430
G1 X168.693 Y89.307 E2557.02760
G1 X167.598 Y88.889 E2557.14455
G1 X166.340 Y88.722 E2557.27118
G1 X117.722 Y88.719 E2562.12230
G1 X117.663 Y88.722 E2562.12819
G1 X116.509 Y88.863 E2562.24420
G1 X116.396 Y88.891 E2562.25581
G1 X115.299 Y89.310 E2562.37298
G1 X115.196 Y89.365 E2562.38464
G1 X114.237 Y90.034 E2562.50131
G1 X114.150 Y90.111 E2562.51290
G1 X113.380 Y90.994 E2562.62980
G1 X113.313 Y91.091 E2562.64156
G1 X112.778 Y92.134 E2562.75853
G1 X112.737 Y92.243 E2562.77015
G1 X112.470 Y93.384 E2562.88707
G1 X112.457 Y93.500 E2562.89872
G1 X112.471 Y94.671 E2563.01557
G1 X123.151 Y173.011 E2570.90467
G1 X123.465 Y174.213 E2571.02863
G1 X124.006 Y175.222 E2571.14287
G1 X124.061 Y175.324 E2571.15443
G1 X124.902 Y176.262 E2571.28014
G1 X125.941 Y176.975 E2571.40587
G1 X127.009 Y177.379 E2571.51981
G1 X127.118 Y177.422 E2571.53150
G1 X128.369 Y177.580 E2571.65732
G1 X129.621 Y177.437 E2571.78305
G1 X130.696 Y177.043 E2571.89730
G1 X133.164 Y175.953 E2572.16650
G1 X135.620 Y175.156 E2572.42414
G1 X137.988 Y174.655 E2572.66565
G1 X138.144 Y174.621 E2572.68158
G1 X140.552 Y174.369 E2572.92317
G1 X143.295 Y174.352 E2573.19687
G1 X145.698 Y174.604 E2573.43796
G1 X148.207 Y175.119 E2573.69353
G1 F2100 E2573.29353
G1 Z1.600
G0 F12000 X166.704 Y198.934
G1 Z1.200
G1 F2100 E2573.69353
G1 F2220 X166.554 Y201.694 E2573.96933
G1 X166.149 Y204.163 E2574.21898
G1 X166.121 Y204.330 E2574.23587
G1 X165.451 Y206.745 E2574.48594
G1 X165.407 Y206.902 E2574.50221
G1 X164.414 Y209.394 E2574.76988
G1 X163.163 Y211.754 E2575.03640
G1 X161.666 Y213.961 E2575.30249
G1 X159.930 Y216.005 E2575.57008
G1 X158.108 Y217.730 E2575.82043
G1 X157.989 Y217.844 E2575.83687
G1 X155.863 Y219.460 E2576.10333
G1 X153.710 Y220.755 E2576.35403
G1 X153.562 Y220.844 E2576.37126
G1 X151.143 Y221.963 E2576.63720
G1 X148.610 Y222.817 E2576.90392
G1 X145.995 Y223.392 E2577.17108
G1 X143.340 Y223.681 E2577.43757
G1 X140.661 Y223.681 E2577.70488
G1 X138.006 Y223.392 E2577.97136
G1 X135.391 Y222.817 E2578.23852
G1 X132.858 Y221.963 E2578.50524
G1 X130.434 Y220.842 E2578.77172
G1 X128.282 Y219.547 E2579.02233
G1 X128.134 Y219.457 E2579.03961
G1 X126.011 Y217.844 E2579.30565
G1 X124.188 Y216.117 E2579.55621
G1 X122.334 Y213.961 E2579.83994
G1 X120.837 Y211.754 E2580.10604
G1 X119.586 Y209.394 E2580.37256
G1 X118.593 Y206.901 E2580.64032
G1 X117.923 Y204.485 E2580.89048
G1 X117.878 Y204.325 E2580.90707
G1 X117.473 Y201.851 E2581.15721
G1 X117.446 Y201.690 E2581.17350
G1 X117.299 Y198.990 E2581.44331
G1 X102.885 Y93.285 E2592.08820
G1 X102.592 Y92.148 E2592.20536
G1 X102.544 Y92.024 E2592.21863
G1 X102.007 Y91.026 E2592.33171
G1 X101.931 Y90.917 E2592.34497
G1 X101.173 Y90.076 E2592.45794
G1 X101.074 Y89.988 E2592.47115
G1 X100.135 Y89.348 E2592.58454
G1 X100.017 Y89.287 E2592.59779
G1 X98.942 Y88.883 E2592.71238
G1 X97.705 Y88.722 E2592.83685
G1 X95.700 Y88.718 E2593.03691
G1 X95.700 Y89.385 E2593.10347
G1 X87.300 Y89.385 E2593.94162
G1 X87.300 Y81.319 E2594.74645
G1 X210.914 Y81.319 E2607.08070
G1 X210.915 Y117.882 E2610.72898
G1 X166.704 Y198.934 E2619.94127
G0 F12000 X166.200 Y198.167
;TYPE:SKIN
G1 F2220 X166.200 Y139.773 E2625.76785
G1 F2100 E2625.36785
G1 Z1.600
G0 F12000 X166.800 Y135.373
G1 Z1.200
G1 F2100 E2625.76785
G1 F2220 X166.800 Y197.067 E2631.92370
G0 F12000 X167.400 Y195.967
G1 F2220 X167.400 Y130.973 E2638.40883
G1 F2100 E2638.00883
G1 Z1.600
G0 F12000 X168.000 Y126.572
G1 Z1.200
G1 F2100 E2638.40883
G1 F2220 X168.000 Y194.867 E2645.22333
G0 F12000 X168.600 Y193.767
G1 F2220 X168.600 Y122.172 E2652.36711
G1 F2100 E2651.96711
G1 Z1.600
G0 F12000 X169.200 Y117.772
G1 Z1.200
G1 F2100 E2652.36711
G1 F2220 X169.200 Y192.667 E2659.84016
G0 F12000 X169.800 Y191.567
G1 F2220 X169.800 Y113.372 E2667.64249
G1 F2100 E2667.24249
G1 Z1.600
G0 F12000 X170.400 Y108.972
G1 Z1.200
G1 F2100 E2667.64249
G1 F2220 X170.400 Y190.467 E2675.77410
G0 F12000 X171.000 Y189.367
G1 F2220 X171.000 Y104.572 E2684.23498
G1 F2100 E2683.83498
G1 Z1.600
G0 F12000 X171.600 Y100.172
G1 Z1.200
G1 F2100 E2684.23498
G1 F2220 X171.600 Y188.267 E2693.02513
G0 F12000 X172.200 Y187.167
G1 F2220 X172.200 Y95.772 E2702.14456
G1 F2100 E2701.74456
G1 Z1.600
G0 F12000 X172.200 Y92.709
G1 Z1.200
G1 F2100 E2702.14456
G1 F2220 X172.200 Y82.129 E2703.20024
G0 F12000 X171.600 Y82.129
G1 F2220 X171.600 Y91.092 E2704.09457
G0 F12000 X171.000 Y90.196
G1 F2220 X171.000 Y82.129 E2704.89950
G0 F12000 X170.400 Y82.129
G1 F2220 X170.400 Y89.516 E2705.63658
G0 F12000 X169.800 Y89.072
G1 F2220 X169.800 Y82.129 E2706.32935
G0 F12000 X169.200 Y82.129
G1 F2220 X169.200 Y88.659 E2706.98092
G0 F12000 X168.600 Y88.404
G1 F2220 X168.600 Y82.129 E2707.60704
G0 F12000 X168.000 Y82.129
G1 F2220 X168.000 Y88.176 E2708.21041
G0 F12000 X167.400 Y88.045
G1 F2220 X167.400 Y82.129 E2708.80071
G0 F12000 X166.800 Y82.129
G1 F2220 X166.800 Y87.965 E2709.38303
G0 F12000 X166.200 Y87.911
G1 F2220 X166.200 Y82.129 E2709.95996
G0 F12000 X165.600 Y82.129
G1 F2220 X165.600 Y87.911 E2710.53689
G0 F12000 X165.000 Y87.911
G1 F2220 X165.000 Y82.129 E2711.11382
G0 F12000 X164.400 Y82.129
G1 F2220 X164.400 Y87.911 E2711.69075
G0 F12000 X163.800 Y87.911
G1 F2220 X163.800 Y82.129 E2712.26768
G0 F12000 X163.200 Y82.129
G1 F2220 X163.200 Y87.911 E2712.84461
G0 F12000 X162.600 Y87.911
G1 F2220 X162.600 Y82.129 E2713.42154
G0 F12000 X162.000 Y82.129
G1 F2220 X162.000 Y87.911 E2713.99847
G0 F12000 X161.400 Y87.911
G1 F2220 X161.400 Y82.129 E2714.57540
G0 F12000 X160.800 Y82.129
G1 F2220 X160.800 Y87.911 E2715.15233
G0 F12000 X160.200 Y87.911
G1 F2220 X160.200 Y82.129 E2715.72927
G1 F2100 E2715.32927
G1 Z1.600
G0 F12000 X172.800 Y82.129
G1 Z1.200
G1 F2100 E2715.72927
G1 F2220 X172.800 Y186.067 E2726.10024
G0 F12000 X173.400 Y184.967
G1 F2220 X173.400 Y82.129 E2736.36146
G0 F12000 X174.000 Y82.129
G1 F2220 X174.000 Y183.867 E2746.51292
G0 F12000 X174.600 Y182.767
G1 F2220 X174.600 Y82.129 E2756.55462
G0 F12000 X175.200 Y82.129
G1 F2220 X175.200 Y181.667 E2766.48656
G0 F12000 X175.800 Y180.567
G1 F2220 X175.800 Y82.129 E2776.30874
G0 F12000 X176.400 Y82.129
G1 F2220 X176.400 Y179.467 E2786.02117
G0 F12000 X177.000 Y178.367
G1 F2220 X177.000 Y82.129 E2795.62383
G0 F12000 X177.600 Y82.129
G1 F2220 X177.600 Y177.267 E2805.11674
G0 F12000 X178.200 Y176.167
G1 F2220 X178.200 Y82.129 E2814.49989
G0 F12000 X178.800 Y82.129
G1 F2220 X178.800 Y175.067 E2823.77328
G0 F12000 X179.400 Y173.967
G1 F2220 X179.400 Y82.129 E2832.93692
G0 F12000 X180.000 Y82.129
G1 F2220 X180.000 Y172.867 E2841.99079
G0 F12000 X180.600 Y171.767
G1 F2220 X180.600 Y82.129 E2850.93491
G0 F12000 X181.200 Y82.129
G1 F2220 X181.200 Y170.667 E2859.76926
G0 F12000 X181.800 Y169.568
G1 F2220 X181.800 Y82.129 E2868.49396
G0 F12000 X182.400 Y82.129
G1 F2220 X182.400 Y168.468 E2877.10890
G0 F12000 X183.000 Y167.368
G1 F2220 X183.000 Y82.129 E2885.61409
G0 F12000 X183.600 Y82.129
G1 F2220 X183.600 Y166.268 E2894.00951
G0 F12000 X184.200 Y165.168
G1 F2220 X184.200 Y82.129 E2902.29517
G0 F12000 X184.800 Y82.129
G1 F2220 X184.800 Y164.068 E2910.47108
G0 F12000 X185.400 Y162.968
G1 F2220 X185.400 Y82.129 E2918.53723
G0 F12000 X186.000 Y82.129
G1 F2220 X186.000 Y161.868 E2926.49362
G0 F12000 X186.600 Y160.768
G1 F2220 X186.600 Y82.129 E2934.34025
G0 F12000 X187.200 Y82.129
G1 F2220 X187.200 Y159.668 E2942.07712
G0 F12000 X187.800 Y158.568
G1 F2220 X187.800 Y82.129 E2949.70424
G0 F12000 X188.400 Y82.129
G1 F2220 X188.400 Y157.468 E2957.22159
G0 F12000 X189.000 Y156.368
G1 F2220 X189.000 Y82.129 E2964.62919
G0 F12000 X189.600 Y82.129
G1 F2220 X189.600 Y155.268 E2971.92703
G0 F12000 X190.200 Y154.168
G1 F2220 X190.200 Y82.129 E2979.11511
G0 F12000 X190.800 Y82.129
G1 F2220 X190.800 Y153.068 E2986.19343
G0 F12000 X191.400 Y151.968
G1 F2220 X191.400 Y82.129 E2993.16200
G0 F12000 X192.000 Y82.129
G1 F2220 X192.000 Y150.868 E3000.02080
G0 F12000 X192.600 Y149.768
G1 F2220 X192.600 Y82.129 E3006.76985
G0 F12000 X193.200 Y82.129
G1 F2220 X193.200 Y148.668 E3013.40914
G0 F12000 X193.800 Y147.568
G1 F2220 X193.800 Y82.129 E3019.93867
G0 F12000 X194.400 Y82.129
G1 F2220 X194.400 Y146.468 E3026.35844
G0 F12000 X195.000 Y145.368
G1 F2220 X195.000 Y82.129 E3032.66845
G0 F12000 X195.600 Y82.129
G1 F2220 X195.600 Y144.268 E3038.86871
G0 F12000 X196.200 Y143.168
G1 F2220 X196.200 Y82.129 E3044.95920
G0 F12000 X196.800 Y82.129
G1 F2220 X196.800 Y142.068 E3050.93994
G0 F12000 X197.400 Y140.968
G1 F2220 X197.400 Y82.129 E3056.81092
G0 F12000 X198.000 Y82.129
G1 F2220 X198.000 Y139.868 E3062.57214
G0 F12000 X198.600 Y138.768
G1 F2220 X198.600 Y82.129 E3068.22360
G0 F12000 X199.200 Y82.129
G1 F2220 X199.200 Y137.668 E3073.76531
G0 F12000 X199.800 Y136.568
G1 F2220 X199.800 Y82.129 E3079.19725
G0 F12000 X200.400 Y82.129
G1 F2220 X200.400 Y135.468 E3084.51944
G0 F12000 X201.000 Y134.369
G1 F2220 X201.000 Y82.129 E3089.73197
G0 F12000 X201.600 Y82.129
G1 F2220 X201.600 Y133.269 E3094.83474
G0 F12000 X202.200 Y132.169
G1 F2220 X202.200 Y82.129 E3099.82775
G0 F12000 X202.800 Y82.129
G1 F2220 X202.800 Y131.069 E3104.71100
G0 F12000 X203.400 Y129.969
G1 F2220 X203.400 Y82.129 E3109.48450
G0 F12000 X204.000 Y82.129
G1 F2220 X204.000 Y128.869 E3114.14823
G0 F12000 X204.600 Y127.769
G1 F2220 X204.600 Y82.129 E3118.70221
G0 F12000 X205.200 Y82.129
G1 F2220 X205.200 Y126.669 E3123.14643
G0 F12000 X205.800 Y125.569
G1 F2220 X205.800 Y82.129 E3127.48089
G0 F12000 X206.400 Y82.129
G1 F2220 X206.400 Y124.469 E3131.70559
G0 F12000 X207.000 Y123.369
G1 F2220 X207.000 Y82.129 E3135.82054
G0 F12000 X207.600 Y82.129
G1 F2220 X207.600 Y122.269 E3139.82572
G0 F12000 X208.200 Y121.169
G1 F2220 X208.200 Y82.129 E3143.72115
G0 F12000 X208.800 Y82.129
G1 F2220 X208.800 Y120.069 E3147.50682
G0 F12000 X209.400 Y118.969
G1 F2220 X209.400 Y82.129 E3151.18273
G0 F12000 X210.000 Y82.129
G1 F2220 X210.000 Y117.869 E3154.74888
G1 F2100 E3154.34888
G1 Z1.600
G0 F12000 X165.600 Y144.173
G1 Z1.200
G1 F2100 E3154.74888
G1 F2220 X165.600 Y202.506 E3160.56937
G1 F2100 E3160.16937
G1 Z1.600
G0 F12000 X165.000 Y205.343
G1 Z1.200
G1 F2100 E3160.56937
G1 F2220 X165.000 Y148.573 E3166.23390
G1 F2100 E3165.83390
G1 Z1.600
G0 F12000 X164.400 Y152.973
G1 Z1.200
G1 F2100 E3166.23390
G1 F2220 X164.400 Y207.240 E3171.64869
G1 F2100 E3171.24869
G1 Z1.600
G0 F12000 X163.800 Y208.748
G1 Z1.200
G1 F2100 E3171.64869
G1 F2220 X163.800 Y157.373 E3176.77490
G1 F2100 E3176.37490
G1 Z1.600
G0 F12000 X163.200 Y161.773
G1 Z1.200
G1 F2100 E3176.77490
G1 F2220 X163.200 Y209.956 E3181.58262
G0 F12000 X162.600 Y211.087
G1 F2220 X162.600 Y166.174 E3186.06406
G1 F2100 E3185.66406
G1 Z1.600
G0 F12000 X162.000 Y170.574
G1 Z1.200
G1 F2100 E3186.06406
G1 F2220 X162.000 Y212.026 E3190.20016
G0 F12000 X161.400 Y212.912
G1 F2220 X161.400 Y174.108 E3194.07204
G0 F12000 X160.800 Y175.432
G1 F2220 X160.800 Y213.730 E3197.89343
G0 F12000 X160.200 Y214.436
G1 F2220 X160.200 Y176.245 E3201.70414
G0 F12000 X159.600 Y176.900
G1 F2220 X159.600 Y215.143 E3205.52004
G0 F12000 X159.000 Y215.770
G1 F2220 X159.000 Y177.312 E3209.35740
G0 F12000 X158.400 Y177.712
G1 F2220 X158.400 Y216.339 E3213.21162
G0 F12000 X157.800 Y216.907
G1 F2220 X157.800 Y177.939 E3217.09986
G0 F12000 X157.200 Y178.166
G1 F2220 X157.200 Y217.425 E3221.01714
G0 F12000 X156.600 Y217.882
G1 F2220 X156.600 Y178.273 E3224.96934
G0 F12000 X156.000 Y178.349
G1 F2220 X156.000 Y218.339 E3228.95956
G0 F12000 X155.400 Y218.795
G1 F2220 X155.400 Y178.370 E3232.99318
G0 F12000 X154.800 Y178.302
G1 F2220 X154.800 Y219.156 E3237.06961
G0 F12000 X154.200 Y219.517
G1 F2220 X154.200 Y178.234 E3241.18884
G0 F12000 X153.600 Y178.015
G1 F2220 X153.600 Y219.878 E3245.36595
G1 F2100 E3244.96595
G1 Z1.600
G0 F12000 X143.400 Y222.857
G1 Z1.200
G1 F2100 E3245.36595
G1 F2220 X143.400 Y200.608 E3247.58596
G0 F12000 X142.800 Y200.974
G1 F2220 X142.800 Y222.860 E3249.76976
G0 F12000 X142.200 Y222.863
G1 F2220 X142.200 Y201.124 E3251.93888
G0 F12000 X141.600 Y201.098
G1 F2220 X141.600 Y222.867 E3254.11100
G0 F12000 X141.000 Y222.870
G1 F2220 X141.000 Y200.891 E3256.30408
G0 F12000 X140.400 Y200.405
G1 F2220 X140.400 Y222.837 E3258.54235
G1 F2100 E3258.14235
G1 Z1.600
G0 F12000 X144.000 Y222.794
G1 Z1.200
G1 F2100 E3258.54235
G1 F2220 X144.000 Y199.715 E3260.84518
G0 F12000 X144.000 Y198.320
G1 F2220 X144.000 Y175.241 E3263.14802
G0 F12000 X143.400 Y175.178
G1 F2220 X143.400 Y197.427 E3265.36803
G0 F12000 X142.800 Y197.060
G1 F2220 X142.800 Y175.164 E3267.55282
G0 F12000 X142.200 Y175.167
G1 F2220 X142.200 Y196.911 E3269.72245
G0 F12000 X141.600 Y196.938
G1 F2220 X141.600 Y175.170 E3271.89447
G0 F12000 X141.000 Y175.174
G1 F2220 X141.000 Y197.145 E3274.08674
G0 F12000 X140.400 Y197.632
G1 F2220 X140.400 Y175.201 E3276.32492
G1 F2100 E3275.92492
G1 Z1.600
G0 F12000 X144.600 Y175.304
G1 Z1.200
G1 F2100 E3276.32492
G1 F2220 X144.600 Y222.729 E3281.05700
G0 F12000 X145.200 Y222.664
G1 F2220 X145.200 Y175.367 E3285.77632
G0 F12000 X145.800 Y175.450
G1 F2220 X145.800 Y222.599 E3290.48086
G0 F12000 X146.400 Y222.474
G1 F2220 X146.400 Y175.574 E3295.16056
G0 F12000 X147.000 Y175.697
G1 F2220 X147.000 Y222.343 E3299.81492
G0 F12000 X147.600 Y222.211
G1 F2220 X147.600 Y175.821 E3304.44373
G0 F12000 X148.200 Y175.967
G1 F2220 X148.200 Y222.079 E3309.04481
G0 F12000 X148.800 Y221.899
G1 F2220 X148.800 Y176.157 E3313.60896
G0 F12000 X149.400 Y176.347
G1 F2220 X149.400 Y221.697 E3318.13400
G0 F12000 X150.000 Y221.494
G1 F2220 X150.000 Y176.538 E3322.61973
G0 F12000 X150.600 Y176.735
G1 F2220 X150.600 Y221.292 E3327.06565
G0 F12000 X151.200 Y221.041
G1 F2220 X151.200 Y177.001 E3331.45998
G0 F12000 X151.800 Y177.268
G1 F2220 X151.800 Y220.760 E3335.79963
G0 F12000 X152.400 Y220.479
G1 F2220 X152.400 Y177.535 E3340.08460
G0 F12000 X153.000 Y177.794
G1 F2220 X153.000 Y220.198 E3344.31568
G1 F2100 E3343.91568
G1 Z1.600
G0 F12000 X139.800 Y222.772
G1 Z1.200
G1 F2100 E3344.31568
G1 F2220 X139.800 Y175.267 E3349.05575
G0 F12000 X139.200 Y175.333
G1 F2220 X139.200 Y222.707 E3353.78275
G0 F12000 X138.600 Y222.642
G1 F2220 X138.600 Y175.399 E3358.49667
G0 F12000 X138.000 Y175.481
G1 F2220 X138.000 Y222.561 E3363.19434
G0 F12000 X137.400 Y222.429
G1 F2220 X137.400 Y175.608 E3367.86615
G0 F12000 X136.800 Y175.735
G1 F2220 X136.800 Y222.298 E3372.51223
G0 F12000 X136.200 Y222.166
G1 F2220 X136.200 Y175.861 E3377.13256
G0 F12000 X135.600 Y176.014
G1 F2220 X135.600 Y222.033 E3381.72436
G0 F12000 X135.000 Y221.831
G1 F2220 X135.000 Y176.208 E3386.27664
G0 F12000 X134.400 Y176.403
G1 F2220 X134.400 Y221.628 E3390.78921
G0 F12000 X133.800 Y221.426
G1 F2220 X133.800 Y176.597 E3395.26226
G0 F12000 X133.200 Y176.821
G1 F2220 X133.200 Y221.224 E3399.69281
G0 F12000 X132.600 Y220.951
G1 F2220 X132.600 Y177.086 E3404.06968
G0 F12000 X132.000 Y177.351
G1 F2220 X132.000 Y220.673 E3408.39237
G0 F12000 X131.400 Y220.396
G1 F2220 X131.400 Y177.616 E3412.66097
G0 F12000 X130.800 Y177.867
G1 F2220 X130.800 Y220.117 E3416.87669
G0 F12000 X130.200 Y219.756
G1 F2220 X130.200 Y178.087 E3421.03444
G0 F12000 X129.600 Y178.254
G1 F2220 X129.600 Y219.395 E3425.13951
G0 F12000 X129.000 Y219.034
G1 F2220 X129.000 Y178.323 E3429.20167
G0 F12000 X128.400 Y178.392
G1 F2220 X128.400 Y218.640 E3433.21763
G0 F12000 X127.800 Y218.185
G1 F2220 X127.800 Y178.325 E3437.19488
G0 F12000 X127.200 Y178.249
G1 F2220 X127.200 Y217.729 E3441.13421
G0 F12000 X126.600 Y217.274
G1 F2220 X126.600 Y178.092 E3445.04380
G0 F12000 X126.000 Y177.865
G1 F2220 X126.000 Y216.717 E3448.92047
G0 F12000 X125.400 Y216.149
G1 F2220 X125.400 Y177.587 E3452.76820
G0 F12000 X124.800 Y177.175
G1 F2220 X124.800 Y215.580 E3456.60027
G0 F12000 X124.200 Y214.892
G1 F2220 X124.200 Y176.693 E3460.41178
G0 F12000 X123.600 Y176.023
G1 F2220 X123.600 Y214.193 E3464.22040
G0 F12000 X123.000 Y213.494
G1 F2220 X123.000 Y175.060 E3468.05536
G1 F2100 E3467.65536
G1 Z1.600
G0 F12000 X122.400 Y173.340
G1 Z1.200
G1 F2100 E3468.05536
G1 F2220 X122.400 Y212.614 E3471.97414
G0 F12000 X121.800 Y211.728
G1 F2220 X121.800 Y169.097 E3476.22787
G1 F2100 E3475.82787
G1 Z1.600
G0 F12000 X121.200 Y164.695
G1 Z1.200
G1 F2100 E3476.22787
G1 F2220 X121.200 Y210.687 E3480.81697
G0 F12000 X120.600 Y209.571
G1 F2220 X120.600 Y160.294 E3485.73385
G1 F2100 E3485.33385
G1 Z1.600
G0 F12000 X120.000 Y155.893
G1 Z1.200
G1 F2100 E3485.73385
G1 F2220 X120.000 Y208.244 E3490.95746
G1 F2100 E3490.55746
G1 Z1.600
G0 F12000 X119.400 Y206.737
G1 Z1.200
G1 F2100 E3490.95746
G1 F2220 X119.400 Y151.492 E3496.46983
G1 F2100 E3496.06983
G1 Z1.600
G0 F12000 X118.800 Y147.091
G1 Z1.200
G1 F2100 E3496.46983
G1 F2220 X118.800 Y204.617 E3502.20979
G1 F2100 E3501.80979
G1 Z1.600
G0 F12000 X118.200 Y200.492
G1 Z1.200
G1 F2100 E3502.20979
G1 F2220 X118.200 Y142.690 E3507.97730
G1 F2100 E3507.57730
G1 Z1.600
G0 F12000 X110.400 Y142.396
G1 Z1.200
G1 F2100 E3507.97730
G1 F2220 X110.400 Y82.129 E3513.99077
G0 F12000 X109.800 Y82.129
G1 F2220 X109.800 Y137.996 E3519.56520
G1 F2100 E3519.16520
G1 Z1.600
G0 F12000 X109.200 Y133.596
G1 Z1.200
G1 F2100 E3519.56520
G1 F2220 X109.200 Y82.129 E3524.70060
G0 F12000 X108.600 Y82.129
G1 F2220 X108.600 Y129.196 E3529.39696
G1 F2100 E3528.99696
G1 Z1.600
G0 F12000 X108.000 Y124.796
G1 Z1.200
G1 F2100 E3529.39696
G1 F2220 X108.000 Y82.129 E3533.65429
G0 F12000 X107.400 Y82.129
G1 F2220 X107.400 Y120.396 E3537.47259
G1 F2100 E3537.07259
G1 Z1.600
G0 F12000 X115.200 Y120.685
G1 Z1.200
G1 F2100 E3537.47259
G1 F2220 X115.200 Y177.597 E3543.15129
G1 F2100 E3542.75129
G1 Z1.600
G0 F12000 X114.600 Y173.197
G1 Z1.200
G1 F2100 E3543.15129
G1 F2220 X114.600 Y116.284 E3548.83009
G1 F2100 E3548.43009
G1 Z1.600
G0 F12000 X114.000 Y111.883
G1 Z1.200
G1 F2100 E3548.83009
G1 F2220 X114.000 Y168.797 E3554.50899
G1 F2100 E3554.10899
G1 Z1.600
G0 F12000 X113.400 Y164.397
G1 Z1.200
G1 F2100 E3554.50899
G1 F2220 X113.400 Y107.482 E3560.18800
G1 F2100 E3559.78800
G1 Z1.600
G0 F12000 X112.800 Y103.081
G1 Z1.200
G1 F2100 E3560.18800
G1 F2220 X112.800 Y159.997 E3565.86710
G1 F2100 E3565.46710
G1 Z1.600
G0 F12000 X112.200 Y155.597
G1 Z1.200
G1 F2100 E3565.86710
G1 F2220 X112.200 Y98.680 E3571.54630
G1 F2100 E3571.14630
G1 Z1.600
G0 F12000 X112.200 Y91.485
G1 Z1.200
G1 F2100 E3571.54630
G1 F2220 X112.200 Y82.129 E3572.47984
G0 F12000 X111.600 Y82.129
G1 F2220 X111.600 Y151.196 E3579.37138
G1 F2100 E3578.97138
G1 Z1.600
G0 F12000 X111.000 Y146.796
G1 Z1.200
G1 F2100 E3579.37138
G1 F2220 X111.000 Y82.129 E3585.82388
G1 F2100 E3585.42388
G1 Z1.600
G0 F12000 X112.800 Y82.129
G1 Z1.200
G1 F2100 E3585.82388
G1 F2220 X112.800 Y90.427 E3586.65185
G0 F12000 X113.400 Y89.738
G1 F2220 X113.400 Y82.129 E3587.41108
G0 F12000 X114.000 Y82.129
G1 F2220 X114.000 Y89.212 E3588.11783
G0 F12000 X114.600 Y88.794
G1 F2220 X114.600 Y82.129 E3588.78286
G0 F12000 X115.200 Y82.129
G1 F2220 X115.200 Y88.481 E3589.41667
G0 F12000 X115.800 Y88.252
G1 F2220 X115.800 Y82.129 E3590.02763
G0 F12000 X116.400 Y82.129
G1 F2220 X116.400 Y88.061 E3590.61952
G0 F12000 X117.000 Y87.988
G1 F2220 X117.000 Y82.129 E3591.20414
G0 F12000 X117.600 Y82.129
G1 F2220 X117.600 Y87.915 E3591.78147
G0 F12000 X118.200 Y87.909
G1 F2220 X118.200 Y82.129 E3592.35820
G0 F12000 X118.800 Y82.129
G1 F2220 X118.800 Y87.909 E3592.93493
G0 F12000 X119.400 Y87.909
G1 F2220 X119.400 Y82.129 E3593.51166
G1 F2100 E3593.11166
G1 Z1.600
G0 F12000 X106.800 Y82.129
G1 Z1.200
G1 F2100 E3593.51166
G1 F2220 X106.800 Y115.995 E3596.89082
G1 F2100 E3596.49082
G1 Z1.600
G0 F12000 X106.200 Y111.595
G1 Z1.200
G1 F2100 E3596.89082
G1 F2220 X106.200 Y82.129 E3599.83095
G0 F12000 X105.600 Y82.129
G1 F2220 X105.600 Y107.195 E3602.33205
G1 F2100 E3601.93205
G1 Z1.600
G0 F12000 X105.000 Y102.795
G1 Z1.200
G1 F2100 E3602.33205
G1 F2220 X105.000 Y82.129 E3604.39411
G0 F12000 X104.400 Y82.129
G1 F2220 X104.400 Y98.395 E3606.01714
G1 F2100 E3605.61714
G1 Z1.600
G0 F12000 X103.800 Y93.995
G1 Z1.200
G1 F2100 E3606.01714
G1 F2220 X103.800 Y82.129 E3607.20113
G0 F12000 X103.200 Y82.129
G1 F2220 X103.200 Y91.533 E3608.13947
G0 F12000 X102.600 Y90.459
G1 F2220 X102.600 Y82.129 E3608.97064
G0 F12000 X102.000 Y82.129
G1 F2220 X102.000 Y89.782 E3609.73426
G0 F12000 X101.400 Y89.230
G1 F2220 X101.400 Y82.129 E3610.44280
G0 F12000 X100.800 Y82.129
G1 F2220 X100.800 Y88.821 E3611.11053
G0 F12000 X100.200 Y88.490
G1 F2220 X100.200 Y82.129 E3611.74523
G0 F12000 X99.600 Y82.129
G1 F2220 X99.600 Y88.265 E3612.35748
G0 F12000 X99.000 Y88.073
G1 F2220 X99.000 Y82.129 E3612.95058
G0 F12000 X98.400 Y82.129
G1 F2220 X98.400 Y87.995 E3613.53589
G0 F12000 X97.800 Y87.917
G1 F2220 X97.800 Y82.129 E3614.11342
G0 F12000 X97.200 Y82.129
G1 F2220 X97.200 Y87.911 E3614.69035
G0 F12000 X96.600 Y87.910
G1 F2220 X96.600 Y82.129 E3615.26718
G0 F12000 X96.000 Y82.129
G1 F2220 X96.000 Y87.909 E3615.84391
G0 F12000 X95.400 Y87.908
G1 F2220 X95.400 Y82.129 E3616.42054
G0 F12000 X94.800 Y82.129
G1 F2220 X94.800 Y88.575 E3617.06372
G0 F12000 X94.200 Y88.575
G1 F2220 X94.200 Y82.129 E3617.70691
G0 F12000 X93.600 Y82.129
G1 F2220 X93.600 Y88.575 E3618.35009
G0 F12000 X93.000 Y88.575
G1 F2220 X93.000 Y82.129 E3618.99328
G0 F12000 X92.400 Y82.129
G1 F2220 X92.400 Y88.575 E3619.63646
G0 F12000 X91.800 Y88.575
G1 F2220 X91.800 Y82.129 E3620.27965
G0 F12000 X91.200 Y82.129
G1 F2220 X91.200 Y88.575 E3620.92283
G0 F12000 X90.600 Y88.575
G1 F2220 X90.600 Y82.129 E3621.56602
G0 F12000 X90.000 Y82.129
G1 F2220 X90.000 Y88.575 E3622.20920
G0 F12000 X89.400 Y88.575
G1 F2220 X89.400 Y82.129 E3622.85239
G0 F12000 X88.800 Y82.129
G1 F2220 X88.800 Y88.575 E3623.49557
G0 F12000 X88.200 Y88.575
G1 F2220 X88.200 Y82.129 E3624.13875
G1 F2100 E3623.73875
G1 Z1.600
G0 F12000 X120.000 Y82.129
G1 Z1.200
G1 F2100 E3624.13875
G1 F2220 X120.000 Y87.909 E3624.71549
G0 F12000 X120.600 Y87.909
G1 F2220 X120.600 Y82.129 E3625.29222
G0 F12000 X121.200 Y82.129
G1 F2220 X121.200 Y87.909 E3625.86895
G0 F12000 X121.800 Y87.909
G1 F2220 X121.800 Y82.129 E3626.44568
G0 F12000 X122.400 Y82.129
G1 F2220 X122.400 Y87.909 E3627.02241
G0 F12000 X123.000 Y87.909
G1 F2220 X123.000 Y82.129 E3627.59914
G0 F12000 X123.600 Y82.129
G1 F2220 X123.600 Y87.909 E3628.17587
G0 F12000 X124.200 Y87.909
G1 F2220 X124.200 Y82.129 E3628.75260
G0 F12000 X124.800 Y82.129
G1 F2220 X124.800 Y87.909 E3629.32933
G0 F12000 X125.400 Y87.909
G1 F2220 X125.400 Y82.129 E3629.90606
G0 F12000 X126.000 Y82.129
G1 F2220 X126.000 Y87.909 E3630.48279
G0 F12000 X126.600 Y87.909
G1 F2220 X126.600 Y82.129 E3631.05952
G0 F12000 X127.200 Y82.129
G1 F2220 X127.200 Y87.909 E3631.63625
G0 F12000 X127.800 Y87.909
G1 F2220 X127.800 Y82.129 E3632.21298
G0 F12000 X128.400 Y82.129
G1 F2220 X128.400 Y87.909 E3632.78972
G0 F12000 X129.000 Y87.909
G1 F2220 X129.000 Y82.129 E3633.36645
G0 F12000 X129.600 Y82.129
